heyhilz/my_project-----/2024-10-15-11-44-55/in_data.txt
time:3833.853603965;enci0:-60,joint0:-0.003815,roll00,enci1:14,joint1:0.000469,roll10,enci2:552690,joint2:-227.445297,roll20,enci3:44326,joint3:44.677063,roll30,enci4:0,joint4:0.000000,roll40,enci5:0,joint5:0.000000,roll50
time:3833.856738441;enci0:-60,joint0:-0.003815,roll00,enci1:14,joint1:0.000469,roll10,enci2:552690,joint2:-227.445297,roll20,enci3:44326,joint3:44.677063,roll30,enci4:0,joint4:0.000000,roll40,enci5:0,joint5:0.000000,roll50
time:3833.857607546;enci0:-60,joint0:-0.003815,roll00,enci1:14,joint1:0.000469,roll10,enci2:552690,joint2:-227.445297,roll20,enci3:44326,joint3:44.677063,roll30,enci4:0,joint4:0.000000,roll40,enci5:0,joint5:0.000000,roll50
time:3833.860736993;enci0:-60,joint0:-0.003815,roll00,enci1:14,joint1:0.000469,roll10,enci2:552690,joint2:-227.445297,roll20,enci3:44326,joint3:44.677063,roll30,enci4:0,joint4:0.000000,roll40,enci5:0,joint5:0.000000,roll50
time:3833.861604421;enci0:-60,joint0:-0.003815,roll00,enci1:14,joint1:0.000469,roll10,enci2:552690,joint2:-227.445297,roll20,enci3:44326,joint3:44.677063,roll30,enci4:0,joint4:0.000000,roll40,enci5:0,joint5:0.000000,roll50
time:3833.864738059;enci0:-60,joint0:-0.003815,roll00,enci1:14,joint1:0.000469,roll10,enci2:552690,joint2:-227.445297,roll20,enci3:44326,joint3:44.677063,roll30,enci4:0,joint4:0.000000,roll40,enci5:0,joint5:0.000000,roll50
time:3833.865642363;enci0:-60,joint0:-0.003815,roll00,enci1:14,joint1:0.000469,roll10,enci2:552690,joint2:-227.445297,roll20,enci3:44326,joint3:44.677063,roll30,enci4:0,joint4:0.000000,roll40,enci5:0,joint5:0.000000,roll50
time:3833.868739125;enci0:-60,joint0:-0.003815,roll00,enci1:14,joint1:0.000469,roll10,enci2:552690,joint2:-227.445297,roll20,enci3:44326,joint3:44.677063,roll30,enci4:0,joint4:0.000000,roll40,enci5:0,joint5:0.000000,roll50
time:3833.869605715;enci0:-60,joint0:-0.003815,roll00,enci1:14,joint1:0.000469,roll10,enci2:552690,joint2:-227.445297,roll20,enci3:44326,joint3:44.677063,roll30,enci4:0,joint4:0.000000,roll40,enci5:0,joint5:0.000000,roll50
time:3833.872737677;enci0:-60,joint0:-0.003815,roll00,enci1:14,joint1:0.000469,roll10,enci2:552690,joint2:-227.445297,roll20,enci3:44326,joint3:44.677063,roll30,enci4:0,joint4:0.000000,roll40,enci5:0,joint5:0.000000,roll50
time:3833.873609296;enci0:-60,joint0:-0.003815,roll00,enci1:14,joint1:0.000469,roll10,enci2:552690,joint2:-227.445297,roll20,enci3:44326,joint3:44.677063,roll30,enci4:0,joint4:0.000000,roll40,enci5:0,joint5:0.000000,roll50
time:3833.876737067;enci0:-60,joint0:-0.003815,roll00,enci1:14,joint1:0.000469,roll10,enci2:552690,joint2:-227.445297,roll20,enci3:44326,joint3:44.677063,roll30,enci4:0,joint4:0.000000,roll40,enci5:0,joint5:0.000000,roll50
time:3833.877605333;enci0:-60,joint0:-0.003815,roll00,enci1:14,joint1:0.000469,roll10,enci2:552690,joint2:-227.445297,roll20,enci3:44326,joint3:44.677063,roll30,enci4:0,joint4:0.000000,roll40,enci5:0,joint5:0.000000,roll50
time:3833.880738133;enci0:-60,joint0:-0.003815,roll00,enci1:14,joint1:0.000469,roll10,enci2:552690,joint2:-227.445297,roll20,enci3:44326,joint3:44.677063,roll30,enci4:0,joint4:0.000000,roll40,enci5:0,joint5:0.000000,roll50
time:3833.881608075;enci0:-60,joint0:-0.003815,roll00,enci1:14,joint1:0.000469,roll10,enci2:552690,joint2:-227.445297,roll20,enci3:44326,joint3:44.677063,roll30,enci4:0,joint4:0.000000,roll40,enci5:0,joint5:0.000000,roll50
time:3833.884737523;enci0:-60,joint0:-0.003815,roll00,enci1:14,joint1:0.000469,roll10,enci2:552690,joint2:-227.445297,roll20,enci3:44326,joint3:44.677063,roll30,enci4:0,joint4:0.000000,roll40,enci5:0,joint5:0.000000,roll50
time:3833.885603275;enci0:-60,joint0:-0.003815,roll00,enci1:14,joint1:0.000469,roll10,enci2:552690,joint2:-227.445297,roll20,enci3:44326,joint3:44.677063,roll30,enci4:0,joint4:0.000000,roll40,enci5:0,joint5:0.000000,roll50
time:3833.888738589;enci0:-60,joint0:-0.003815,roll00,enci1:14,joint1:0.000469,roll10,enci2:552690,joint2:-227.445297,roll20,enci3:44326,joint3:44.677063,roll30,enci4:0,joint4:0.000000,roll40,enci5:0,joint5:0.000000,roll50
time:3833.889609370;enci0:-60,joint0:-0.003815,roll00,enci1:14,joint1:0.000469,roll10,enci2:552690,joint2:-227.445297,roll20,enci3:44326,joint3:44.677063,roll30,enci4:0,joint4:0.000000,roll40,enci5:0,joint5:0.000000,roll50
time:3833.892736302;enci0:-60,joint0:-0.003815,roll00,enci1:14,joint1:0.000469,roll10,enci2:552690,joint2:-227.445297,roll20,enci3:44326,joint3:44.677063,roll30,enci4:0,joint4:0.000000,roll40,enci5:0,joint5:0.000000,roll50
time:3833.893599540;enci0:-60,joint0:-0.003815,roll00,enci1:14,joint1:0.000469,roll10,enci2:552690,joint2:-227.445297,roll20,enci3:44326,joint3:44.677063,roll30,enci4:0,joint4:0.000000,roll40,enci5:0,joint5:0.000000,roll50
time:3833.896736530;enci0:-60,joint0:-0.003815,roll00,enci1:14,joint1:0.000469,roll10,enci2:552690,joint2:-227.445297,roll20,enci3:44326,joint3:44.677063,roll30,enci4:0,joint4:0.000000,roll40,enci5:0,joint5:0.000000,roll50
time:3833.897605635;enci0:-60,joint0:-0.003815,roll00,enci1:14,joint1:0.000469,roll10,enci2:552690,joint2:-227.445297,roll20,enci3:44326,joint3:44.677063,roll30,enci4:0,joint4:0.000000,roll40,enci5:0,joint5:0.000000,roll50
time:3833.900736758;enci0:-60,joint0:-0.003815,roll00,enci1:14,joint1:0.000469,roll10,enci2:552690,joint2:-227.445297,roll20,enci3:44326,joint3:44.677063,roll30,enci4:0,joint4:0.000000,roll40,enci5:0,joint5:0.000000,roll50
time:3833.901603349;enci0:-60,joint0:-0.003815,roll00,enci1:14,joint1:0.000469,roll10,enci2:552690,joint2:-227.445297,roll20,enci3:44326,joint3:44.677063,roll30,enci4:0,joint4:0.000000,roll40,enci5:0,joint5:0.000000,roll50
time:3833.904736986;enci0:-60,joint0:-0.003815,roll00,enci1:14,joint1:0.000469,roll10,enci2:552690,joint2:-227.445297,roll20,enci3:44326,joint3:44.677063,roll30,enci4:0,joint4:0.000000,roll40,enci5:0,joint5:0.000000,roll50
time:3833.905605253;enci0:-60,joint0:-0.003815,roll00,enci1:14,joint1:0.000469,roll10,enci2:552690,joint2:-227.445297,roll20,enci3:44326,joint3:44.677063,roll30,enci4:0,joint4:0.000000,roll40,enci5:0,joint5:0.000000,roll50
time:3833.908735538;enci0:-60,joint0:-0.003815,roll00,enci1:14,joint1:0.000469,roll10,enci2:552690,joint2:-227.445297,roll20,enci3:44326,joint3:44.677063,roll30,enci4:0,joint4:0.000000,roll40,enci5:0,joint5:0.000000,roll50
time:3833.909602129;enci0:-60,joint0:-0.003815,roll00,enci1:14,joint1:0.000469,roll10,enci2:552690,joint2:-227.445297,roll20,enci3:44326,joint3:44.677063,roll30,enci4:0,joint4:0.000000,roll40,enci5:0,joint5:0.000000,roll50
time:3833.912736604;enci0:-60,joint0:-0.003815,roll00,enci1:14,joint1:0.000469,roll10,enci2:552690,joint2:-227.445297,roll20,enci3:44326,joint3:44.677063,roll30,enci4:0,joint4:0.000000,roll40,enci5:0,joint5:0.000000,roll50
time:3833.913606546;enci0:-60,joint0:-0.003815,roll00,enci1:14,joint1:0.000469,roll10,enci2:552690,joint2:-227.445297,roll20,enci3:44326,joint3:44.677063,roll30,enci4:0,joint4:0.000000,roll40,enci5:0,joint5:0.000000,roll50
time:3833.916735993;enci0:-60,joint0:-0.003815,roll00,enci1:14,joint1:0.000469,roll10,enci2:552690,joint2:-227.445297,roll20,enci3:44326,joint3:44.677063,roll30,enci4:0,joint4:0.000000,roll40,enci5:0,joint5:0.000000,roll50
time:3833.917603422;enci0:-60,joint0:-0.003815,roll00,enci1:14,joint1:0.000469,roll10,enci2:552690,joint2:-227.445297,roll20,enci3:44326,joint3:44.677063,roll30,enci4:0,joint4:0.000000,roll40,enci5:0,joint5:0.000000,roll50
time:3833.920736221;enci0:-60,joint0:-0.003815,roll00,enci1:14,joint1:0.000469,roll10,enci2:552690,joint2:-227.445297,roll20,enci3:44326,joint3:44.677063,roll30,enci4:0,joint4:0.000000,roll40,enci5:0,joint5:0.000000,roll50
time:3833.921642202;enci0:-60,joint0:-0.003815,roll00,enci1:14,joint1:0.000469,roll10,enci2:552690,joint2:-227.445297,roll20,enci3:44326,joint3:44.677063,roll30,enci4:0,joint4:0.000000,roll40,enci5:0,joint5:0.000000,roll50
time:3833.924735611;enci0:-60,joint0:-0.003815,roll00,enci1:14,joint1:0.000469,roll10,enci2:552690,joint2:-227.445297,roll20,enci3:44326,joint3:44.677063,roll30,enci4:0,joint4:0.000000,roll40,enci5:0,joint5:0.000000,roll50
time:3833.925604716;enci0:-60,joint0:-0.003815,roll00,enci1:14,joint1:0.000469,roll10,enci2:552690,joint2:-227.445297,roll20,enci3:44326,joint3:44.677063,roll30,enci4:0,joint4:0.000000,roll40,enci5:0,joint5:0.000000,roll50
time:3833.928736677;enci0:-60,joint0:-0.003815,roll00,enci1:14,joint1:0.000469,roll10,enci2:552690,joint2:-227.445297,roll20,enci3:44326,joint3:44.677063,roll30,enci4:0,joint4:0.000000,roll40,enci5:0,joint5:0.000000,roll50
time:3833.929606620;enci0:-60,joint0:-0.003815,roll00,enci1:14,joint1:0.000469,roll10,enci2:552690,joint2:-227.445297,roll20,enci3:44326,joint3:44.677063,roll30,enci4:0,joint4:0.000000,roll40,enci5:0,joint5:0.000000,roll50
time:3833.932734391;enci0:-60,joint0:-0.003815,roll00,enci1:14,joint1:0.000469,roll10,enci2:552690,joint2:-227.445297,roll20,enci3:44326,joint3:44.677063,roll30,enci4:0,joint4:0.000000,roll40,enci5:0,joint5:0.000000,roll50
time:3833.933600143;enci0:-60,joint0:-0.003815,roll00,enci1:14,joint1:0.000469,roll10,enci2:552690,joint2:-227.445297,roll20,enci3:44326,joint3:44.677063,roll30,enci4:0,joint4:0.000000,roll40,enci5:0,joint5:0.000000,roll50
time:3833.936736295;enci0:-60,joint0:-0.003815,roll00,enci1:14,joint1:0.000469,roll10,enci2:552690,joint2:-227.445297,roll20,enci3:44326,joint3:44.677063,roll30,enci4:0,joint4:0.000000,roll40,enci5:0,joint5:0.000000,roll50
time:3833.937604562;enci0:-60,joint0:-0.003815,roll00,enci1:14,joint1:0.000469,roll10,enci2:552690,joint2:-227.445297,roll20,enci3:44326,joint3:44.677063,roll30,enci4:0,joint4:0.000000,roll40,enci5:0,joint5:0.000000,roll50
time:3833.940734847;enci0:-60,joint0:-0.003815,roll00,enci1:14,joint1:0.000469,roll10,enci2:552690,joint2:-227.445297,roll20,enci3:44326,joint3:44.677063,roll30,enci4:0,joint4:0.000000,roll40,enci5:0,joint5:0.000000,roll50
time:3833.941600599;enci0:-60,joint0:-0.003815,roll00,enci1:14,joint1:0.000469,roll10,enci2:552690,joint2:-227.445297,roll20,enci3:44326,joint3:44.677063,roll30,enci4:0,joint4:0.000000,roll40,enci5:0,joint5:0.000000,roll50
time:3833.944735913;enci0:-60,joint0:-0.003815,roll00,enci1:14,joint1:0.000469,roll10,enci2:552690,joint2:-227.445297,roll20,enci3:44326,joint3:44.677063,roll30,enci4:0,joint4:0.000000,roll40,enci5:0,joint5:0.000000,roll50
time:3833.945605018;enci0:-60,joint0:-0.003815,roll00,enci1:14,joint1:0.000469,roll10,enci2:552690,joint2:-227.445297,roll20,enci3:44326,joint3:44.677063,roll30,enci4:0,joint4:0.000000,roll40,enci5:0,joint5:0.000000,roll50
time:3833.948735303;enci0:-60,joint0:-0.003815,roll00,enci1:14,joint1:0.000469,roll10,enci2:552690,joint2:-227.445297,roll20,enci3:44326,joint3:44.677063,roll30,enci4:0,joint4:0.000000,roll40,enci5:0,joint5:0.000000,roll50
time:3833.949601055;enci0:-60,joint0:-0.003815,roll00,enci1:14,joint1:0.000469,roll10,enci2:552690,joint2:-227.445297,roll20,enci3:44326,joint3:44.677063,roll30,enci4:0,joint4:0.000000,roll40,enci5:0,joint5:0.000000,roll50
time:3833.952735531;enci0:-60,joint0:-0.003815,roll00,enci1:14,joint1:0.000469,roll10,enci2:552690,joint2:-227.445297,roll20,enci3:44326,joint3:44.677063,roll30,enci4:0,joint4:0.000000,roll40,enci5:0,joint5:0.000000,roll50
time:3833.953604636;enci0:-60,joint0:-0.003815,roll00,enci1:14,joint1:0.000469,roll10,enci2:552690,joint2:-227.445297,roll20,enci3:44326,joint3:44.677063,roll30,enci4:0,joint4:0.000000,roll40,enci5:0,joint5:0.000000,roll50
time:3833.956733245;enci0:-60,joint0:-0.003815,roll00,enci1:14,joint1:0.000469,roll10,enci2:552690,joint2:-227.445297,roll20,enci3:44326,joint3:44.677063,roll30,enci4:0,joint4:0.000000,roll40,enci5:0,joint5:0.000000,roll50
time:3833.957599835;enci0:-60,joint0:-0.003815,roll00,enci1:14,joint1:0.000469,roll10,enci2:552690,joint2:-227.445297,roll20,enci3:44326,joint3:44.677063,roll30,enci4:0,joint4:0.000000,roll40,enci5:0,joint5:0.000000,roll50
time:3833.960735149;enci0:-60,joint0:-0.003815,roll00,enci1:14,joint1:0.000469,roll10,enci2:552690,joint2:-227.445297,roll20,enci3:44326,joint3:44.677063,roll30,enci4:0,joint4:0.000000,roll40,enci5:0,joint5:0.000000,roll50
time:3833.961601739;enci0:-60,joint0:-0.003815,roll00,enci1:14,joint1:0.000469,roll10,enci2:552690,joint2:-227.445297,roll20,enci3:44326,joint3:44.677063,roll30,enci4:0,joint4:0.000000,roll40,enci5:0,joint5:0.000000,roll50
time:3833.964733701;enci0:-60,joint0:-0.003815,roll00,enci1:14,joint1:0.000469,roll10,enci2:552690,joint2:-227.445297,roll20,enci3:44326,joint3:44.677063,roll30,enci4:0,joint4:0.000000,roll40,enci5:0,joint5:0.000000,roll50
time:3833.965598615;enci0:-60,joint0:-0.003815,roll00,enci1:14,joint1:0.000469,roll10,enci2:552690,joint2:-227.445297,roll20,enci3:44326,joint3:44.677063,roll30,enci4:0,joint4:0.000000,roll40,enci5:0,joint5:0.000000,roll50
time:3833.968734767;enci0:-60,joint0:-0.003815,roll00,enci1:14,joint1:0.000469,roll10,enci2:552690,joint2:-227.445297,roll20,enci3:44326,joint3:44.677063,roll30,enci4:0,joint4:0.000000,roll40,enci5:0,joint5:0.000000,roll50
time:3833.969603033;enci0:-60,joint0:-0.003815,roll00,enci1:14,joint1:0.000469,roll10,enci2:552690,joint2:-227.445297,roll20,enci3:44326,joint3:44.677063,roll30,enci4:0,joint4:0.000000,roll40,enci5:0,joint5:0.000000,roll50
time:3833.972734157;enci0:-60,joint0:-0.003815,roll00,enci1:14,joint1:0.000469,roll10,enci2:552690,joint2:-227.445297,roll20,enci3:44326,joint3:44.677063,roll30,enci4:0,joint4:0.000000,roll40,enci5:0,joint5:0.000000,roll50
time:3833.973602423;enci0:-60,joint0:-0.003815,roll00,enci1:14,joint1:0.000469,roll10,enci2:552690,joint2:-227.445297,roll20,enci3:44326,joint3:44.677063,roll30,enci4:0,joint4:0.000000,roll40,enci5:0,joint5:0.000000,roll50
time:3833.976734385;enci0:-60,joint0:-0.003815,roll00,enci1:14,joint1:0.000469,roll10,enci2:552690,joint2:-227.445297,roll20,enci3:44326,joint3:44.677063,roll30,enci4:0,joint4:0.000000,roll40,enci5:0,joint5:0.000000,roll50
time:3833.977646232;enci0:-60,joint0:-0.003815,roll00,enci1:14,joint1:0.000469,roll10,enci2:552690,joint2:-227.445297,roll20,enci3:44326,joint3:44.677063,roll30,enci4:0,joint4:0.000000,roll40,enci5:0,joint5:0.000000,roll50
time:3833.980735451;enci0:-60,joint0:-0.003815,roll00,enci1:14,joint1:0.000469,roll10,enci2:552690,joint2:-227.445297,roll20,enci3:44326,joint3:44.677063,roll30,enci4:0,joint4:0.000000,roll40,enci5:0,joint5:0.000000,roll50
time:3833.981612098;enci0:-60,joint0:-0.003815,roll00,enci1:14,joint1:0.000469,roll10,enci2:552690,joint2:-227.445297,roll20,enci3:44326,joint3:44.677063,roll30,enci4:0,joint4:0.000000,roll40,enci5:0,joint5:0.000000,roll50
time:3833.984734841;enci0:-60,joint0:-0.003815,roll00,enci1:14,joint1:0.000469,roll10,enci2:552690,joint2:-227.445297,roll20,enci3:44326,joint3:44.677063,roll30,enci4:0,joint4:0.000000,roll40,enci5:0,joint5:0.000000,roll50
time:3833.985603945;enci0:-60,joint0:-0.003815,roll00,enci1:14,joint1:0.000469,roll10,enci2:552690,joint2:-227.445297,roll20,enci3:44326,joint3:44.677063,roll30,enci4:0,joint4:0.000000,roll40,enci5:0,joint5:0.000000,roll50
time:3833.988732554;enci0:-60,joint0:-0.003815,roll00,enci1:14,joint1:0.000469,roll10,enci2:552690,joint2:-227.445297,roll20,enci3:44326,joint3:44.677063,roll30,enci4:0,joint4:0.000000,roll40,enci5:0,joint5:0.000000,roll50
time:3833.989597469;enci0:-60,joint0:-0.003815,roll00,enci1:14,joint1:0.000469,roll10,enci2:552690,joint2:-227.445297,roll20,enci3:44326,joint3:44.677063,roll30,enci4:0,joint4:0.000000,roll40,enci5:0,joint5:0.000000,roll50
time:3833.992732782;enci0:-60,joint0:-0.003815,roll00,enci1:14,joint1:0.000469,roll10,enci2:552690,joint2:-227.445297,roll20,enci3:44326,joint3:44.677063,roll30,enci4:0,joint4:0.000000,roll40,enci5:0,joint5:0.000000,roll50
time:3833.993601887;enci0:-60,joint0:-0.003815,roll00,enci1:14,joint1:0.000469,roll10,enci2:552690,joint2:-227.445297,roll20,enci3:44326,joint3:44.677063,roll30,enci4:0,joint4:0.000000,roll40,enci5:0,joint5:0.000000,roll50
time:3833.996732172;enci0:-60,joint0:-0.003815,roll00,enci1:14,joint1:0.000469,roll10,enci2:552690,joint2:-227.445297,roll20,enci3:44326,joint3:44.677063,roll30,enci4:0,joint4:0.000000,roll40,enci5:0,joint5:0.000000,roll50
time:3833.997597925;enci0:-60,joint0:-0.003815,roll00,enci1:14,joint1:0.000469,roll10,enci2:552690,joint2:-227.445297,roll20,enci3:44326,joint3:44.677063,roll30,enci4:0,joint4:0.000000,roll40,enci5:0,joint5:0.000000,roll50
time:3834.000733238;enci0:-60,joint0:-0.003815,roll00,enci1:14,joint1:0.000469,roll10,enci2:552690,joint2:-227.445297,roll20,enci3:44326,joint3:44.677063,roll30,enci4:0,joint4:0.000000,roll40,enci5:0,joint5:0.000000,roll50
time:3834.001605695;enci0:-60,joint0:-0.003815,roll00,enci1:14,joint1:0.000469,roll10,enci2:552690,joint2:-227.445297,roll20,enci3:44326,joint3:44.677063,roll30,enci4:0,joint4:0.000000,roll40,enci5:0,joint5:0.000000,roll50
time:3834.004732628;enci0:-60,joint0:-0.003815,roll00,enci1:14,joint1:0.000469,roll10,enci2:552690,joint2:-227.445297,roll20,enci3:44326,joint3:44.677063,roll30,enci4:0,joint4:0.000000,roll40,enci5:0,joint5:0.000000,roll50
time:3834.005601733;enci0:-60,joint0:-0.003815,roll00,enci1:14,joint1:0.000469,roll10,enci2:552690,joint2:-227.445297,roll20,enci3:44326,joint3:44.677063,roll30,enci4:0,joint4:0.000000,roll40,enci5:0,joint5:0.000000,roll50
time:3834.008732856;enci0:-60,joint0:-0.003815,roll00,enci1:14,joint1:0.000469,roll10,enci2:552690,joint2:-227.445297,roll20,enci3:44326,joint3:44.677063,roll30,enci4:0,joint4:0.000000,roll40,enci5:0,joint5:0.000000,roll50
time:3834.009601960;enci0:-60,joint0:-0.003815,roll00,enci1:14,joint1:0.000469,roll10,enci2:552690,joint2:-227.445297,roll20,enci3:44326,joint3:44.677063,roll30,enci4:0,joint4:0.000000,roll40,enci5:0,joint5:0.000000,roll50
time:3834.012757388;enci0:-60,joint0:-0.003815,roll00,enci1:14,joint1:0.000469,roll10,enci2:552690,joint2:-227.445297,roll20,enci3:44326,joint3:44.677063,roll30,enci4:0,joint4:0.000000,roll40,enci5:0,joint5:0.000000,roll50
time:3834.013741312;enci0:-60,joint0:-0.003815,roll00,enci1:14,joint1:0.000469,roll10,enci2:552690,joint2:-227.445297,roll20,enci3:44326,joint3:44.677063,roll30,enci4:0,joint4:0.000000,roll40,enci5:0,joint5:0.000000,roll50
time:3834.016758454;enci0:-60,joint0:-0.003815,roll00,enci1:14,joint1:0.000469,roll10,enci2:552690,joint2:-227.445297,roll20,enci3:44326,joint3:44.677063,roll30,enci4:0,joint4:0.000000,roll40,enci5:0,joint5:0.000000,roll50
time:3834.017709692;enci0:-60,joint0:-0.003815,roll00,enci1:14,joint1:0.000469,roll10,enci2:552690,joint2:-227.445297,roll20,enci3:44326,joint3:44.677063,roll30,enci4:0,joint4:0.000000,roll40,enci5:0,joint5:0.000000,roll50
time:3834.020757006;enci0:-60,joint0:-0.003815,roll00,enci1:14,joint1:0.000469,roll10,enci2:552690,joint2:-227.445297,roll20,enci3:44326,joint3:44.677063,roll30,enci4:0,joint4:0.000000,roll40,enci5:0,joint5:0.000000,roll50
time:3834.021707406;enci0:-60,joint0:-0.003815,roll00,enci1:14,joint1:0.000469,roll10,enci2:552690,joint2:-227.445297,roll20,enci3:44326,joint3:44.677063,roll30,enci4:0,joint4:0.000000,roll40,enci5:0,joint5:0.000000,roll50
time:3834.024745501;enci0:-60,joint0:-0.003815,roll00,enci1:14,joint1:0.000469,roll10,enci2:552690,joint2:-227.445297,roll20,enci3:44326,joint3:44.677063,roll30,enci4:0,joint4:0.000000,roll40,enci5:0,joint5:0.000000,roll50
time:3834.025674948;enci0:-60,joint0:-0.003815,roll00,enci1:14,joint1:0.000469,roll10,enci2:552690,joint2:-227.445297,roll20,enci3:44326,joint3:44.677063,roll30,enci4:0,joint4:0.000000,roll40,enci5:0,joint5:0.000000,roll50
time:3834.028738186;enci0:-60,joint0:-0.003815,roll00,enci1:14,joint1:0.000469,roll10,enci2:552690,joint2:-227.445297,roll20,enci3:44326,joint3:44.677063,roll30,enci4:0,joint4:0.000000,roll40,enci5:0,joint5:0.000000,roll50
time:3834.029646681;enci0:-60,joint0:-0.003815,roll00,enci1:14,joint1:0.000469,roll10,enci2:552690,joint2:-227.445297,roll20,enci3:44326,joint3:44.677063,roll30,enci4:0,joint4:0.000000,roll40,enci5:0,joint5:0.000000,roll50
time:3834.032731709;enci0:-60,joint0:-0.003815,roll00,enci1:14,joint1:0.000469,roll10,enci2:552690,joint2:-227.445297,roll20,enci3:44326,joint3:44.677063,roll30,enci4:0,joint4:0.000000,roll40,enci5:0,joint5:0.000000,roll50
time:3834.033680433;enci0:-60,joint0:-0.003815,roll00,enci1:14,joint1:0.000469,roll10,enci2:552690,joint2:-227.445297,roll20,enci3:44326,joint3:44.677063,roll30,enci4:0,joint4:0.000000,roll40,enci5:0,joint5:0.000000,roll50
time:3834.036721042;enci0:-60,joint0:-0.003815,roll00,enci1:14,joint1:0.000469,roll10,enci2:552690,joint2:-227.445297,roll20,enci3:44326,joint3:44.677063,roll30,enci4:0,joint4:0.000000,roll40,enci5:0,joint5:0.000000,roll50
time:3834.037560813;enci0:-60,joint0:-0.003815,roll00,enci1:14,joint1:0.000469,roll10,enci2:552690,joint2:-227.445297,roll20,enci3:44326,joint3:44.677063,roll30,enci4:0,joint4:0.000000,roll40,enci5:0,joint5:0.000000,roll50
time:3834.040722108;enci0:-60,joint0:-0.003815,roll00,enci1:14,joint1:0.000469,roll10,enci2:552690,joint2:-227.445297,roll20,enci3:44326,joint3:44.677063,roll30,enci4:0,joint4:0.000000,roll40,enci5:0,joint5:0.000000,roll50
time:3834.041592051;enci0:-60,joint0:-0.003815,roll00,enci1:14,joint1:0.000469,roll10,enci2:552690,joint2:-227.445297,roll20,enci3:44326,joint3:44.677063,roll30,enci4:0,joint4:0.000000,roll40,enci5:0,joint5:0.000000,roll50
time:3834.044718983;enci0:-60,joint0:-0.003815,roll00,enci1:14,joint1:0.000469,roll10,enci2:552690,joint2:-227.445297,roll20,enci3:44326,joint3:44.677063,roll30,enci4:0,joint4:0.000000,roll40,enci5:0,joint5:0.000000,roll50
time:3834.045598983;enci0:-60,joint0:-0.003815,roll00,enci1:14,joint1:0.000469,roll10,enci2:552690,joint2:-227.445297,roll20,enci3:44326,joint3:44.677063,roll30,enci4:0,joint4:0.000000,roll40,enci5:0,joint5:0.000000,roll50
time:3834.048720050;enci0:-60,joint0:-0.003815,roll00,enci1:14,joint1:0.000469,roll10,enci2:552690,joint2:-227.445297,roll20,enci3:44326,joint3:44.677063,roll30,enci4:0,joint4:0.000000,roll40,enci5:0,joint5:0.000000,roll50
time:3834.049600888;enci0:-60,joint0:-0.003815,roll00,enci1:14,joint1:0.000469,roll10,enci2:552690,joint2:-227.445297,roll20,enci3:44326,joint3:44.677063,roll30,enci4:0,joint4:0.000000,roll40,enci5:0,joint5:0.000000,roll50
time:3834.052715249;enci0:-60,joint0:-0.003815,roll00,enci1:14,joint1:0.000469,roll10,enci2:552690,joint2:-227.445297,roll20,enci3:44326,joint3:44.677063,roll30,enci4:0,joint4:0.000000,roll40,enci5:0,joint5:0.000000,roll50
time:3834.053582677;enci0:-60,joint0:-0.003815,roll00,enci1:14,joint1:0.000469,roll10,enci2:552690,joint2:-227.445297,roll20,enci3:44326,joint3:44.677063,roll30,enci4:0,joint4:0.000000,roll40,enci5:0,joint5:0.000000,roll50
time:3834.056713801;enci0:-60,joint0:-0.003815,roll00,enci1:14,joint1:0.000469,roll10,enci2:552690,joint2:-227.445297,roll20,enci3:44326,joint3:44.677063,roll30,enci4:0,joint4:0.000000,roll40,enci5:0,joint5:0.000000,roll50
time:3834.057584582;enci0:-60,joint0:-0.003815,roll00,enci1:14,joint1:0.000469,roll10,enci2:552690,joint2:-227.445297,roll20,enci3:44326,joint3:44.677063,roll30,enci4:0,joint4:0.000000,roll40,enci5:0,joint5:0.000000,roll50
time:3834.060709000;enci0:-60,joint0:-0.003815,roll00,enci1:14,joint1:0.000469,roll10,enci2:552690,joint2:-227.445297,roll20,enci3:44326,joint3:44.677063,roll30,enci4:0,joint4:0.000000,roll40,enci5:0,joint5:0.000000,roll50
time:3834.061573076;enci0:-60,joint0:-0.003815,roll00,enci1:14,joint1:0.000469,roll10,enci2:552690,joint2:-227.445297,roll20,enci3:44326,joint3:44.677063,roll30,enci4:0,joint4:0.000000,roll40,enci5:0,joint5:0.000000,roll50
time:3834.064710066;enci0:-60,joint0:-0.003815,roll00,enci1:14,joint1:0.000469,roll10,enci2:552690,joint2:-227.445297,roll20,enci3:44326,joint3:44.677063,roll30,enci4:0,joint4:0.000000,roll40,enci5:0,joint5:0.000000,roll50
time:3834.065578333;enci0:-60,joint0:-0.003815,roll00,enci1:14,joint1:0.000469,roll10,enci2:552690,joint2:-227.445297,roll20,enci3:44326,joint3:44.677063,roll30,enci4:0,joint4:0.000000,roll40,enci5:0,joint5:0.000000,roll50
time:3834.068705266;enci0:-60,joint0:-0.003815,roll00,enci1:14,joint1:0.000469,roll10,enci2:552690,joint2:-227.445297,roll20,enci3:44326,joint3:44.677063,roll30,enci4:0,joint4:0.000000,roll40,enci5:0,joint5:0.000000,roll50
time:3834.069572694;enci0:-60,joint0:-0.003815,roll00,enci1:14,joint1:0.000469,roll10,enci2:552690,joint2:-227.445297,roll20,enci3:44326,joint3:44.677063,roll30,enci4:0,joint4:0.000000,roll40,enci5:0,joint5:0.000000,roll50
time:3834.072704656;enci0:-60,joint0:-0.003815,roll00,enci1:14,joint1:0.000469,roll10,enci2:552690,joint2:-227.445297,roll20,enci3:44326,joint3:44.677063,roll30,enci4:0,joint4:0.000000,roll40,enci5:0,joint5:0.000000,roll50
time:3834.073572922;enci0:-60,joint0:-0.003815,roll00,enci1:14,joint1:0.000469,roll10,enci2:552690,joint2:-227.445297,roll20,enci3:44326,joint3:44.677063,roll30,enci4:0,joint4:0.000000,roll40,enci5:0,joint5:0.000000,roll50
time:3834.076701531;enci0:-60,joint0:-0.003815,roll00,enci1:14,joint1:0.000469,roll10,enci2:552690,joint2:-227.445297,roll20,enci3:44326,joint3:44.677063,roll30,enci4:0,joint4:0.000000,roll40,enci5:0,joint5:0.000000,roll50
time:3834.077566445;enci0:-60,joint0:-0.003815,roll00,enci1:14,joint1:0.000469,roll10,enci2:552690,joint2:-227.445297,roll20,enci3:44326,joint3:44.677063,roll30,enci4:0,joint4:0.000000,roll40,enci5:0,joint5:0.000000,roll50
time:3834.080701759;enci0:-60,joint0:-0.003815,roll00,enci1:14,joint1:0.000469,roll10,enci2:552690,joint2:-227.445297,roll20,enci3:44326,joint3:44.677063,roll30,enci4:0,joint4:0.000000,roll40,enci5:0,joint5:0.000000,roll50
time:3834.081569188;enci0:-60,joint0:-0.003815,roll00,enci1:14,joint1:0.000469,roll10,enci2:552690,joint2:-227.445297,roll20,enci3:44326,joint3:44.677063,roll30,enci4:0,joint4:0.000000,roll40,enci5:0,joint5:0.000000,roll50
time:3834.084697797;enci0:-60,joint0:-0.003815,roll00,enci1:14,joint1:0.000469,roll10,enci2:552690,joint2:-227.445297,roll20,enci3:44326,joint3:44.677063,roll30,enci4:0,joint4:0.000000,roll40,enci5:0,joint5:0.000000,roll50
time:3834.085570254;enci0:-60,joint0:-0.003815,roll00,enci1:14,joint1:0.000469,roll10,enci2:552690,joint2:-227.445297,roll20,enci3:44326,joint3:44.677063,roll30,enci4:0,joint4:0.000000,roll40,enci5:0,joint5:0.000000,roll50
time:3834.088696349;enci0:-60,joint0:-0.003815,roll00,enci1:14,joint1:0.000469,roll10,enci2:552690,joint2:-227.445297,roll20,enci3:44326,joint3:44.677063,roll30,enci4:0,joint4:0.000000,roll40,enci5:0,joint5:0.000000,roll50
time:3834.089601491;enci0:-60,joint0:-0.003815,roll00,enci1:14,joint1:0.000469,roll10,enci2:552690,joint2:-227.445297,roll20,enci3:44326,joint3:44.677063,roll30,enci4:0,joint4:0.000000,roll40,enci5:0,joint5:0.000000,roll50
time:3834.092694062;enci0:-60,joint0:-0.003815,roll00,enci1:14,joint1:0.000469,roll10,enci2:552690,joint2:-227.445297,roll20,enci3:44326,joint3:44.677063,roll30,enci4:0,joint4:0.000000,roll40,enci5:0,joint5:0.000000,roll50
time:3834.093561491;enci0:-60,joint0:-0.003815,roll00,enci1:14,joint1:0.000469,roll10,enci2:552690,joint2:-227.445297,roll20,enci3:44326,joint3:44.677063,roll30,enci4:0,joint4:0.000000,roll40,enci5:0,joint5:0.000000,roll50
time:3834.096691776;enci0:-60,joint0:-0.003815,roll00,enci1:14,joint1:0.000469,roll10,enci2:552690,joint2:-227.445297,roll20,enci3:44326,joint3:44.677063,roll30,enci4:0,joint4:0.000000,roll40,enci5:0,joint5:0.000000,roll50
time:3834.097561719;enci0:-60,joint0:-0.003815,roll00,enci1:14,joint1:0.000469,roll10,enci2:552690,joint2:-227.445297,roll20,enci3:44326,joint3:44.677063,roll30,enci4:0,joint4:0.000000,roll40,enci5:0,joint5:0.000000,roll50
time:3834.100688652;enci0:-60,joint0:-0.003815,roll00,enci1:14,joint1:0.000469,roll10,enci2:552690,joint2:-227.445297,roll20,enci3:44326,joint3:44.677063,roll30,enci4:0,joint4:0.000000,roll40,enci5:0,joint5:0.000000,roll50
time:3834.101553566;enci0:-60,joint0:-0.003815,roll00,enci1:14,joint1:0.000469,roll10,enci2:552690,joint2:-227.445297,roll20,enci3:44326,joint3:44.677063,roll30,enci4:0,joint4:0.000000,roll40,enci5:0,joint5:0.000000,roll50
time:3834.104687203;enci0:-60,joint0:-0.003815,roll00,enci1:14,joint1:0.000469,roll10,enci2:552690,joint2:-227.445297,roll20,enci3:44326,joint3:44.677063,roll30,enci4:0,joint4:0.000000,roll40,enci5:0,joint5:0.000000,roll50
time:3834.105553794;enci0:-60,joint0:-0.003815,roll00,enci1:14,joint1:0.000469,roll10,enci2:552690,joint2:-227.445297,roll20,enci3:44326,joint3:44.677063,roll30,enci4:0,joint4:0.000000,roll40,enci5:0,joint5:0.000000,roll50
time:3834.108684079;enci0:-60,joint0:-0.003815,roll00,enci1:14,joint1:0.000469,roll10,enci2:552690,joint2:-227.445297,roll20,enci3:44326,joint3:44.677063,roll30,enci4:0,joint4:0.000000,roll40,enci5:0,joint5:0.000000,roll50
time:3834.109547317;enci0:-60,joint0:-0.003815,roll00,enci1:14,joint1:0.000469,roll10,enci2:552690,joint2:-227.445297,roll20,enci3:44326,joint3:44.677063,roll30,enci4:0,joint4:0.000000,roll40,enci5:0,joint5:0.000000,roll50
time:3834.112685145;enci0:-60,joint0:-0.003815,roll00,enci1:14,joint1:0.000469,roll10,enci2:552690,joint2:-227.445297,roll20,enci3:44326,joint3:44.677063,roll30,enci4:0,joint4:0.000000,roll40,enci5:0,joint5:0.000000,roll50
time:3834.113550896;enci0:-60,joint0:-0.003815,roll00,enci1:14,joint1:0.000469,roll10,enci2:552690,joint2:-227.445297,roll20,enci3:44326,joint3:44.677063,roll30,enci4:0,joint4:0.000000,roll40,enci5:0,joint5:0.000000,roll50
time:3834.116685372;enci0:-60,joint0:-0.003815,roll00,enci1:14,joint1:0.000469,roll10,enci2:552690,joint2:-227.445297,roll20,enci3:44326,joint3:44.677063,roll30,enci4:0,joint4:0.000000,roll40,enci5:0,joint5:0.000000,roll50
time:3834.117552801;enci0:-60,joint0:-0.003815,roll00,enci1:14,joint1:0.000469,roll10,enci2:552690,joint2:-227.445297,roll20,enci3:44326,joint3:44.677063,roll30,enci4:0,joint4:0.000000,roll40,enci5:0,joint5:0.000000,roll50
time:3834.120683924;enci0:-60,joint0:-0.003815,roll00,enci1:14,joint1:0.000469,roll10,enci2:552690,joint2:-227.445297,roll20,enci3:44326,joint3:44.677063,roll30,enci4:0,joint4:0.000000,roll40,enci5:0,joint5:0.000000,roll50
time:3834.121551352;enci0:-60,joint0:-0.003815,roll00,enci1:14,joint1:0.000469,roll10,enci2:552690,joint2:-227.445297,roll20,enci3:44326,joint3:44.677063,roll30,enci4:0,joint4:0.000000,roll40,enci5:0,joint5:0.000000,roll50
time:3834.124684152;enci0:-60,joint0:-0.003815,roll00,enci1:14,joint1:0.000469,roll10,enci2:552690,joint2:-227.445297,roll20,enci3:44326,joint3:44.677063,roll30,enci4:0,joint4:0.000000,roll40,enci5:0,joint5:0.000000,roll50
time:3834.125547390;enci0:-60,joint0:-0.003815,roll00,enci1:14,joint1:0.000469,roll10,enci2:552690,joint2:-227.445297,roll20,enci3:44326,joint3:44.677063,roll30,enci4:0,joint4:0.000000,roll40,enci5:0,joint5:0.000000,roll50
time:3834.128684380;enci0:-60,joint0:-0.003815,roll00,enci1:14,joint1:0.000469,roll10,enci2:552690,joint2:-227.445297,roll20,enci3:44326,joint3:44.677063,roll30,enci4:0,joint4:0.000000,roll40,enci5:0,joint5:0.000000,roll50
time:3834.129553485;enci0:-60,joint0:-0.003815,roll00,enci1:14,joint1:0.000469,roll10,enci2:552690,joint2:-227.445297,roll20,enci3:44326,joint3:44.677063,roll30,enci4:0,joint4:0.000000,roll40,enci5:0,joint5:0.000000,roll50
time:3834.132684608;enci0:-60,joint0:-0.003815,roll00,enci1:14,joint1:0.000469,roll10,enci2:552690,joint2:-227.445297,roll20,enci3:44326,joint3:44.677063,roll30,enci4:0,joint4:0.000000,roll40,enci5:0,joint5:0.000000,roll50
time:3834.133548684;enci0:-60,joint0:-0.003815,roll00,enci1:14,joint1:0.000469,roll10,enci2:552690,joint2:-227.445297,roll20,enci3:44326,joint3:44.677063,roll30,enci4:0,joint4:0.000000,roll40,enci5:0,joint5:0.000000,roll50
time:3834.136683160;enci0:-60,joint0:-0.003815,roll00,enci1:14,joint1:0.000469,roll10,enci2:552690,joint2:-227.445297,roll20,enci3:44326,joint3:44.677063,roll30,enci4:0,joint4:0.000000,roll40,enci5:0,joint5:0.000000,roll50
time:3834.137550588;enci0:-60,joint0:-0.003815,roll00,enci1:14,joint1:0.000469,roll10,enci2:552690,joint2:-227.445297,roll20,enci3:44326,joint3:44.677063,roll30,enci4:0,joint4:0.000000,roll40,enci5:0,joint5:0.000000,roll50
time:3834.140684226;enci0:-60,joint0:-0.003815,roll00,enci1:14,joint1:0.000469,roll10,enci2:552690,joint2:-227.445297,roll20,enci3:44326,joint3:44.677063,roll30,enci4:0,joint4:0.000000,roll40,enci5:0,joint5:0.000000,roll50
time:3834.141549140;enci0:-60,joint0:-0.003815,roll00,enci1:14,joint1:0.000469,roll10,enci2:552690,joint2:-227.445297,roll20,enci3:44326,joint3:44.677063,roll30,enci4:0,joint4:0.000000,roll40,enci5:0,joint5:0.000000,roll50
time:3834.144683616;enci0:-60,joint0:-0.003815,roll00,enci1:14,joint1:0.000469,roll10,enci2:552690,joint2:-227.445297,roll20,enci3:44326,joint3:44.677063,roll30,enci4:0,joint4:0.000000,roll40,enci5:0,joint5:0.000000,roll50
time:3834.145587082;enci0:-60,joint0:-0.003815,roll00,enci1:14,joint1:0.000469,roll10,enci2:552690,joint2:-227.445297,roll20,enci3:44326,joint3:44.677063,roll30,enci4:0,joint4:0.000000,roll40,enci5:0,joint5:0.000000,roll50
time:3834.148683006;enci0:-60,joint0:-0.003815,roll00,enci1:14,joint1:0.000469,roll10,enci2:552690,joint2:-227.445297,roll20,enci3:44326,joint3:44.677063,roll30,enci4:0,joint4:0.000000,roll40,enci5:0,joint5:0.000000,roll50
time:3834.149552110;enci0:-60,joint0:-0.003815,roll00,enci1:14,joint1:0.000469,roll10,enci2:552690,joint2:-227.445297,roll20,enci3:44326,joint3:44.677063,roll30,enci4:0,joint4:0.000000,roll40,enci5:0,joint5:0.000000,roll50
time:3834.152682396;enci0:-60,joint0:-0.003815,roll00,enci1:14,joint1:0.000469,roll10,enci2:552690,joint2:-227.445297,roll20,enci3:44326,joint3:44.677063,roll30,enci4:0,joint4:0.000000,roll40,enci5:0,joint5:0.000000,roll50
time:3834.153548148;enci0:-60,joint0:-0.003815,roll00,enci1:14,joint1:0.000469,roll10,enci2:552690,joint2:-227.445297,roll20,enci3:44326,joint3:44.677063,roll30,enci4:0,joint4:0.000000,roll40,enci5:0,joint5:0.000000,roll50
time:3834.156682624;enci0:-60,joint0:-0.003815,roll00,enci1:14,joint1:0.000469,roll10,enci2:552690,joint2:-227.445297,roll20,enci3:44326,joint3:44.677063,roll30,enci4:0,joint4:0.000000,roll40,enci5:0,joint5:0.000000,roll50
time:3834.157545862;enci0:-60,joint0:-0.003815,roll00,enci1:14,joint1:0.000469,roll10,enci2:552690,joint2:-227.445297,roll20,enci3:44326,joint3:44.677063,roll30,enci4:0,joint4:0.000000,roll40,enci5:0,joint5:0.000000,roll50
time:3834.160683690;enci0:-60,joint0:-0.003815,roll00,enci1:14,joint1:0.000469,roll10,enci2:552690,joint2:-227.445297,roll20,enci3:44326,joint3:44.677063,roll30,enci4:0,joint4:0.000000,roll40,enci5:0,joint5:0.000000,roll50
time:3834.161551118;enci0:-60,joint0:-0.003815,roll00,enci1:14,joint1:0.000469,roll10,enci2:552690,joint2:-227.445297,roll20,enci3:44326,joint3:44.677063,roll30,enci4:0,joint4:0.000000,roll40,enci5:0,joint5:0.000000,roll50
time:3834.164682242;enci0:-60,joint0:-0.003815,roll00,enci1:14,joint1:0.000469,roll10,enci2:552690,joint2:-227.445297,roll20,enci3:44326,joint3:44.677063,roll30,enci4:0,joint4:0.000000,roll40,enci5:0,joint5:0.000000,roll50
time:3834.165551346;enci0:-60,joint0:-0.003815,roll00,enci1:14,joint1:0.000469,roll10,enci2:552690,joint2:-227.445297,roll20,enci3:44326,joint3:44.677063,roll30,enci4:0,joint4:0.000000,roll40,enci5:0,joint5:0.000000,roll50
time:3834.168683308;enci0:-60,joint0:-0.003815,roll00,enci1:14,joint1:0.000469,roll10,enci2:552690,joint2:-227.445297,roll20,enci3:44326,joint3:44.677063,roll30,enci4:0,joint4:0.000000,roll40,enci5:0,joint5:0.000000,roll50
time:3834.169554088;enci0:-60,joint0:-0.003815,roll00,enci1:14,joint1:0.000469,roll10,enci2:552690,joint2:-227.445297,roll20,enci3:44326,joint3:44.677063,roll30,enci4:0,joint4:0.000000,roll40,enci5:0,joint5:0.000000,roll50
time:3834.172681859;enci0:-60,joint0:-0.003815,roll00,enci1:14,joint1:0.000469,roll10,enci2:552690,joint2:-227.445297,roll20,enci3:44326,joint3:44.677063,roll30,enci4:0,joint4:0.000000,roll40,enci5:0,joint5:0.000000,roll50
time:3834.173546774;enci0:-60,joint0:-0.003815,roll00,enci1:14,joint1:0.000469,roll10,enci2:552690,joint2:-227.445297,roll20,enci3:44326,joint3:44.677063,roll30,enci4:0,joint4:0.000000,roll40,enci5:0,joint5:0.000000,roll50
time:3834.176682926;enci0:-60,joint0:-0.003815,roll00,enci1:14,joint1:0.000469,roll10,enci2:552690,joint2:-227.445297,roll20,enci3:44326,joint3:44.677063,roll30,enci4:0,joint4:0.000000,roll40,enci5:0,joint5:0.000000,roll50
time:3834.177555383;enci0:-60,joint0:-0.003815,roll00,enci1:14,joint1:0.000469,roll10,enci2:552690,joint2:-227.445297,roll20,enci3:44326,joint3:44.677063,roll30,enci4:0,joint4:0.000000,roll40,enci5:0,joint5:0.000000,roll50
time:3834.180682315;enci0:-60,joint0:-0.003815,roll00,enci1:14,joint1:0.000469,roll10,enci2:552690,joint2:-227.445297,roll20,enci3:44326,joint3:44.677063,roll30,enci4:0,joint4:0.000000,roll40,enci5:0,joint5:0.000000,roll50
time:3834.181554772;enci0:-60,joint0:-0.003815,roll00,enci1:14,joint1:0.000469,roll10,enci2:552690,joint2:-227.445297,roll20,enci3:44326,joint3:44.677063,roll30,enci4:0,joint4:0.000000,roll40,enci5:0,joint5:0.000000,roll50
time:3834.184681705;enci0:-60,joint0:-0.003815,roll00,enci1:14,joint1:0.000469,roll10,enci2:552690,joint2:-227.445297,roll20,enci3:44326,joint3:44.677063,roll30,enci4:0,joint4:0.000000,roll40,enci5:0,joint5:0.000000,roll50
time:3834.185550810;enci0:-60,joint0:-0.003815,roll00,enci1:14,joint1:0.000469,roll10,enci2:552690,joint2:-227.445297,roll20,enci3:44326,joint3:44.677063,roll30,enci4:0,joint4:0.000000,roll40,enci5:0,joint5:0.000000,roll50
time:3834.188681095;enci0:-60,joint0:-0.003815,roll00,enci1:14,joint1:0.000469,roll10,enci2:552690,joint2:-227.445297,roll20,enci3:44326,joint3:44.677063,roll30,enci4:0,joint4:0.000000,roll40,enci5:0,joint5:0.000000,roll50
time:3834.189545171;enci0:-60,joint0:-0.003815,roll00,enci1:14,joint1:0.000469,roll10,enci2:552690,joint2:-227.445297,roll20,enci3:44326,joint3:44.677063,roll30,enci4:0,joint4:0.000000,roll40,enci5:0,joint5:0.000000,roll50
time:3834.192682161;enci0:-60,joint0:-0.003815,roll00,enci1:14,joint1:0.000469,roll10,enci2:552690,joint2:-227.445297,roll20,enci3:44326,joint3:44.677063,roll30,enci4:0,joint4:0.000000,roll40,enci5:0,joint5:0.000000,roll50
time:3834.193554618;enci0:-60,joint0:-0.003815,roll00,enci1:14,joint1:0.000469,roll10,enci2:552690,joint2:-227.445297,roll20,enci3:44326,joint3:44.677063,roll30,enci4:0,joint4:0.000000,roll40,enci5:0,joint5:0.000000,roll50
time:3834.196680713;enci0:-60,joint0:-0.003815,roll00,enci1:14,joint1:0.000469,roll10,enci2:552690,joint2:-227.445297,roll20,enci3:44326,joint3:44.677063,roll30,enci4:0,joint4:0.000000,roll40,enci5:0,joint5:0.000000,roll50
time:3834.197545627;enci0:-60,joint0:-0.003815,roll00,enci1:14,joint1:0.000469,roll10,enci2:552690,joint2:-227.445297,roll20,enci3:44326,joint3:44.677063,roll30,enci4:0,joint4:0.000000,roll40,enci5:0,joint5:0.000000,roll50
time:3834.200682617;enci0:-60,joint0:-0.003815,roll00,enci1:14,joint1:0.000469,roll10,enci2:552690,joint2:-227.445297,roll20,enci3:44326,joint3:44.677063,roll30,enci4:0,joint4:0.000000,roll40,enci5:0,joint5:0.000000,roll50
time:3834.201588598;enci0:-60,joint0:-0.003815,roll00,enci1:14,joint1:0.000469,roll10,enci2:552690,joint2:-227.445297,roll20,enci3:44326,joint3:44.677063,roll30,enci4:0,joint4:0.000000,roll40,enci5:0,joint5:0.000000,roll50
time:3834.204681169;enci0:-60,joint0:-0.003815,roll00,enci1:14,joint1:0.000469,roll10,enci2:552690,joint2:-227.445297,roll20,enci3:44326,joint3:44.677063,roll30,enci4:0,joint4:0.000000,roll40,enci5:0,joint5:0.000000,roll50
time:3834.205549436;enci0:-60,joint0:-0.003815,roll00,enci1:14,joint1:0.000469,roll10,enci2:552690,joint2:-227.445297,roll20,enci3:44326,joint3:44.677063,roll30,enci4:0,joint4:0.000000,roll40,enci5:0,joint5:0.000000,roll50
time:3834.208683073;enci0:-60,joint0:-0.003815,roll00,enci1:14,joint1:0.000469,roll10,enci2:552690,joint2:-227.445297,roll20,enci3:44326,joint3:44.677063,roll30,enci4:0,joint4:0.000000,roll40,enci5:0,joint5:0.000000,roll50
time:3834.209551339;enci0:-60,joint0:-0.003815,roll00,enci1:14,joint1:0.000469,roll10,enci2:552690,joint2:-227.445297,roll20,enci3:44326,joint3:44.677063,roll30,enci4:0,joint4:0.000000,roll40,enci5:0,joint5:0.000000,roll50
time:3834.212679110;enci0:-60,joint0:-0.003815,roll00,enci1:14,joint1:0.000469,roll10,enci2:552690,joint2:-227.445297,roll20,enci3:44326,joint3:44.677063,roll30,enci4:0,joint4:0.000000,roll40,enci5:0,joint5:0.000000,roll50
time:3834.213549053;enci0:-60,joint0:-0.003815,roll00,enci1:14,joint1:0.000469,roll10,enci2:552690,joint2:-227.445297,roll20,enci3:44326,joint3:44.677063,roll30,enci4:0,joint4:0.000000,roll40,enci5:0,joint5:0.000000,roll50
time:3834.216681014;enci0:-60,joint0:-0.003815,roll00,enci1:14,joint1:0.000469,roll10,enci2:552690,joint2:-227.445297,roll20,enci3:44326,joint3:44.677063,roll30,enci4:0,joint4:0.000000,roll40,enci5:0,joint5:0.000000,roll50
time:3834.217548443;enci0:-60,joint0:-0.003815,roll00,enci1:14,joint1:0.000469,roll10,enci2:552690,joint2:-227.445297,roll20,enci3:44326,joint3:44.677063,roll30,enci4:0,joint4:0.000000,roll40,enci5:0,joint5:0.000000,roll50
time:3834.220680404;enci0:-60,joint0:-0.003815,roll00,enci1:14,joint1:0.000469,roll10,enci2:552690,joint2:-227.445297,roll20,enci3:44326,joint3:44.677063,roll30,enci4:0,joint4:0.000000,roll40,enci5:0,joint5:0.000000,roll50
time:3834.221546156;enci0:-60,joint0:-0.003815,roll00,enci1:14,joint1:0.000469,roll10,enci2:552690,joint2:-227.445297,roll20,enci3:44326,joint3:44.677063,roll30,enci4:0,joint4:0.000000,roll40,enci5:0,joint5:0.000000,roll50
time:3834.224681470;enci0:-60,joint0:-0.003815,roll00,enci1:14,joint1:0.000469,roll10,enci2:552690,joint2:-227.445297,roll20,enci3:44326,joint3:44.677063,roll30,enci4:0,joint4:0.000000,roll40,enci5:0,joint5:0.000000,roll50
time:3834.225548899;enci0:-60,joint0:-0.003815,roll00,enci1:14,joint1:0.000469,roll10,enci2:552690,joint2:-227.445297,roll20,enci3:44326,joint3:44.677063,roll30,enci4:0,joint4:0.000000,roll40,enci5:0,joint5:0.000000,roll50
time:3834.228679184;enci0:-60,joint0:-0.003815,roll00,enci1:14,joint1:0.000469,roll10,enci2:552690,joint2:-227.445297,roll20,enci3:44326,joint3:44.677063,roll30,enci4:0,joint4:0.000000,roll40,enci5:0,joint5:0.000000,roll50
time:3834.229544098;enci0:-60,joint0:-0.003815,roll00,enci1:14,joint1:0.000469,roll10,enci2:552690,joint2:-227.445297,roll20,enci3:44326,joint3:44.677063,roll30,enci4:0,joint4:0.000000,roll40,enci5:0,joint5:0.000000,roll50
time:3834.232680250;enci0:-60,joint0:-0.003815,roll00,enci1:14,joint1:0.000469,roll10,enci2:552690,joint2:-227.445297,roll20,enci3:44326,joint3:44.677063,roll30,enci4:0,joint4:0.000000,roll40,enci5:0,joint5:0.000000,roll50
time:3834.233546002;enci0:-60,joint0:-0.003815,roll00,enci1:14,joint1:0.000469,roll10,enci2:552690,joint2:-227.445297,roll20,enci3:44326,joint3:44.677063,roll30,enci4:0,joint4:0.000000,roll40,enci5:0,joint5:0.000000,roll50
time:3834.236678802;enci0:-60,joint0:-0.003815,roll00,enci1:14,joint1:0.000469,roll10,enci2:552690,joint2:-227.445297,roll20,enci3:44326,joint3:44.677063,roll30,enci4:0,joint4:0.000000,roll40,enci5:0,joint5:0.000000,roll50
time:3834.237546230;enci0:-60,joint0:-0.003815,roll00,enci1:14,joint1:0.000469,roll10,enci2:552690,joint2:-227.445297,roll20,enci3:44326,joint3:44.677063,roll30,enci4:0,joint4:0.000000,roll40,enci5:0,joint5:0.000000,roll50
time:3834.240679868;enci0:-60,joint0:-0.003815,roll00,enci1:14,joint1:0.000469,roll10,enci2:552690,joint2:-227.445297,roll20,enci3:44326,joint3:44.677063,roll30,enci4:0,joint4:0.000000,roll40,enci5:0,joint5:0.000000,roll50
time:3834.241551487;enci0:-60,joint0:-0.003815,roll00,enci1:14,joint1:0.000469,roll10,enci2:552690,joint2:-227.445297,roll20,enci3:44326,joint3:44.677063,roll30,enci4:0,joint4:0.000000,roll40,enci5:0,joint5:0.000000,roll50
time:3834.244679258;enci0:-60,joint0:-0.003815,roll00,enci1:14,joint1:0.000469,roll10,enci2:552690,joint2:-227.445297,roll20,enci3:44326,joint3:44.677063,roll30,enci4:0,joint4:0.000000,roll40,enci5:0,joint5:0.000000,roll50
time:3834.245545010;enci0:-60,joint0:-0.003815,roll00,enci1:14,joint1:0.000469,roll10,enci2:552690,joint2:-227.445297,roll20,enci3:44326,joint3:44.677063,roll30,enci4:0,joint4:0.000000,roll40,enci5:0,joint5:0.000000,roll50
time:3834.248680324;enci0:-60,joint0:-0.003815,roll00,enci1:14,joint1:0.000469,roll10,enci2:552690,joint2:-227.445297,roll20,enci3:44326,joint3:44.677063,roll30,enci4:0,joint4:0.000000,roll40,enci5:0,joint5:0.000000,roll50
time:3834.249547752;enci0:-60,joint0:-0.003815,roll00,enci1:14,joint1:0.000469,roll10,enci2:552690,joint2:-227.445297,roll20,enci3:44326,joint3:44.677063,roll30,enci4:0,joint4:0.000000,roll40,enci5:0,joint5:0.000000,roll50
time:3834.252678876;enci0:-60,joint0:-0.003815,roll00,enci1:14,joint1:0.000469,roll10,enci2:552690,joint2:-227.445297,roll20,enci3:44326,joint3:44.677063,roll30,enci4:0,joint4:0.000000,roll40,enci5:0,joint5:0.000000,roll50
time:3834.253542952;enci0:-60,joint0:-0.003815,roll00,enci1:14,joint1:0.000469,roll10,enci2:552690,joint2:-227.445297,roll20,enci3:44326,joint3:44.677063,roll30,enci4:0,joint4:0.000000,roll40,enci5:0,joint5:0.000000,roll50
time:3834.256679104;enci0:-60,joint0:-0.003815,roll00,enci1:14,joint1:0.000469,roll10,enci2:552690,joint2:-227.445297,roll20,enci3:44326,joint3:44.677063,roll30,enci4:0,joint4:0.000000,roll40,enci5:0,joint5:0.000000,roll50
time:3834.257583408;enci0:-60,joint0:-0.003815,roll00,enci1:14,joint1:0.000469,roll10,enci2:552690,joint2:-227.445297,roll20,enci3:44326,joint3:44.677063,roll30,enci4:0,joint4:0.000000,roll40,enci5:0,joint5:0.000000,roll50
time:3834.260679332;enci0:-60,joint0:-0.003815,roll00,enci1:14,joint1:0.000469,roll10,enci2:552690,joint2:-227.445297,roll20,enci3:44326,joint3:44.677063,roll30,enci4:0,joint4:0.000000,roll40,enci5:0,joint5:0.000000,roll50
time:3834.261550112;enci0:-60,joint0:-0.003815,roll00,enci1:14,joint1:0.000469,roll10,enci2:552690,joint2:-227.445297,roll20,enci3:44326,joint3:44.677063,roll30,enci4:0,joint4:0.000000,roll40,enci5:0,joint5:0.000000,roll50
time:3834.264680398;enci0:-60,joint0:-0.003815,roll00,enci1:14,joint1:0.000469,roll10,enci2:552690,joint2:-227.445297,roll20,enci3:44326,joint3:44.677063,roll30,enci4:0,joint4:0.000000,roll40,enci5:0,joint5:0.000000,roll50
time:3834.265547826;enci0:-60,joint0:-0.003815,roll00,enci1:14,joint1:0.000469,roll10,enci2:552690,joint2:-227.445297,roll20,enci3:44326,joint3:44.677063,roll30,enci4:0,joint4:0.000000,roll40,enci5:0,joint5:0.000000,roll50
time:3834.268678111;enci0:-60,joint0:-0.003815,roll00,enci1:14,joint1:0.000469,roll10,enci2:552690,joint2:-227.445297,roll20,enci3:44326,joint3:44.677063,roll30,enci4:0,joint4:0.000000,roll40,enci5:0,joint5:0.000000,roll50
time:3834.269542187;enci0:-60,joint0:-0.003815,roll00,enci1:14,joint1:0.000469,roll10,enci2:552690,joint2:-227.445297,roll20,enci3:44326,joint3:44.677063,roll30,enci4:0,joint4:0.000000,roll40,enci5:0,joint5:0.000000,roll50
time:3834.272679177;enci0:-60,joint0:-0.003815,roll00,enci1:14,joint1:0.000469,roll10,enci2:552690,joint2:-227.445297,roll20,enci3:44326,joint3:44.677063,roll30,enci4:0,joint4:0.000000,roll40,enci5:0,joint5:0.000000,roll50
time:3834.273549120;enci0:-60,joint0:-0.003815,roll00,enci1:14,joint1:0.000469,roll10,enci2:552690,joint2:-227.445297,roll20,enci3:44326,joint3:44.677063,roll30,enci4:0,joint4:0.000000,roll40,enci5:0,joint5:0.000000,roll50
time:3834.276677729;enci0:-60,joint0:-0.003815,roll00,enci1:14,joint1:0.000469,roll10,enci2:552690,joint2:-227.445297,roll20,enci3:44326,joint3:44.677063,roll30,enci4:0,joint4:0.000000,roll40,enci5:0,joint5:0.000000,roll50
time:3834.277543482;enci0:-60,joint0:-0.003815,roll00,enci1:14,joint1:0.000469,roll10,enci2:552690,joint2:-227.445297,roll20,enci3:44326,joint3:44.677063,roll30,enci4:0,joint4:0.000000,roll40,enci5:0,joint5:0.000000,roll50
time:3834.280678795;enci0:-60,joint0:-0.003815,roll00,enci1:14,joint1:0.000469,roll10,enci2:552690,joint2:-227.445297,roll20,enci3:44326,joint3:44.677063,roll30,enci4:0,joint4:0.000000,roll40,enci5:0,joint5:0.000000,roll50
time:3834.281549576;enci0:-60,joint0:-0.003815,roll00,enci1:14,joint1:0.000469,roll10,enci2:552690,joint2:-227.445297,roll20,enci3:44326,joint3:44.677063,roll30,enci4:0,joint4:0.000000,roll40,enci5:0,joint5:0.000000,roll50
time:3834.284677347;enci0:-60,joint0:-0.003815,roll00,enci1:14,joint1:0.000469,roll10,enci2:552690,joint2:-227.445297,roll20,enci3:44326,joint3:44.677063,roll30,enci4:0,joint4:0.000000,roll40,enci5:0,joint5:0.000000,roll50
time:3834.285543938;enci0:-60,joint0:-0.003815,roll00,enci1:14,joint1:0.000469,roll10,enci2:552690,joint2:-227.445297,roll20,enci3:44326,joint3:44.677063,roll30,enci4:0,joint4:0.000000,roll40,enci5:0,joint5:0.000000,roll50
time:3834.288678413;enci0:-60,joint0:-0.003815,roll00,enci1:14,joint1:0.000469,roll10,enci2:552690,joint2:-227.445297,roll20,enci3:44326,joint3:44.677063,roll30,enci4:0,joint4:0.000000,roll40,enci5:0,joint5:0.000000,roll50
time:3834.289549194;enci0:-60,joint0:-0.003815,roll00,enci1:14,joint1:0.000469,roll10,enci2:552690,joint2:-227.445297,roll20,enci3:44326,joint3:44.677063,roll30,enci4:0,joint4:0.000000,roll40,enci5:0,joint5:0.000000,roll50
time:3834.292677803;enci0:-60,joint0:-0.003815,roll00,enci1:14,joint1:0.000469,roll10,enci2:552690,joint2:-227.445297,roll20,enci3:44326,joint3:44.677063,roll30,enci4:0,joint4:0.000000,roll40,enci5:0,joint5:0.000000,roll50
time:3834.293543555;enci0:-60,joint0:-0.003815,roll00,enci1:14,joint1:0.000469,roll10,enci2:552690,joint2:-227.445297,roll20,enci3:44326,joint3:44.677063,roll30,enci4:0,joint4:0.000000,roll40,enci5:0,joint5:0.000000,roll50
time:3834.296677193;enci0:-60,joint0:-0.003815,roll00,enci1:14,joint1:0.000469,roll10,enci2:552690,joint2:-227.445297,roll20,enci3:44326,joint3:44.677063,roll30,enci4:0,joint4:0.000000,roll40,enci5:0,joint5:0.000000,roll50
time:3834.297558031;enci0:-60,joint0:-0.003815,roll00,enci1:14,joint1:0.000469,roll10,enci2:552690,joint2:-227.445297,roll20,enci3:44326,joint3:44.677063,roll30,enci4:0,joint4:0.000000,roll40,enci5:0,joint5:0.000000,roll50
time:3834.300677421;enci0:-60,joint0:-0.003815,roll00,enci1:14,joint1:0.000469,roll10,enci2:552690,joint2:-227.445297,roll20,enci3:44326,joint3:44.677063,roll30,enci4:0,joint4:0.000000,roll40,enci5:0,joint5:0.000000,roll50
time:3834.301544011;enci0:-60,joint0:-0.003815,roll00,enci1:14,joint1:0.000469,roll10,enci2:552690,joint2:-227.445297,roll20,enci3:44326,joint3:44.677063,roll30,enci4:0,joint4:0.000000,roll40,enci5:0,joint5:0.000000,roll50
time:3834.304676811;enci0:-60,joint0:-0.003815,roll00,enci1:14,joint1:0.000469,roll10,enci2:552690,joint2:-227.445297,roll20,enci3:44326,joint3:44.677063,roll30,enci4:0,joint4:0.000000,roll40,enci5:0,joint5:0.000000,roll50
time:3834.305550106;enci0:-60,joint0:-0.003815,roll00,enci1:14,joint1:0.000469,roll10,enci2:552690,joint2:-227.445297,roll20,enci3:44326,joint3:44.677063,roll30,enci4:0,joint4:0.000000,roll40,enci5:0,joint5:0.000000,roll50
time:3834.308674525;enci0:-60,joint0:-0.003815,roll00,enci1:14,joint1:0.000469,roll10,enci2:552690,joint2:-227.445297,roll20,enci3:44326,joint3:44.677063,roll30,enci4:0,joint4:0.000000,roll40,enci5:0,joint5:0.000000,roll50
time:3834.309513458;enci0:-60,joint0:-0.003815,roll00,enci1:14,joint1:0.000469,roll10,enci2:552690,joint2:-227.445297,roll20,enci3:44326,joint3:44.677063,roll30,enci4:0,joint4:0.000000,roll40,enci5:0,joint5:0.000000,roll50
time:3834.312677267;enci0:-60,joint0:-0.003815,roll00,enci1:14,joint1:0.000469,roll10,enci2:552690,joint2:-227.445297,roll20,enci3:44326,joint3:44.677063,roll30,enci4:0,joint4:0.000000,roll40,enci5:0,joint5:0.000000,roll50
time:3834.313586599;enci0:-60,joint0:-0.003815,roll00,enci1:14,joint1:0.000469,roll10,enci2:552690,joint2:-227.445297,roll20,enci3:44326,joint3:44.677063,roll30,enci4:0,joint4:0.000000,roll40,enci5:0,joint5:0.000000,roll50
time:3834.316675818;enci0:-60,joint0:-0.003815,roll00,enci1:14,joint1:0.000469,roll10,enci2:552690,joint2:-227.445297,roll20,enci3:44326,joint3:44.677063,roll30,enci4:0,joint4:0.000000,roll40,enci5:0,joint5:0.000000,roll50
time:3834.317522294;enci0:-60,joint0:-0.003815,roll00,enci1:14,joint1:0.000469,roll10,enci2:552690,joint2:-227.445297,roll20,enci3:44326,joint3:44.677063,roll30,enci4:0,joint4:0.000000,roll40,enci5:0,joint5:0.000000,roll50
time:3834.320676884;enci0:-60,joint0:-0.003815,roll00,enci1:14,joint1:0.000469,roll10,enci2:552690,joint2:-227.445297,roll20,enci3:44326,joint3:44.677063,roll30,enci4:0,joint4:0.000000,roll40,enci5:0,joint5:0.000000,roll50
time:3834.321545150;enci0:-60,joint0:-0.003815,roll00,enci1:14,joint1:0.000469,roll10,enci2:552690,joint2:-227.445297,roll20,enci3:44326,joint3:44.677063,roll30,enci4:0,joint4:0.000000,roll40,enci5:0,joint5:0.000000,roll50
time:3834.324675436;enci0:-60,joint0:-0.003815,roll00,enci1:14,joint1:0.000469,roll10,enci2:552690,joint2:-227.445297,roll20,enci3:44326,joint3:44.677063,roll30,enci4:0,joint4:0.000000,roll40,enci5:0,joint5:0.000000,roll50
time:3834.325542026;enci0:-60,joint0:-0.003815,roll00,enci1:14,joint1:0.000469,roll10,enci2:552690,joint2:-227.445297,roll20,enci3:44326,joint3:44.677063,roll30,enci4:0,joint4:0.000000,roll40,enci5:0,joint5:0.000000,roll50
time:3834.328676502;enci0:-60,joint0:-0.003815,roll00,enci1:14,joint1:0.000469,roll10,enci2:552690,joint2:-227.445297,roll20,enci3:44326,joint3:44.677063,roll30,enci4:0,joint4:0.000000,roll40,enci5:0,joint5:0.000000,roll50
time:3834.329549797;enci0:-60,joint0:-0.003815,roll00,enci1:14,joint1:0.000469,roll10,enci2:552690,joint2:-227.445297,roll20,enci3:44326,joint3:44.677063,roll30,enci4:0,joint4:0.000000,roll40,enci5:0,joint5:0.000000,roll50
time:3834.332675892;enci0:-60,joint0:-0.003815,roll00,enci1:14,joint1:0.000469,roll10,enci2:552690,joint2:-227.445297,roll20,enci3:44326,joint3:44.677063,roll30,enci4:0,joint4:0.000000,roll40,enci5:0,joint5:0.000000,roll50
time:3834.333539130;enci0:-60,joint0:-0.003815,roll00,enci1:14,joint1:0.000469,roll10,enci2:552690,joint2:-227.445297,roll20,enci3:44326,joint3:44.677063,roll30,enci4:0,joint4:0.000000,roll40,enci5:0,joint5:0.000000,roll50
time:3834.336676120;enci0:-60,joint0:-0.003815,roll00,enci1:14,joint1:0.000469,roll10,enci2:552690,joint2:-227.445297,roll20,enci3:44326,joint3:44.677063,roll30,enci4:0,joint4:0.000000,roll40,enci5:0,joint5:0.000000,roll50
time:3834.337552767;enci0:-60,joint0:-0.003815,roll00,enci1:14,joint1:0.000469,roll10,enci2:552690,joint2:-227.445297,roll20,enci3:44326,joint3:44.677063,roll30,enci4:0,joint4:0.000000,roll40,enci5:0,joint5:0.000000,roll50
time:3834.340677186;enci0:-60,joint0:-0.003815,roll00,enci1:14,joint1:0.000469,roll10,enci2:552690,joint2:-227.445297,roll20,enci3:44326,joint3:44.677063,roll30,enci4:0,joint4:0.000000,roll40,enci5:0,joint5:0.000000,roll50
time:3834.341545452;enci0:-60,joint0:-0.003815,roll00,enci1:14,joint1:0.000469,roll10,enci2:552690,joint2:-227.445297,roll20,enci3:44326,joint3:44.677063,roll30,enci4:0,joint4:0.000000,roll40,enci5:0,joint5:0.000000,roll50
time:3834.344675738;enci0:-60,joint0:-0.003815,roll00,enci1:14,joint1:0.000469,roll10,enci2:552690,joint2:-227.445297,roll20,enci3:44326,joint3:44.677063,roll30,enci4:0,joint4:0.000000,roll40,enci5:0,joint5:0.000000,roll50
time:3834.345544004;enci0:-60,joint0:-0.003815,roll00,enci1:14,joint1:0.000469,roll10,enci2:552690,joint2:-227.445297,roll20,enci3:44326,joint3:44.677063,roll30,enci4:0,joint4:0.000000,roll40,enci5:0,joint5:0.000000,roll50
time:3834.348675128;enci0:-60,joint0:-0.003815,roll00,enci1:14,joint1:0.000469,roll10,enci2:552690,joint2:-227.445297,roll20,enci3:44326,joint3:44.677063,roll30,enci4:0,joint4:0.000000,roll40,enci5:0,joint5:0.000000,roll50
time:3834.349542556;enci0:-60,joint0:-0.003815,roll00,enci1:14,joint1:0.000469,roll10,enci2:552690,joint2:-227.445297,roll20,enci3:44326,joint3:44.677063,roll30,enci4:0,joint4:0.000000,roll40,enci5:0,joint5:0.000000,roll50
time:3834.352676194;enci0:-60,joint0:-0.003815,roll00,enci1:14,joint1:0.000469,roll10,enci2:552690,joint2:-227.445297,roll20,enci3:44326,joint3:44.677063,roll30,enci4:0,joint4:0.000000,roll40,enci5:0,joint5:0.000000,roll50
time:3834.353543622;enci0:-60,joint0:-0.003815,roll00,enci1:14,joint1:0.000469,roll10,enci2:552690,joint2:-227.445297,roll20,enci3:44326,joint3:44.677063,roll30,enci4:0,joint4:0.000000,roll40,enci5:0,joint5:0.000000,roll50
time:3834.356675584;enci0:-60,joint0:-0.003815,roll00,enci1:14,joint1:0.000469,roll10,enci2:552690,joint2:-227.445297,roll20,enci3:44326,joint3:44.677063,roll30,enci4:0,joint4:0.000000,roll40,enci5:0,joint5:0.000000,roll50
time:3834.357543850;enci0:-60,joint0:-0.003815,roll00,enci1:14,joint1:0.000469,roll10,enci2:552690,joint2:-227.445297,roll20,enci3:44326,joint3:44.677063,roll30,enci4:0,joint4:0.000000,roll40,enci5:0,joint5:0.000000,roll50
time:3834.360674973;enci0:-60,joint0:-0.003815,roll00,enci1:14,joint1:0.000469,roll10,enci2:552690,joint2:-227.445297,roll20,enci3:44326,joint3:44.677063,roll30,enci4:0,joint4:0.000000,roll40,enci5:0,joint5:0.000000,roll50
time:3834.361547430;enci0:-60,joint0:-0.003815,roll00,enci1:14,joint1:0.000469,roll10,enci2:552690,joint2:-227.445297,roll20,enci3:44326,joint3:44.677063,roll30,enci4:0,joint4:0.000000,roll40,enci5:0,joint5:0.000000,roll50
time:3834.364676040;enci0:-60,joint0:-0.003815,roll00,enci1:14,joint1:0.000469,roll10,enci2:552690,joint2:-227.445297,roll20,enci3:44326,joint3:44.677063,roll30,enci4:0,joint4:0.000000,roll40,enci5:0,joint5:0.000000,roll50
time:3834.365540954;enci0:-60,joint0:-0.003815,roll00,enci1:14,joint1:0.000469,roll10,enci2:552690,joint2:-227.445297,roll20,enci3:44326,joint3:44.677063,roll30,enci4:0,joint4:0.000000,roll40,enci5:0,joint5:0.000000,roll50
time:3834.368673753;enci0:-60,joint0:-0.003815,roll00,enci1:14,joint1:0.000469,roll10,enci2:552690,joint2:-227.445297,roll20,enci3:44326,joint3:44.677063,roll30,enci4:0,joint4:0.000000,roll40,enci5:0,joint5:0.000000,roll50
time:3834.369577220;enci0:-60,joint0:-0.003815,roll00,enci1:14,joint1:0.000469,roll10,enci2:552690,joint2:-227.445297,roll20,enci3:44326,joint3:44.677063,roll30,enci4:0,joint4:0.000000,roll40,enci5:0,joint5:0.000000,roll50
time:3834.372674819;enci0:-60,joint0:-0.003815,roll00,enci1:14,joint1:0.000469,roll10,enci2:552690,joint2:-227.445297,roll20,enci3:44326,joint3:44.677063,roll30,enci4:0,joint4:0.000000,roll40,enci5:0,joint5:0.000000,roll50
time:3834.373546438;enci0:-60,joint0:-0.003815,roll00,enci1:14,joint1:0.000469,roll10,enci2:552690,joint2:-227.445297,roll20,enci3:44326,joint3:44.677063,roll30,enci4:0,joint4:0.000000,roll40,enci5:0,joint5:0.000000,roll50
time:3834.376675047;enci0:-60,joint0:-0.003815,roll00,enci1:14,joint1:0.000469,roll10,enci2:552690,joint2:-227.445297,roll20,enci3:44326,joint3:44.677063,roll30,enci4:0,joint4:0.000000,roll40,enci5:0,joint5:0.000000,roll50
time:3834.377550857;enci0:-60,joint0:-0.003815,roll00,enci1:14,joint1:0.000469,roll10,enci2:552690,joint2:-227.445297,roll20,enci3:44326,joint3:44.677063,roll30,enci4:0,joint4:0.000000,roll40,enci5:0,joint5:0.000000,roll50
time:3834.380674437;enci0:-60,joint0:-0.003815,roll00,enci1:14,joint1:0.000469,roll10,enci2:552690,joint2:-227.445297,roll20,enci3:44326,joint3:44.677063,roll30,enci4:0,joint4:0.000000,roll40,enci5:0,joint5:0.000000,roll50
time:3834.381547732;enci0:-60,joint0:-0.003815,roll00,enci1:14,joint1:0.000469,roll10,enci2:552690,joint2:-227.445297,roll20,enci3:44326,joint3:44.677063,roll30,enci4:0,joint4:0.000000,roll40,enci5:0,joint5:0.000000,roll50
time:3834.384674665;enci0:-60,joint0:-0.003815,roll00,enci1:14,joint1:0.000469,roll10,enci2:552690,joint2:-227.445297,roll20,enci3:44326,joint3:44.677063,roll30,enci4:0,joint4:0.000000,roll40,enci5:0,joint5:0.000000,roll50
time:3834.385542094;enci0:-60,joint0:-0.003815,roll00,enci1:14,joint1:0.000469,roll10,enci2:552690,joint2:-227.445297,roll20,enci3:44326,joint3:44.677063,roll30,enci4:0,joint4:0.000000,roll40,enci5:0,joint5:0.000000,roll50
time:3834.388673217;enci0:-60,joint0:-0.003815,roll00,enci1:14,joint1:0.000469,roll10,enci2:552690,joint2:-227.445297,roll20,enci3:44326,joint3:44.677063,roll30,enci4:0,joint4:0.000000,roll40,enci5:0,joint5:0.000000,roll50
time:3834.389538131;enci0:-60,joint0:-0.003815,roll00,enci1:14,joint1:0.000469,roll10,enci2:552690,joint2:-227.445297,roll20,enci3:44326,joint3:44.677063,roll30,enci4:0,joint4:0.000000,roll40,enci5:0,joint5:0.000000,roll50
time:3834.392674283;enci0:-60,joint0:-0.003815,roll00,enci1:14,joint1:0.000469,roll10,enci2:552690,joint2:-227.445297,roll20,enci3:44326,joint3:44.677063,roll30,enci4:0,joint4:0.000000,roll40,enci5:0,joint5:0.000000,roll50
time:3834.393541712;enci0:-60,joint0:-0.003815,roll00,enci1:14,joint1:0.000469,roll10,enci2:552690,joint2:-227.445297,roll20,enci3:44326,joint3:44.677063,roll30,enci4:0,joint4:0.000000,roll40,enci5:0,joint5:0.000000,roll50
time:3834.396672835;enci0:-60,joint0:-0.003815,roll00,enci1:14,joint1:0.000469,roll10,enci2:552690,joint2:-227.445297,roll20,enci3:44326,joint3:44.677063,roll30,enci4:0,joint4:0.000000,roll40,enci5:0,joint5:0.000000,roll50
time:3834.397537749;enci0:-60,joint0:-0.003815,roll00,enci1:14,joint1:0.000469,roll10,enci2:552690,joint2:-227.445297,roll20,enci3:44326,joint3:44.677063,roll30,enci4:0,joint4:0.000000,roll40,enci5:0,joint5:0.000000,roll50
time:3834.400673063;enci0:-60,joint0:-0.003815,roll00,enci1:14,joint1:0.000469,roll10,enci2:552690,joint2:-227.445297,roll20,enci3:44326,joint3:44.677063,roll30,enci4:0,joint4:0.000000,roll40,enci5:0,joint5:0.000000,roll50
time:3834.401542168;enci0:-60,joint0:-0.003815,roll00,enci1:14,joint1:0.000469,roll10,enci2:552690,joint2:-227.445297,roll20,enci3:44326,joint3:44.677063,roll30,enci4:0,joint4:0.000000,roll40,enci5:0,joint5:0.000000,roll50
time:3834.404673291;enci0:-60,joint0:-0.003815,roll00,enci1:14,joint1:0.000469,roll10,enci2:552690,joint2:-227.445297,roll20,enci3:44326,joint3:44.677063,roll30,enci4:0,joint4:0.000000,roll40,enci5:0,joint5:0.000000,roll50
time:3834.405544072;enci0:-60,joint0:-0.003815,roll00,enci1:14,joint1:0.000469,roll10,enci2:552690,joint2:-227.445297,roll20,enci3:44326,joint3:44.677063,roll30,enci4:0,joint4:0.000000,roll40,enci5:0,joint5:0.000000,roll50
time:3834.408674357;enci0:-60,joint0:-0.003815,roll00,enci1:14,joint1:0.000469,roll10,enci2:552690,joint2:-227.445297,roll20,enci3:44326,joint3:44.677063,roll30,enci4:0,joint4:0.000000,roll40,enci5:0,joint5:0.000000,roll50
time:3834.409543461;enci0:-60,joint0:-0.003815,roll00,enci1:14,joint1:0.000469,roll10,enci2:552690,joint2:-227.445297,roll20,enci3:44326,joint3:44.677063,roll30,enci4:0,joint4:0.000000,roll40,enci5:0,joint5:0.000000,roll50
time:3834.412672908;enci0:-60,joint0:-0.003815,roll00,enci1:14,joint1:0.000469,roll10,enci2:552690,joint2:-227.445297,roll20,enci3:44326,joint3:44.677063,roll30,enci4:0,joint4:0.000000,roll40,enci5:0,joint5:0.000000,roll50
time:3834.413537822;enci0:-60,joint0:-0.003815,roll00,enci1:14,joint1:0.000469,roll10,enci2:552690,joint2:-227.445297,roll20,enci3:44326,joint3:44.677063,roll30,enci4:0,joint4:0.000000,roll40,enci5:0,joint5:0.000000,roll50
time:3834.416672298;enci0:-60,joint0:-0.003815,roll00,enci1:14,joint1:0.000469,roll10,enci2:552690,joint2:-227.445297,roll20,enci3:44326,joint3:44.677063,roll30,enci4:0,joint4:0.000000,roll40,enci5:0,joint5:0.000000,roll50
time:3834.417540564;enci0:-60,joint0:-0.003815,roll00,enci1:14,joint1:0.000469,roll10,enci2:552690,joint2:-227.445297,roll20,enci3:44326,joint3:44.677063,roll30,enci4:0,joint4:0.000000,roll40,enci5:0,joint5:0.000000,roll50
time:3834.420671688;enci0:-60,joint0:-0.003815,roll00,enci1:14,joint1:0.000469,roll10,enci2:552690,joint2:-227.445297,roll20,enci3:44326,joint3:44.677063,roll30,enci4:0,joint4:0.000000,roll40,enci5:0,joint5:0.000000,roll50
time:3834.421538278;enci0:-60,joint0:-0.003815,roll00,enci1:14,joint1:0.000469,roll10,enci2:552690,joint2:-227.445297,roll20,enci3:44326,joint3:44.677063,roll30,enci4:0,joint4:0.000000,roll40,enci5:0,joint5:0.000000,roll50
time:3834.424672754;enci0:-60,joint0:-0.003815,roll00,enci1:14,joint1:0.000469,roll10,enci2:552690,joint2:-227.445297,roll20,enci3:44326,joint3:44.677063,roll30,enci4:0,joint4:0.000000,roll40,enci5:0,joint5:0.000000,roll50
time:3834.425581249;enci0:-60,joint0:-0.003815,roll00,enci1:14,joint1:0.000469,roll10,enci2:552690,joint2:-227.445297,roll20,enci3:44326,joint3:44.677063,roll30,enci4:0,joint4:0.000000,roll40,enci5:0,joint5:0.000000,roll50
time:3834.428672982;enci0:-60,joint0:-0.003815,roll00,enci1:14,joint1:0.000469,roll10,enci2:552690,joint2:-227.445297,roll20,enci3:44326,joint3:44.677063,roll30,enci4:0,joint4:0.000000,roll40,enci5:0,joint5:0.000000,roll50
time:3834.429540410;enci0:-60,joint0:-0.003815,roll00,enci1:14,joint1:0.000469,roll10,enci2:552690,joint2:-227.445297,roll20,enci3:44326,joint3:44.677063,roll30,enci4:0,joint4:0.000000,roll40,enci5:0,joint5:0.000000,roll50
time:3834.432673210;enci0:-60,joint0:-0.003815,roll00,enci1:14,joint1:0.000469,roll10,enci2:552690,joint2:-227.445297,roll20,enci3:44326,joint3:44.677063,roll30,enci4:0,joint4:0.000000,roll40,enci5:0,joint5:0.000000,roll50
time:3834.433544829;enci0:-60,joint0:-0.003815,roll00,enci1:14,joint1:0.000469,roll10,enci2:552690,joint2:-227.445297,roll20,enci3:44326,joint3:44.677063,roll30,enci4:0,joint4:0.000000,roll40,enci5:0,joint5:0.000000,roll50
time:3834.436671762;enci0:-60,joint0:-0.003815,roll00,enci1:14,joint1:0.000469,roll10,enci2:552690,joint2:-227.445297,roll20,enci3:44326,joint3:44.677063,roll30,enci4:0,joint4:0.000000,roll40,enci5:0,joint5:0.000000,roll50
time:3834.437537514;enci0:-60,joint0:-0.003815,roll00,enci1:14,joint1:0.000469,roll10,enci2:552690,joint2:-227.445297,roll20,enci3:44326,joint3:44.677063,roll30,enci4:0,joint4:0.000000,roll40,enci5:0,joint5:0.000000,roll50
time:3834.440671990;enci0:-60,joint0:-0.003815,roll00,enci1:14,joint1:0.000469,roll10,enci2:552690,joint2:-227.445297,roll20,enci3:44326,joint3:44.677063,roll30,enci4:0,joint4:0.000000,roll40,enci5:0,joint5:0.000000,roll50
time:3834.441538580;enci0:-60,joint0:-0.003815,roll00,enci1:14,joint1:0.000469,roll10,enci2:552690,joint2:-227.445297,roll20,enci3:44326,joint3:44.677063,roll30,enci4:0,joint4:0.000000,roll40,enci5:0,joint5:0.000000,roll50
time:3834.444671379;enci0:-60,joint0:-0.003815,roll00,enci1:14,joint1:0.000469,roll10,enci2:552690,joint2:-227.445297,roll20,enci3:44326,joint3:44.677063,roll30,enci4:0,joint4:0.000000,roll40,enci5:0,joint5:0.000000,roll50
time:3834.445537970;enci0:-60,joint0:-0.003815,roll00,enci1:14,joint1:0.000469,roll10,enci2:552690,joint2:-227.445297,roll20,enci3:44326,joint3:44.677063,roll30,enci4:0,joint4:0.000000,roll40,enci5:0,joint5:0.000000,roll50
time:3834.448672446;enci0:-60,joint0:-0.003815,roll00,enci1:14,joint1:0.000469,roll10,enci2:552690,joint2:-227.445297,roll20,enci3:44326,joint3:44.677063,roll30,enci4:0,joint4:0.000000,roll40,enci5:0,joint5:0.000000,roll50
time:3834.449540712;enci0:-60,joint0:-0.003815,roll00,enci1:14,joint1:0.000469,roll10,enci2:552690,joint2:-227.445297,roll20,enci3:44326,joint3:44.677063,roll30,enci4:0,joint4:0.000000,roll40,enci5:0,joint5:0.000000,roll50
time:3834.452670997;enci0:-60,joint0:-0.003815,roll00,enci1:14,joint1:0.000469,roll10,enci2:552690,joint2:-227.445297,roll20,enci3:44326,joint3:44.677063,roll30,enci4:0,joint4:0.000000,roll40,enci5:0,joint5:0.000000,roll50
time:3834.453544293;enci0:-60,joint0:-0.003815,roll00,enci1:14,joint1:0.000469,roll10,enci2:552690,joint2:-227.445297,roll20,enci3:44326,joint3:44.677063,roll30,enci4:0,joint4:0.000000,roll40,enci5:0,joint5:0.000000,roll50
time:3834.456671225;enci0:-60,joint0:-0.003815,roll00,enci1:14,joint1:0.000469,roll10,enci2:552690,joint2:-227.445297,roll20,enci3:44326,joint3:44.677063,roll30,enci4:0,joint4:0.000000,roll40,enci5:0,joint5:0.000000,roll50
time:3834.457539492;enci0:-60,joint0:-0.003815,roll00,enci1:14,joint1:0.000469,roll10,enci2:552690,joint2:-227.445297,roll20,enci3:44326,joint3:44.677063,roll30,enci4:0,joint4:0.000000,roll40,enci5:0,joint5:0.000000,roll50
time:3834.460670615;enci0:-60,joint0:-0.003815,roll00,enci1:14,joint1:0.000469,roll10,enci2:552690,joint2:-227.445297,roll20,enci3:44326,joint3:44.677063,roll30,enci4:0,joint4:0.000000,roll40,enci5:0,joint5:0.000000,roll50
time:3834.461538044;enci0:-60,joint0:-0.003815,roll00,enci1:14,joint1:0.000469,roll10,enci2:552690,joint2:-227.445297,roll20,enci3:44326,joint3:44.677063,roll30,enci4:0,joint4:0.000000,roll40,enci5:0,joint5:0.000000,roll50
time:3834.464671681;enci0:-60,joint0:-0.003815,roll00,enci1:14,joint1:0.000469,roll10,enci2:552690,joint2:-227.445297,roll20,enci3:44326,joint3:44.677063,roll30,enci4:0,joint4:0.000000,roll40,enci5:0,joint5:0.000000,roll50
time:3834.465541624;enci0:-60,joint0:-0.003815,roll00,enci1:14,joint1:0.000469,roll10,enci2:552690,joint2:-227.445297,roll20,enci3:44326,joint3:44.677063,roll30,enci4:0,joint4:0.000000,roll40,enci5:0,joint5:0.000000,roll50
time:3834.468670233;enci0:-60,joint0:-0.003815,roll00,enci1:14,joint1:0.000469,roll10,enci2:552690,joint2:-227.445297,roll20,enci3:44326,joint3:44.677063,roll30,enci4:0,joint4:0.000000,roll40,enci5:0,joint5:0.000000,roll50
time:3834.469537662;enci0:-60,joint0:-0.003815,roll00,enci1:14,joint1:0.000469,roll10,enci2:552690,joint2:-227.445297,roll20,enci3:44326,joint3:44.677063,roll30,enci4:0,joint4:0.000000,roll40,enci5:0,joint5:0.000000,roll50
time:3834.472670461;enci0:-60,joint0:-0.003815,roll00,enci1:14,joint1:0.000469,roll10,enci2:552690,joint2:-227.445297,roll20,enci3:44326,joint3:44.677063,roll30,enci4:0,joint4:0.000000,roll40,enci5:0,joint5:0.000000,roll50
time:3834.473538728;enci0:-60,joint0:-0.003815,roll00,enci1:14,joint1:0.000469,roll10,enci2:552690,joint2:-227.445297,roll20,enci3:44326,joint3:44.677063,roll30,enci4:0,joint4:0.000000,roll40,enci5:0,joint5:0.000000,roll50
time:3834.476670689;enci0:-60,joint0:-0.003815,roll00,enci1:14,joint1:0.000469,roll10,enci2:552690,joint2:-227.445297,roll20,enci3:44326,joint3:44.677063,roll30,enci4:0,joint4:0.000000,roll40,enci5:0,joint5:0.000000,roll50
time:3834.477535603;enci0:-60,joint0:-0.003815,roll00,enci1:14,joint1:0.000469,roll10,enci2:552690,joint2:-227.445297,roll20,enci3:44326,joint3:44.677063,roll30,enci4:0,joint4:0.000000,roll40,enci5:0,joint5:0.000000,roll50
time:3834.480671755;enci0:-60,joint0:-0.003815,roll00,enci1:14,joint1:0.000469,roll10,enci2:552690,joint2:-227.445297,roll20,enci3:44326,joint3:44.677063,roll30,enci4:0,joint4:0.000000,roll40,enci5:0,joint5:0.000000,roll50
time:3834.481578574;enci0:-60,joint0:-0.003815,roll00,enci1:14,joint1:0.000469,roll10,enci2:552690,joint2:-227.445297,roll20,enci3:44326,joint3:44.677063,roll30,enci4:0,joint4:0.000000,roll40,enci5:0,joint5:0.000000,roll50
time:3834.484671145;enci0:-60,joint0:-0.003815,roll00,enci1:14,joint1:0.000469,roll10,enci2:552690,joint2:-227.445297,roll20,enci3:44326,joint3:44.677063,roll30,enci4:0,joint4:0.000000,roll40,enci5:0,joint5:0.000000,roll50
time:3834.485541926;enci0:-60,joint0:-0.003815,roll00,enci1:14,joint1:0.000469,roll10,enci2:552690,joint2:-227.445297,roll20,enci3:44326,joint3:44.677063,roll30,enci4:0,joint4:0.000000,roll40,enci5:0,joint5:0.000000,roll50
time:3834.488669697;enci0:-60,joint0:-0.003815,roll00,enci1:14,joint1:0.000469,roll10,enci2:552690,joint2:-227.445297,roll20,enci3:44326,joint3:44.677063,roll30,enci4:0,joint4:0.000000,roll40,enci5:0,joint5:0.000000,roll50
time:3834.489539640;enci0:-60,joint0:-0.003815,roll00,enci1:14,joint1:0.000469,roll10,enci2:552690,joint2:-227.445297,roll20,enci3:44326,joint3:44.677063,roll30,enci4:0,joint4:0.000000,roll40,enci5:0,joint5:0.000000,roll50
time:3834.492669925;enci0:-60,joint0:-0.003815,roll00,enci1:14,joint1:0.000469,roll10,enci2:552690,joint2:-227.445297,roll20,enci3:44326,joint3:44.677063,roll30,enci4:0,joint4:0.000000,roll40,enci5:0,joint5:0.000000,roll50
time:3834.493536515;enci0:-60,joint0:-0.003815,roll00,enci1:14,joint1:0.000469,roll10,enci2:552690,joint2:-227.445297,roll20,enci3:44326,joint3:44.677063,roll30,enci4:0,joint4:0.000000,roll40,enci5:0,joint5:0.000000,roll50
time:3834.496670991;enci0:-60,joint0:-0.003815,roll00,enci1:14,joint1:0.000469,roll10,enci2:552690,joint2:-227.445297,roll20,enci3:44326,joint3:44.677063,roll30,enci4:0,joint4:0.000000,roll40,enci5:0,joint5:0.000000,roll50
time:3834.497540934;enci0:-60,joint0:-0.003815,roll00,enci1:14,joint1:0.000469,roll10,enci2:552690,joint2:-227.445297,roll20,enci3:44326,joint3:44.677063,roll30,enci4:0,joint4:0.000000,roll40,enci5:0,joint5:0.000000,roll50
time:3834.500669543;enci0:-60,joint0:-0.003815,roll00,enci1:14,joint1:0.000469,roll10,enci2:552690,joint2:-227.445297,roll20,enci3:44326,joint3:44.677063,roll30,enci4:0,joint4:0.000000,roll40,enci5:0,joint5:0.000000,roll50
time:3834.501541162;enci0:-60,joint0:-0.003815,roll00,enci1:14,joint1:0.000469,roll10,enci2:552690,joint2:-227.445297,roll20,enci3:44326,joint3:44.677063,roll30,enci4:0,joint4:0.000000,roll40,enci5:0,joint5:0.000000,roll50
time:3834.504670609;enci0:-60,joint0:-0.003815,roll00,enci1:14,joint1:0.000469,roll10,enci2:552690,joint2:-227.445297,roll20,enci3:44326,joint3:44.677063,roll30,enci4:0,joint4:0.000000,roll40,enci5:0,joint5:0.000000,roll50
time:3834.505541390;enci0:-60,joint0:-0.003815,roll00,enci1:14,joint1:0.000469,roll10,enci2:552690,joint2:-227.445297,roll20,enci3:44326,joint3:44.677063,roll30,enci4:0,joint4:0.000000,roll40,enci5:0,joint5:0.000000,roll50
time:3834.508668323;enci0:-60,joint0:-0.003815,roll00,enci1:14,joint1:0.000469,roll10,enci2:552690,joint2:-227.445297,roll20,enci3:44326,joint3:44.677063,roll30,enci4:0,joint4:0.000000,roll40,enci5:0,joint5:0.000000,roll50
time:3834.509534074;enci0:-60,joint0:-0.003815,roll00,enci1:14,joint1:0.000469,roll10,enci2:552690,joint2:-227.445297,roll20,enci3:44326,joint3:44.677063,roll30,enci4:0,joint4:0.000000,roll40,enci5:0,joint5:0.000000,roll50
time:3834.512668550;enci0:-60,joint0:-0.003815,roll00,enci1:14,joint1:0.000469,roll10,enci2:552690,joint2:-227.445297,roll20,enci3:44326,joint3:44.677063,roll30,enci4:0,joint4:0.000000,roll40,enci5:0,joint5:0.000000,roll50
time:3834.513541845;enci0:-60,joint0:-0.003815,roll00,enci1:14,joint1:0.000469,roll10,enci2:552690,joint2:-227.445297,roll20,enci3:44326,joint3:44.677063,roll30,enci4:0,joint4:0.000000,roll40,enci5:0,joint5:0.000000,roll50
time:3834.516669616;enci0:-60,joint0:-0.003815,roll00,enci1:14,joint1:0.000469,roll10,enci2:552690,joint2:-227.445297,roll20,enci3:44326,joint3:44.677063,roll30,enci4:0,joint4:0.000000,roll40,enci5:0,joint5:0.000000,roll50
time:3834.517537044;enci0:-60,joint0:-0.003815,roll00,enci1:14,joint1:0.000469,roll10,enci2:552690,joint2:-227.445297,roll20,enci3:44326,joint3:44.677063,roll30,enci4:0,joint4:0.000000,roll40,enci5:0,joint5:0.000000,roll50
time:3834.520669844;enci0:-60,joint0:-0.003815,roll00,enci1:14,joint1:0.000469,roll10,enci2:552690,joint2:-227.445297,roll20,enci3:44326,joint3:44.677063,roll30,enci4:0,joint4:0.000000,roll40,enci5:0,joint5:0.000000,roll50
time:3834.521540625;enci0:-60,joint0:-0.003815,roll00,enci1:14,joint1:0.000469,roll10,enci2:552690,joint2:-227.445297,roll20,enci3:44326,joint3:44.677063,roll30,enci4:0,joint4:0.000000,roll40,enci5:0,joint5:0.000000,roll50
time:3834.524668396;enci0:-60,joint0:-0.003815,roll00,enci1:14,joint1:0.000469,roll10,enci2:552690,joint2:-227.445297,roll20,enci3:44326,joint3:44.677063,roll30,enci4:0,joint4:0.000000,roll40,enci5:0,joint5:0.000000,roll50
time:3834.525535824;enci0:-60,joint0:-0.003815,roll00,enci1:14,joint1:0.000469,roll10,enci2:552690,joint2:-227.445297,roll20,enci3:44326,joint3:44.677063,roll30,enci4:0,joint4:0.000000,roll40,enci5:0,joint5:0.000000,roll50
time:3834.528668624;enci0:-60,joint0:-0.003815,roll00,enci1:14,joint1:0.000469,roll10,enci2:552690,joint2:-227.445297,roll20,enci3:44326,joint3:44.677063,roll30,enci4:0,joint4:0.000000,roll40,enci5:0,joint5:0.000000,roll50
time:3834.529540243;enci0:-60,joint0:-0.003815,roll00,enci1:14,joint1:0.000469,roll10,enci2:552690,joint2:-227.445297,roll20,enci3:44326,joint3:44.677063,roll30,enci4:0,joint4:0.000000,roll40,enci5:0,joint5:0.000000,roll50
time:3834.532668852;enci0:-60,joint0:-0.003815,roll00,enci1:14,joint1:0.000469,roll10,enci2:552690,joint2:-227.445297,roll20,enci3:44326,joint3:44.677063,roll30,enci4:0,joint4:0.000000,roll40,enci5:0,joint5:0.000000,roll50
time:3834.533534604;enci0:-60,joint0:-0.003815,roll00,enci1:14,joint1:0.000469,roll10,enci2:552690,joint2:-227.445297,roll20,enci3:44326,joint3:44.677063,roll30,enci4:0,joint4:0.000000,roll40,enci5:0,joint5:0.000000,roll50
time:3834.536669080;enci0:-60,joint0:-0.003815,roll00,enci1:14,joint1:0.000469,roll10,enci2:552690,joint2:-227.445297,roll20,enci3:44326,joint3:44.677063,roll30,enci4:0,joint4:0.000000,roll40,enci5:0,joint5:0.000000,roll50
time:3834.537575060;enci0:-60,joint0:-0.003815,roll00,enci1:14,joint1:0.000469,roll10,enci2:552690,joint2:-227.445297,roll20,enci3:44326,joint3:44.677063,roll30,enci4:0,joint4:0.000000,roll40,enci5:0,joint5:0.000000,roll50
time:3834.540668470;enci0:-60,joint0:-0.003815,roll00,enci1:14,joint1:0.000469,roll10,enci2:552690,joint2:-227.445297,roll20,enci3:44326,joint3:44.677063,roll30,enci4:0,joint4:0.000000,roll40,enci5:0,joint5:0.000000,roll50
time:3834.541537574;enci0:-60,joint0:-0.003815,roll00,enci1:14,joint1:0.000469,roll10,enci2:552690,joint2:-227.445297,roll20,enci3:44326,joint3:44.677063,roll30,enci4:0,joint4:0.000000,roll40,enci5:0,joint5:0.000000,roll50
time:3834.544669536;enci0:-60,joint0:-0.003815,roll00,enci1:14,joint1:0.000469,roll10,enci2:552690,joint2:-227.445297,roll20,enci3:44326,joint3:44.677063,roll30,enci4:0,joint4:0.000000,roll40,enci5:0,joint5:0.000000,roll50
time:3834.545540316;enci0:-60,joint0:-0.003815,roll00,enci1:14,joint1:0.000469,roll10,enci2:552690,joint2:-227.445297,roll20,enci3:44326,joint3:44.677063,roll30,enci4:0,joint4:0.000000,roll40,enci5:0,joint5:0.000000,roll50
time:3834.548667249;enci0:-60,joint0:-0.003815,roll00,enci1:14,joint1:0.000469,roll10,enci2:552690,joint2:-227.445297,roll20,enci3:44326,joint3:44.677063,roll30,enci4:0,joint4:0.000000,roll40,enci5:0,joint5:0.000000,roll50
time:3834.549546411;enci0:-60,joint0:-0.003815,roll00,enci1:14,joint1:0.000469,roll10,enci2:552690,joint2:-227.445297,roll20,enci3:44326,joint3:44.677063,roll30,enci4:0,joint4:0.000000,roll40,enci5:0,joint5:0.000000,roll50
time:3834.552668315;enci0:-60,joint0:-0.003815,roll00,enci1:14,joint1:0.000469,roll10,enci2:552690,joint2:-227.445297,roll20,enci3:44326,joint3:44.677063,roll30,enci4:0,joint4:0.000000,roll40,enci5:0,joint5:0.000000,roll50
time:3834.553538258;enci0:-60,joint0:-0.003815,roll00,enci1:14,joint1:0.000469,roll10,enci2:552690,joint2:-227.445297,roll20,enci3:44326,joint3:44.677063,roll30,enci4:0,joint4:0.000000,roll40,enci5:0,joint5:0.000000,roll50
time:3834.556666029;enci0:-60,joint0:-0.003815,roll00,enci1:14,joint1:0.000469,roll10,enci2:552690,joint2:-227.445297,roll20,enci3:44326,joint3:44.677063,roll30,enci4:0,joint4:0.000000,roll40,enci5:0,joint5:0.000000,roll50
time:3834.557530943;enci0:-60,joint0:-0.003815,roll00,enci1:14,joint1:0.000469,roll10,enci2:552690,joint2:-227.445297,roll20,enci3:44326,joint3:44.677063,roll30,enci4:0,joint4:0.000000,roll40,enci5:0,joint5:0.000000,roll50
time:3834.560667095;enci0:-60,joint0:-0.003815,roll00,enci1:14,joint1:0.000469,roll10,enci2:552690,joint2:-227.445297,roll20,enci3:44326,joint3:44.677063,roll30,enci4:0,joint4:0.000000,roll40,enci5:0,joint5:0.000000,roll50
time:3834.561536200;enci0:-60,joint0:-0.003815,roll00,enci1:14,joint1:0.000469,roll10,enci2:552690,joint2:-227.445297,roll20,enci3:44326,joint3:44.677063,roll30,enci4:0,joint4:0.000000,roll40,enci5:0,joint5:0.000000,roll50
time:3834.564665647;enci0:-60,joint0:-0.003815,roll00,enci1:14,joint1:0.000469,roll10,enci2:552690,joint2:-227.445297,roll20,enci3:44326,joint3:44.677063,roll30,enci4:0,joint4:0.000000,roll40,enci5:0,joint5:0.000000,roll50
time:3834.565529723;enci0:-60,joint0:-0.003815,roll00,enci1:14,joint1:0.000469,roll10,enci2:552690,joint2:-227.445297,roll20,enci3:44326,joint3:44.677063,roll30,enci4:0,joint4:0.000000,roll40,enci5:0,joint5:0.000000,roll50
time:3834.568667551;enci0:-60,joint0:-0.003815,roll00,enci1:14,joint1:0.000469,roll10,enci2:552690,joint2:-227.445297,roll20,enci3:44326,joint3:44.677063,roll30,enci4:0,joint4:0.000000,roll40,enci5:0,joint5:0.000000,roll50
time:3834.569539170;enci0:-60,joint0:-0.003815,roll00,enci1:14,joint1:0.000469,roll10,enci2:552690,joint2:-227.445297,roll20,enci3:44326,joint3:44.677063,roll30,enci4:0,joint4:0.000000,roll40,enci5:0,joint5:0.000000,roll50
time:3834.572671970;enci0:-60,joint0:-0.003815,roll00,enci1:14,joint1:0.000469,roll10,enci2:552690,joint2:-227.445297,roll20,enci3:44326,joint3:44.677063,roll30,enci4:0,joint4:0.000000,roll40,enci5:0,joint5:0.000000,roll50
time:3834.573571246;enci0:-60,joint0:-0.003815,roll00,enci1:14,joint1:0.000469,roll10,enci2:552690,joint2:-227.445297,roll20,enci3:44326,joint3:44.677063,roll30,enci4:0,joint4:0.000000,roll40,enci5:0,joint5:0.000000,roll50
time:3834.576668007;enci0:-60,joint0:-0.003815,roll00,enci1:14,joint1:0.000469,roll10,enci2:552690,joint2:-227.445297,roll20,enci3:44326,joint3:44.677063,roll30,enci4:0,joint4:0.000000,roll40,enci5:0,joint5:0.000000,roll50
time:3834.577547169;enci0:-60,joint0:-0.003815,roll00,enci1:14,joint1:0.000469,roll10,enci2:552690,joint2:-227.445297,roll20,enci3:44326,joint3:44.677063,roll30,enci4:0,joint4:0.000000,roll40,enci5:0,joint5:0.000000,roll50
time:3834.580665721;enci0:-60,joint0:-0.003815,roll00,enci1:14,joint1:0.000469,roll10,enci2:552690,joint2:-227.445297,roll20,enci3:44326,joint3:44.677063,roll30,enci4:0,joint4:0.000000,roll40,enci5:0,joint5:0.000000,roll50
time:3834.581541530;enci0:-60,joint0:-0.003815,roll00,enci1:14,joint1:0.000469,roll10,enci2:552690,joint2:-227.445297,roll20,enci3:44326,joint3:44.677063,roll30,enci4:0,joint4:0.000000,roll40,enci5:0,joint5:0.000000,roll50
time:3834.584665949;enci0:-60,joint0:-0.003815,roll00,enci1:14,joint1:0.000469,roll10,enci2:552690,joint2:-227.445297,roll20,enci3:44326,joint3:44.677063,roll30,enci4:0,joint4:0.000000,roll40,enci5:0,joint5:0.000000,roll50
time:3834.585537568;enci0:-60,joint0:-0.003815,roll00,enci1:14,joint1:0.000469,roll10,enci2:552690,joint2:-227.445297,roll20,enci3:44326,joint3:44.677063,roll30,enci4:0,joint4:0.000000,roll40,enci5:0,joint5:0.000000,roll50
time:3834.588666177;enci0:-60,joint0:-0.003815,roll00,enci1:14,joint1:0.000469,roll10,enci2:552690,joint2:-227.445297,roll20,enci3:44326,joint3:44.677063,roll30,enci4:0,joint4:0.000000,roll40,enci5:0,joint5:0.000000,roll50
time:3834.589541986;enci0:-60,joint0:-0.003815,roll00,enci1:14,joint1:0.000469,roll10,enci2:552690,joint2:-227.445297,roll20,enci3:44326,joint3:44.677063,roll30,enci4:0,joint4:0.000000,roll40,enci5:0,joint5:0.000000,roll50
time:3834.592667243;enci0:-60,joint0:-0.003815,roll00,enci1:14,joint1:0.000469,roll10,enci2:552690,joint2:-227.445297,roll20,enci3:44326,joint3:44.677063,roll30,enci4:0,joint4:0.000000,roll40,enci5:0,joint5:0.000000,roll50
time:3834.593574900;enci0:-60,joint0:-0.003815,roll00,enci1:14,joint1:0.000469,roll10,enci2:552690,joint2:-227.445297,roll20,enci3:44326,joint3:44.677063,roll30,enci4:0,joint4:0.000000,roll40,enci5:0,joint5:0.000000,roll50
time:3834.596665795;enci0:-60,joint0:-0.003815,roll00,enci1:14,joint1:0.000469,roll10,enci2:552690,joint2:-227.445297,roll20,enci3:44326,joint3:44.677063,roll30,enci4:0,joint4:0.000000,roll40,enci5:0,joint5:0.000000,roll50
time:3834.597539090;enci0:-60,joint0:-0.003815,roll00,enci1:14,joint1:0.000469,roll10,enci2:552690,joint2:-227.445297,roll20,enci3:44326,joint3:44.677063,roll30,enci4:0,joint4:0.000000,roll40,enci5:0,joint5:0.000000,roll50
time:3834.600666023;enci0:-60,joint0:-0.003815,roll00,enci1:14,joint1:0.000469,roll10,enci2:552690,joint2:-227.445297,roll20,enci3:44326,joint3:44.677063,roll30,enci4:0,joint4:0.000000,roll40,enci5:0,joint5:0.000000,roll50
time:3834.601535966;enci0:-60,joint0:-0.003815,roll00,enci1:14,joint1:0.000469,roll10,enci2:552690,joint2:-227.445297,roll20,enci3:44326,joint3:44.677063,roll30,enci4:0,joint4:0.000000,roll40,enci5:0,joint5:0.000000,roll50
time:3834.604665413;enci0:-60,joint0:-0.003815,roll00,enci1:14,joint1:0.000469,roll10,enci2:552690,joint2:-227.445297,roll20,enci3:44326,joint3:44.677063,roll30,enci4:0,joint4:0.000000,roll40,enci5:0,joint5:0.000000,roll50
time:3834.605534517;enci0:-60,joint0:-0.003815,roll00,enci1:14,joint1:0.000469,roll10,enci2:552690,joint2:-227.445297,roll20,enci3:44326,joint3:44.677063,roll30,enci4:0,joint4:0.000000,roll40,enci5:0,joint5:0.000000,roll50
time:3834.608666479;enci0:-60,joint0:-0.003815,roll00,enci1:14,joint1:0.000469,roll10,enci2:552690,joint2:-227.445297,roll20,enci3:44326,joint3:44.677063,roll30,enci4:0,joint4:0.000000,roll40,enci5:0,joint5:0.000000,roll50
time:3834.609535584;enci0:-60,joint0:-0.003815,roll00,enci1:14,joint1:0.000469,roll10,enci2:552690,joint2:-227.445297,roll20,enci3:44326,joint3:44.677063,roll30,enci4:0,joint4:0.000000,roll40,enci5:0,joint5:0.000000,roll50
time:3834.612664193;enci0:-60,joint0:-0.003815,roll00,enci1:14,joint1:0.000469,roll10,enci2:552690,joint2:-227.445297,roll20,enci3:44326,joint3:44.677063,roll30,enci4:0,joint4:0.000000,roll40,enci5:0,joint5:0.000000,roll50
time:3834.613530782;enci0:-60,joint0:-0.003815,roll00,enci1:14,joint1:0.000469,roll10,enci2:552690,joint2:-227.445297,roll20,enci3:44326,joint3:44.677063,roll30,enci4:0,joint4:0.000000,roll40,enci5:0,joint5:0.000000,roll50
time:3834.616666096;enci0:-60,joint0:-0.003815,roll00,enci1:14,joint1:0.000469,roll10,enci2:552690,joint2:-227.445297,roll20,enci3:44326,joint3:44.677063,roll30,enci4:0,joint4:0.000000,roll40,enci5:0,joint5:0.000000,roll50
time:3834.617534362;enci0:-60,joint0:-0.003815,roll00,enci1:14,joint1:0.000469,roll10,enci2:552690,joint2:-227.445297,roll20,enci3:44326,joint3:44.677063,roll30,enci4:0,joint4:0.000000,roll40,enci5:0,joint5:0.000000,roll50
time:3834.620664648;enci0:-60,joint0:-0.003815,roll00,enci1:14,joint1:0.000469,roll10,enci2:552690,joint2:-227.445297,roll20,enci3:44326,joint3:44.677063,roll30,enci4:0,joint4:0.000000,roll40,enci5:0,joint5:0.000000,roll50
time:3834.621530400;enci0:-60,joint0:-0.003815,roll00,enci1:14,joint1:0.000469,roll10,enci2:552690,joint2:-227.445297,roll20,enci3:44326,joint3:44.677063,roll30,enci4:0,joint4:0.000000,roll40,enci5:0,joint5:0.000000,roll50
time:3834.624664037;enci0:-60,joint0:-0.003815,roll00,enci1:14,joint1:0.000469,roll10,enci2:552690,joint2:-227.445297,roll20,enci3:44326,joint3:44.677063,roll30,enci4:0,joint4:0.000000,roll40,enci5:0,joint5:0.000000,roll50
time:3834.625533980;enci0:-60,joint0:-0.003815,roll00,enci1:14,joint1:0.000469,roll10,enci2:552690,joint2:-227.445297,roll20,enci3:44326,joint3:44.677063,roll30,enci4:0,joint4:0.000000,roll40,enci5:0,joint5:0.000000,roll50
time:3834.628663427;enci0:-60,joint0:-0.003815,roll00,enci1:14,joint1:0.000469,roll10,enci2:552690,joint2:-227.445297,roll20,enci3:44326,joint3:44.677063,roll30,enci4:0,joint4:0.000000,roll40,enci5:0,joint5:0.000000,roll50
time:3834.629528342;enci0:-60,joint0:-0.003815,roll00,enci1:14,joint1:0.000469,roll10,enci2:552690,joint2:-227.445297,roll20,enci3:44326,joint3:44.677063,roll30,enci4:0,joint4:0.000000,roll40,enci5:0,joint5:0.000000,roll50
time:3834.632663655;enci0:-60,joint0:-0.003815,roll00,enci1:14,joint1:0.000469,roll10,enci2:552690,joint2:-227.445297,roll20,enci3:44326,joint3:44.677063,roll30,enci4:0,joint4:0.000000,roll40,enci5:0,joint5:0.000000,roll50
time:3834.633530246;enci0:-60,joint0:-0.003815,roll00,enci1:14,joint1:0.000469,roll10,enci2:552690,joint2:-227.445297,roll20,enci3:44326,joint3:44.677063,roll30,enci4:0,joint4:0.000000,roll40,enci5:0,joint5:0.000000,roll50
time:3834.636664721;enci0:-60,joint0:-0.003815,roll00,enci1:14,joint1:0.000469,roll10,enci2:552690,joint2:-227.445297,roll20,enci3:44326,joint3:44.677063,roll30,enci4:0,joint4:0.000000,roll40,enci5:0,joint5:0.000000,roll50
time:3834.637531312;enci0:-60,joint0:-0.003815,roll00,enci1:14,joint1:0.000469,roll10,enci2:552690,joint2:-227.445297,roll20,enci3:44326,joint3:44.677063,roll30,enci4:0,joint4:0.000000,roll40,enci5:0,joint5:0.000000,roll50
time:3834.640664111;enci0:-60,joint0:-0.003815,roll00,enci1:14,joint1:0.000469,roll10,enci2:552690,joint2:-227.445297,roll20,enci3:44326,joint3:44.677063,roll30,enci4:0,joint4:0.000000,roll40,enci5:0,joint5:0.000000,roll50
time:3834.641532378;enci0:-60,joint0:-0.003815,roll00,enci1:14,joint1:0.000469,roll10,enci2:552690,joint2:-227.445297,roll20,enci3:44326,joint3:44.677063,roll30,enci4:0,joint4:0.000000,roll40,enci5:0,joint5:0.000000,roll50
time:3834.644663501;enci0:-60,joint0:-0.003815,roll00,enci1:14,joint1:0.000469,roll10,enci2:552690,joint2:-227.445297,roll20,enci3:44326,joint3:44.677063,roll30,enci4:0,joint4:0.000000,roll40,enci5:0,joint5:0.000000,roll50
time:3834.645533444;enci0:-60,joint0:-0.003815,roll00,enci1:14,joint1:0.000469,roll10,enci2:552690,joint2:-227.445297,roll20,enci3:44326,joint3:44.677063,roll30,enci4:0,joint4:0.000000,roll40,enci5:0,joint5:0.000000,roll50
time:3834.648663729;enci0:-60,joint0:-0.003815,roll00,enci1:14,joint1:0.000469,roll10,enci2:552690,joint2:-227.445297,roll20,enci3:44326,joint3:44.677063,roll30,enci4:0,joint4:0.000000,roll40,enci5:0,joint5:0.000000,roll50
time:3834.649572224;enci0:-60,joint0:-0.003815,roll00,enci1:14,joint1:0.000469,roll10,enci2:552690,joint2:-227.445297,roll20,enci3:44326,joint3:44.677063,roll30,enci4:0,joint4:0.000000,roll40,enci5:0,joint5:0.000000,roll50
time:3834.652663119;enci0:-60,joint0:-0.003815,roll00,enci1:14,joint1:0.000469,roll10,enci2:552690,joint2:-227.445297,roll20,enci3:44326,joint3:44.677063,roll30,enci4:0,joint4:0.000000,roll40,enci5:0,joint5:0.000000,roll50
time:3834.653532224;enci0:-60,joint0:-0.003815,roll00,enci1:14,joint1:0.000469,roll10,enci2:552690,joint2:-227.445297,roll20,enci3:44326,joint3:44.677063,roll30,enci4:0,joint4:0.000000,roll40,enci5:0,joint5:0.000000,roll50
time:3834.656665023;enci0:-60,joint0:-0.003815,roll00,enci1:14,joint1:0.000469,roll10,enci2:552690,joint2:-227.445297,roll20,enci3:44326,joint3:44.677063,roll30,enci4:0,joint4:0.000000,roll40,enci5:0,joint5:0.000000,roll50
time:3834.657534966;enci0:-60,joint0:-0.003815,roll00,enci1:14,joint1:0.000469,roll10,enci2:552690,joint2:-227.445297,roll20,enci3:44326,joint3:44.677063,roll30,enci4:0,joint4:0.000000,roll40,enci5:0,joint5:0.000000,roll50
time:3834.660662737;enci0:-60,joint0:-0.003815,roll00,enci1:14,joint1:0.000469,roll10,enci2:552690,joint2:-227.445297,roll20,enci3:44326,joint3:44.677063,roll30,enci4:0,joint4:0.000000,roll40,enci5:0,joint5:0.000000,roll50
time:3834.661529327;enci0:-60,joint0:-0.003815,roll00,enci1:14,joint1:0.000469,roll10,enci2:552690,joint2:-227.445297,roll20,enci3:44326,joint3:44.677063,roll30,enci4:0,joint4:0.000000,roll40,enci5:0,joint5:0.000000,roll50
time:3834.664662965;enci0:-60,joint0:-0.003815,roll00,enci1:14,joint1:0.000469,roll10,enci2:552690,joint2:-227.445297,roll20,enci3:44326,joint3:44.677063,roll30,enci4:0,joint4:0.000000,roll40,enci5:0,joint5:0.000000,roll50
time:3834.665533746;enci0:-60,joint0:-0.003815,roll00,enci1:14,joint1:0.000469,roll10,enci2:552690,joint2:-227.445297,roll20,enci3:44326,joint3:44.677063,roll30,enci4:0,joint4:0.000000,roll40,enci5:0,joint5:0.000000,roll50
time:3834.668661517;enci0:-60,joint0:-0.003815,roll00,enci1:14,joint1:0.000469,roll10,enci2:552690,joint2:-227.445297,roll20,enci3:44326,joint3:44.677063,roll30,enci4:0,joint4:0.000000,roll40,enci5:0,joint5:0.000000,roll50
time:3834.669527269;enci0:-60,joint0:-0.003815,roll00,enci1:14,joint1:0.000469,roll10,enci2:552690,joint2:-227.445297,roll20,enci3:44326,joint3:44.677063,roll30,enci4:0,joint4:0.000000,roll40,enci5:0,joint5:0.000000,roll50
time:3834.672663421;enci0:-60,joint0:-0.003815,roll00,enci1:14,joint1:0.000469,roll10,enci2:552690,joint2:-227.445297,roll20,enci3:44326,joint3:44.677063,roll30,enci4:0,joint4:0.000000,roll40,enci5:0,joint5:0.000000,roll50
time:3834.673533364;enci0:-60,joint0:-0.003815,roll00,enci1:14,joint1:0.000469,roll10,enci2:552690,joint2:-227.445297,roll20,enci3:44326,joint3:44.677063,roll30,enci4:0,joint4:0.000000,roll40,enci5:0,joint5:0.000000,roll50
time:3834.676661973;enci0:-60,joint0:-0.003815,roll00,enci1:14,joint1:0.000469,roll10,enci2:552690,joint2:-227.445297,roll20,enci3:44326,joint3:44.677063,roll30,enci4:0,joint4:0.000000,roll40,enci5:0,joint5:0.000000,roll50
time:3834.677526049;enci0:-60,joint0:-0.003815,roll00,enci1:14,joint1:0.000469,roll10,enci2:552690,joint2:-227.445297,roll20,enci3:44326,joint3:44.677063,roll30,enci4:0,joint4:0.000000,roll40,enci5:0,joint5:0.000000,roll50
time:3834.680663039;enci0:-60,joint0:-0.003815,roll00,enci1:14,joint1:0.000469,roll10,enci2:552690,joint2:-227.445297,roll20,enci3:44326,joint3:44.677063,roll30,enci4:0,joint4:0.000000,roll40,enci5:0,joint5:0.000000,roll50
time:3834.681531306;enci0:-60,joint0:-0.003815,roll00,enci1:14,joint1:0.000469,roll10,enci2:552690,joint2:-227.445297,roll20,enci3:44326,joint3:44.677063,roll30,enci4:0,joint4:0.000000,roll40,enci5:0,joint5:0.000000,roll50
time:3834.684661591;enci0:-60,joint0:-0.003815,roll00,enci1:14,joint1:0.000469,roll10,enci2:552690,joint2:-227.445297,roll20,enci3:44326,joint3:44.677063,roll30,enci4:0,joint4:0.000000,roll40,enci5:0,joint5:0.000000,roll50
time:3834.685525667;enci0:-60,joint0:-0.003815,roll00,enci1:14,joint1:0.000469,roll10,enci2:552690,joint2:-227.445297,roll20,enci3:44326,joint3:44.677063,roll30,enci4:0,joint4:0.000000,roll40,enci5:0,joint5:0.000000,roll50
time:3834.688660981;enci0:-60,joint0:-0.003815,roll00,enci1:14,joint1:0.000469,roll10,enci2:552690,joint2:-227.445297,roll20,enci3:44326,joint3:44.677063,roll30,enci4:0,joint4:0.000000,roll40,enci5:0,joint5:0.000000,roll50
time:3834.689528409;enci0:-60,joint0:-0.003815,roll00,enci1:14,joint1:0.000469,roll10,enci2:552690,joint2:-227.445297,roll20,enci3:44326,joint3:44.677063,roll30,enci4:0,joint4:0.000000,roll40,enci5:0,joint5:0.000000,roll50
time:3834.692662047;enci0:-60,joint0:-0.003815,roll00,enci1:14,joint1:0.000469,roll10,enci2:552690,joint2:-227.445297,roll20,enci3:44326,joint3:44.677063,roll30,enci4:0,joint4:0.000000,roll40,enci5:0,joint5:0.000000,roll50
time:3834.693531151;enci0:-60,joint0:-0.003815,roll00,enci1:14,joint1:0.000469,roll10,enci2:552690,joint2:-227.445297,roll20,enci3:44326,joint3:44.677063,roll30,enci4:0,joint4:0.000000,roll40,enci5:0,joint5:0.000000,roll50
time:3834.696663113;enci0:-60,joint0:-0.003815,roll00,enci1:14,joint1:0.000469,roll10,enci2:552690,joint2:-227.445297,roll20,enci3:44326,joint3:44.677063,roll30,enci4:0,joint4:0.000000,roll40,enci5:0,joint5:0.000000,roll50
time:3834.697533056;enci0:-60,joint0:-0.003815,roll00,enci1:14,joint1:0.000469,roll10,enci2:552690,joint2:-227.445297,roll20,enci3:44326,joint3:44.677063,roll30,enci4:0,joint4:0.000000,roll40,enci5:0,joint5:0.000000,roll50
time:3834.700661665;enci0:-60,joint0:-0.003815,roll00,enci1:14,joint1:0.000469,roll10,enci2:552690,joint2:-227.445297,roll20,enci3:44326,joint3:44.677063,roll30,enci4:0,joint4:0.000000,roll40,enci5:0,joint5:0.000000,roll50
time:3834.701528255;enci0:-60,joint0:-0.003815,roll00,enci1:14,joint1:0.000469,roll10,enci2:552690,joint2:-227.445297,roll20,enci3:44326,joint3:44.677063,roll30,enci4:0,joint4:0.000000,roll40,enci5:0,joint5:0.000000,roll50
time:3834.704661893;enci0:-60,joint0:-0.003815,roll00,enci1:14,joint1:0.000469,roll10,enci2:552690,joint2:-227.445297,roll20,enci3:44326,joint3:44.677063,roll30,enci4:0,joint4:0.000000,roll40,enci5:0,joint5:0.000000,roll50
time:3834.705567874;enci0:-60,joint0:-0.003815,roll00,enci1:14,joint1:0.000469,roll10,enci2:552690,joint2:-227.445297,roll20,enci3:44326,joint3:44.677063,roll30,enci4:0,joint4:0.000000,roll40,enci5:0,joint5:0.000000,roll50
time:3834.708660445;enci0:-60,joint0:-0.003815,roll00,enci1:14,joint1:0.000469,roll10,enci2:552690,joint2:-227.445297,roll20,enci3:44326,joint3:44.677063,roll30,enci4:0,joint4:0.000000,roll40,enci5:0,joint5:0.000000,roll50
time:3834.709527872;enci0:-60,joint0:-0.003815,roll00,enci1:14,joint1:0.000469,roll10,enci2:552690,joint2:-227.445297,roll20,enci3:44326,joint3:44.677063,roll30,enci4:0,joint4:0.000000,roll40,enci5:0,joint5:0.000000,roll50
time:3834.712661510;enci0:-60,joint0:-0.003815,roll00,enci1:14,joint1:0.000469,roll10,enci2:552690,joint2:-227.445297,roll20,enci3:44326,joint3:44.677063,roll30,enci4:0,joint4:0.000000,roll40,enci5:0,joint5:0.000000,roll50
time:3834.713533129;enci0:-60,joint0:-0.003815,roll00,enci1:14,joint1:0.000469,roll10,enci2:552690,joint2:-227.445297,roll20,enci3:44326,joint3:44.677063,roll30,enci4:0,joint4:0.000000,roll40,enci5:0,joint5:0.000000,roll50
time:3834.716660061;enci0:-60,joint0:-0.003815,roll00,enci1:14,joint1:0.000469,roll10,enci2:552690,joint2:-227.445297,roll20,enci3:44326,joint3:44.677063,roll30,enci4:0,joint4:0.000000,roll40,enci5:0,joint5:0.000000,roll50
time:3834.717524976;enci0:-60,joint0:-0.003815,roll00,enci1:14,joint1:0.000469,roll10,enci2:552690,joint2:-227.445297,roll20,enci3:44326,joint3:44.677063,roll30,enci4:0,joint4:0.000000,roll40,enci5:0,joint5:0.000000,roll50
time:3834.720661966;enci0:-60,joint0:-0.003815,roll00,enci1:14,joint1:0.000469,roll10,enci2:552690,joint2:-227.445297,roll20,enci3:44326,joint3:44.677063,roll30,enci4:0,joint4:0.000000,roll40,enci5:0,joint5:0.000000,roll50
time:3834.721531070;enci0:-60,joint0:-0.003815,roll00,enci1:14,joint1:0.000469,roll10,enci2:552690,joint2:-227.445297,roll20,enci3:44326,joint3:44.677063,roll30,enci4:0,joint4:0.000000,roll40,enci5:0,joint5:0.000000,roll50
time:3834.724659679;enci0:-60,joint0:-0.003815,roll00,enci1:14,joint1:0.000469,roll10,enci2:552690,joint2:-227.445297,roll20,enci3:44326,joint3:44.677063,roll30,enci4:0,joint4:0.000000,roll40,enci5:0,joint5:0.000000,roll50
time:3834.725526270;enci0:-60,joint0:-0.003815,roll00,enci1:14,joint1:0.000469,roll10,enci2:552690,joint2:-227.445297,roll20,enci3:44326,joint3:44.677063,roll30,enci4:0,joint4:0.000000,roll40,enci5:0,joint5:0.000000,roll50
time:3834.728660745;enci0:-60,joint0:-0.003815,roll00,enci1:14,joint1:0.000469,roll10,enci2:552690,joint2:-227.445297,roll20,enci3:44326,joint3:44.677063,roll30,enci4:0,joint4:0.000000,roll40,enci5:0,joint5:0.000000,roll50
time:3834.729532364;enci0:-60,joint0:-0.003815,roll00,enci1:14,joint1:0.000469,roll10,enci2:552690,joint2:-227.445297,roll20,enci3:44326,joint3:44.677063,roll30,enci4:0,joint4:0.000000,roll40,enci5:0,joint5:0.000000,roll50
time:3834.732659297;enci0:-60,joint0:-0.003815,roll00,enci1:14,joint1:0.000469,roll10,enci2:552690,joint2:-227.445297,roll20,enci3:44326,joint3:44.677063,roll30,enci4:0,joint4:0.000000,roll40,enci5:0,joint5:0.000000,roll50
time:3834.733525050;enci0:-60,joint0:-0.003815,roll00,enci1:14,joint1:0.000469,roll10,enci2:552690,joint2:-227.445297,roll20,enci3:44326,joint3:44.677063,roll30,enci4:0,joint4:0.000000,roll40,enci5:0,joint5:0.000000,roll50
time:3834.736659525;enci0:-60,joint0:-0.003815,roll00,enci1:14,joint1:0.000469,roll10,enci2:552690,joint2:-227.445297,roll20,enci3:44326,joint3:44.677063,roll30,enci4:0,joint4:0.000000,roll40,enci5:0,joint5:0.000000,roll50
time:3834.737530306;enci0:-60,joint0:-0.003815,roll00,enci1:14,joint1:0.000469,roll10,enci2:552690,joint2:-227.445297,roll20,enci3:44326,joint3:44.677063,roll30,enci4:0,joint4:0.000000,roll40,enci5:0,joint5:0.000000,roll50
time:3834.740658915;enci0:-60,joint0:-0.003815,roll00,enci1:14,joint1:0.000469,roll10,enci2:552690,joint2:-227.445297,roll20,enci3:44326,joint3:44.677063,roll30,enci4:0,joint4:0.000000,roll40,enci5:0,joint5:0.000000,roll50
time:3834.741528858;enci0:-60,joint0:-0.003815,roll00,enci1:14,joint1:0.000469,roll10,enci2:552690,joint2:-227.445297,roll20,enci3:44326,joint3:44.677063,roll30,enci4:0,joint4:0.000000,roll40,enci5:0,joint5:0.000000,roll50
time:3834.744659981;enci0:-60,joint0:-0.003815,roll00,enci1:14,joint1:0.000469,roll10,enci2:552690,joint2:-227.445297,roll20,enci3:44326,joint3:44.677063,roll30,enci4:0,joint4:0.000000,roll40,enci5:0,joint5:0.000000,roll50
time:3834.745530762;enci0:-60,joint0:-0.003815,roll00,enci1:14,joint1:0.000469,roll10,enci2:552690,joint2:-227.445297,roll20,enci3:44326,joint3:44.677063,roll30,enci4:0,joint4:0.000000,roll40,enci5:0,joint5:0.000000,roll50
time:3834.748658533;enci0:-60,joint0:-0.003815,roll00,enci1:14,joint1:0.000469,roll10,enci2:552690,joint2:-227.445297,roll20,enci3:44326,joint3:44.677063,roll30,enci4:0,joint4:0.000000,roll40,enci5:0,joint5:0.000000,roll50
