heyhilz/my_project-----/2024-09-18-14-50-44/out.txt
time:255.723484667:enco0:451821,joint0:1.9153788189470195e-39;enco1:552836,joint1:1.374097859833808e-39;enco2:0,joint2:0.0;enco3:0,joint3:0.0;enco4:0,joint4:28.726051330566406;enco5:1110922535,joint5:-227.4999542236328;
time:255.727480704:enco0:452992,joint0:1.9203408168091936e-39;enco1:552836,joint1:1.3776585592316574e-39;enco2:0,joint2:0.0;enco3:0,joint3:0.0;enco4:0,joint4:28.800472259521484;enco5:1110953661,joint5:-227.4999542236328;
time:255.731480932:enco0:454162,joint0:1.9253028146713678e-39;enco1:552836,joint1:1.3812178573310424e-39;enco2:0,joint2:0.0;enco3:0,joint3:0.0;enco4:0,joint4:28.87489128112793;enco5:1110984788,joint5:-227.4999542236328;
time:255.735476132:enco0:455333,joint0:1.930264812533542e-39;enco1:552836,joint1:1.3847785567288918e-39;enco2:0,joint2:0.0;enco3:0,joint3:0.0;enco4:0,joint4:28.949312210083008;enco5:1111015914,joint5:-227.4999542236328;
time:255.739475522:enco0:456503,joint0:1.9352268103957162e-39;enco1:552836,joint1:1.3883378548282768e-39;enco2:0,joint2:0.0;enco3:0,joint3:0.0;enco4:0,joint4:29.023731231689453;enco5:1111047041,joint5:-227.4999542236328;
time:255.743471559:enco0:457674,joint0:1.9401888082578903e-39;enco1:552836,joint1:1.3918971529276619e-39;enco2:0,joint2:0.0;enco3:0,joint3:0.0;enco4:0,joint4:29.09815216064453;enco5:1111078168,joint5:-227.4999542236328;
time:255.747470111:enco0:458844,joint0:1.9451508061200645e-39;enco1:552836,joint1:1.3954578523255112e-39;enco2:0,joint2:0.0;enco3:0,joint3:0.0;enco4:0,joint4:29.172571182250977;enco5:1111109294,joint5:-227.4999542236328;
time:255.751466986:enco0:460015,joint0:1.9501128039822387e-39;enco1:552836,joint1:1.3990171504248963e-39;enco2:0,joint2:0.0;enco3:0,joint3:0.0;enco4:0,joint4:29.246990203857422;enco5:1111140421,joint5:-227.4999542236328;
time:255.755469728:enco0:461185,joint0:1.955074801844413e-39;enco1:552836,joint1:1.4025764485242813e-39;enco2:0,joint2:0.0;enco3:0,joint3:0.0;enco4:0,joint4:29.3214111328125;enco5:1111171548,joint5:-227.4999542236328;
time:255.759464927:enco0:462356,joint0:1.960036799706587e-39;enco1:552836,joint1:1.4061371479221307e-39;enco2:0,joint2:0.0;enco3:0,joint3:0.0;enco4:0,joint4:29.395830154418945;enco5:1111202674,joint5:-227.4999542236328;
time:255.763462641:enco0:463526,joint0:1.9650001988672256e-39;enco1:552836,joint1:1.4096964460215157e-39;enco2:0,joint2:0.0;enco3:0,joint3:0.0;enco4:0,joint4:29.470251083374023;enco5:1111233801,joint5:-227.4999542236328;
time:255.767479631:enco0:464697,joint0:1.9699621967293997e-39;enco1:552836,joint1:1.413257145419365e-39;enco2:0,joint2:0.0;enco3:0,joint3:0.0;enco4:0,joint4:29.54467010498047;enco5:1111264927,joint5:-227.4999542236328;
time:255.771475669:enco0:465867,joint0:1.974924194591574e-39;enco1:552836,joint1:1.4168164435187501e-39;enco2:0,joint2:0.0;enco3:0,joint3:0.0;enco4:0,joint4:29.61908721923828;enco5:1111296053,joint5:-227.4999542236328;
time:255.775475059:enco0:467038,joint0:1.9798847911552838e-39;enco1:552836,joint1:1.4203757416181351e-39;enco2:0,joint2:0.0;enco3:0,joint3:0.0;enco4:0,joint4:29.693496704101562;enco5:1111327175,joint5:-227.4999542236328;
time:255.779471934:enco0:468208,joint0:1.9848453877189936e-39;enco1:552836,joint1:1.4239350397175202e-39;enco2:0,joint2:0.0;enco3:0,joint3:0.0;enco4:0,joint4:29.767898559570312;enco5:1111358294,joint5:-227.4999542236328;
time:255.783468810:enco0:469378,joint0:1.9898059842827035e-39;enco1:552836,joint1:1.4274929365184409e-39;enco2:0,joint2:0.0;enco3:0,joint3:0.0;enco4:0,joint4:29.842287063598633;enco5:1111389408,joint5:-227.4999542236328;
time:255.787467362:enco0:470548,joint0:1.994765179547949e-39;enco1:552836,joint1:1.4310508333193616e-39;enco2:0,joint2:0.0;enco3:0,joint3:0.0;enco4:0,joint4:29.916662216186523;enco5:1111420516,joint5:-227.4999542236328;
time:255.791465913:enco0:471717,joint0:1.9997229735147302e-39;enco1:552836,joint1:1.434607328821818e-39;enco2:0,joint2:0.0;enco3:0,joint3:0.0;enco4:0,joint4:29.991018295288086;enco5:1111451616,joint5:-227.4999542236328;
time:255.795464465:enco0:472887,joint0:2.004679366183047e-39;enco1:552836,joint1:1.4381638243242744e-39;enco2:0,joint2:0.0;enco3:0,joint3:0.0;enco4:0,joint4:30.06535530090332;enco5:1111482708,joint5:-227.4999542236328;
time:255.799461341:enco0:474055,joint0:2.0096343575528996e-39;enco1:552836,joint1:1.4417175172298021e-39;enco2:0,joint2:0.0;enco3:0,joint3:0.0;enco4:0,joint4:30.139667510986328;enco5:1111513789,joint5:-227.4999542236328;
time:255.803459055:enco0:475224,joint0:2.014587947624288e-39;enco1:552836,joint1:1.4452712101353298e-39;enco2:0,joint2:0.0;enco3:0,joint3:0.0;enco4:0,joint4:30.213953018188477;enco5:1111544860,joint5:-227.4999542236328;
time:255.807455930:enco0:476392,joint0:2.0195387350987474e-39;enco1:552836,joint1:1.4488235017423932e-39;enco2:0,joint2:0.0;enco3:0,joint3:0.0;enco4:0,joint4:30.2882080078125;enco5:1111575917,joint5:-227.4999542236328;
time:255.811453644:enco0:477559,joint0:2.0244881212747427e-39;enco1:552836,joint1:1.4523743920509923e-39;enco2:0,joint2:0.0;enco3:0,joint3:0.0;enco4:0,joint4:30.362430572509766;enco5:1111606961,joint5:-227.4999542236328;
time:255.815453034:enco0:478726,joint0:2.0294347048538093e-39;enco1:552836,joint1:1.4559224797626628e-39;enco2:0,joint2:0.0;enco3:0,joint3:0.0;enco4:0,joint4:30.436616897583008;enco5:1111637991,joint5:-227.4999542236328;
time:255.819450747:enco0:479892,joint0:2.0343784858359473e-39;enco1:552836,joint1:1.4594691661758689e-39;enco2:0,joint2:0.0;enco3:0,joint3:0.0;enco4:0,joint4:30.510765075683594;enco5:1111669004,joint5:-227.4999542236328;
time:255.823447623:enco0:481058,joint0:2.0393194642211566e-39;enco1:552836,joint1:1.4630144512906107e-39;enco2:0,joint2:0.0;enco3:0,joint3:0.0;enco4:0,joint4:30.584871292114258;enco5:1111699999,joint5:-227.4999542236328;
time:255.827446175:enco0:482223,joint0:2.0442576400094372e-39;enco1:552836,joint1:1.4665569338084238e-39;enco2:0,joint2:0.0;enco3:0,joint3:0.0;enco4:0,joint4:30.658931732177734;enco5:1111730976,joint5:-227.4999542236328;
time:255.831443889:enco0:483387,joint0:2.0491930132007892e-39;enco1:552836,joint1:1.4700966137293083e-39;enco2:0,joint2:0.0;enco3:0,joint3:0.0;enco4:0,joint4:30.732946395874023;enco5:1111761933,joint5:-227.4999542236328;
time:255.835441602:enco0:484550,joint0:2.0541241824967482e-39;enco1:552836,joint1:1.4736348923517285e-39;enco2:0,joint2:0.0;enco3:0,joint3:0.0;enco4:0,joint4:30.806909561157227;enco5:1111792868,joint5:-227.4999542236328;
time:255.839438478:enco0:485713,joint0:2.0590525491957786e-39;enco1:552836,joint1:1.47717036837722e-39;enco2:0,joint2:0.0;enco3:0,joint3:0.0;enco4:0,joint4:30.88081932067871;enco5:1111823781,joint5:-227.4999542236328;
time:255.843437868:enco0:486874,joint0:2.063976711999416e-39;enco1:552836,joint1:1.4807030418057828e-39;enco2:0,joint2:0.0;enco3:0,joint3:0.0;enco4:0,joint4:30.95467185974121;enco5:1111854671,joint5:-227.4999542236328;
time:255.847434743:enco0:488035,joint0:2.0688966709076605e-39;enco1:552836,joint1:1.484232912637417e-39;enco2:0,joint2:0.0;enco3:0,joint3:0.0;enco4:0,joint4:31.028465270996094;enco5:1111885535,joint5:-227.4999542236328;
time:255.851432457:enco0:489195,joint0:2.0738138272189763e-39;enco1:552836,joint1:1.4877599808721226e-39;enco2:0,joint2:0.0;enco3:0,joint3:0.0;enco4:0,joint4:31.102195739746094;enco5:1111916374,joint5:-227.4999542236328;
time:255.855430170:enco0:490353,joint0:2.0787253783364347e-39;enco1:552836,joint1:1.4912842465098995e-39;enco2:0,joint2:0.0;enco3:0,joint3:0.0;enco4:0,joint4:31.175859451293945;enco5:1111947185,joint5:-227.4999542236328;
time:255.859428722:enco0:491511,joint0:2.0836327255585002e-39;enco1:552836,joint1:1.4948043082522835e-39;enco2:0,joint2:0.0;enco3:0,joint3:0.0;enco4:0,joint4:31.24945640563965;enco5:1111977967,joint5:-227.4999542236328;
time:255.863427274:enco0:492667,joint0:2.0885344675867085e-39;enco1:552836,joint1:1.4983215673977388e-39;enco2:0,joint2:0.0;enco3:0,joint3:0.0;enco4:0,joint4:31.322980880737305;enco5:1112008719,joint5:-227.4999542236328;
time:255.867423311:enco0:493823,joint0:2.0934320057195237e-39;enco1:552836,joint1:1.501834622647801e-39;enco2:0,joint2:0.0;enco3:0,joint3:0.0;enco4:0,joint4:31.39643096923828;enco5:1112039440,joint5:-227.4999542236328;
time:255.871423539:enco0:494977,joint0:2.098325339956946e-39;enco1:552836,joint1:1.5053448753009347e-39;enco2:0,joint2:0.0;enco3:0,joint3:0.0;enco4:0,joint4:31.469804763793945;enco5:1112070129,joint5:-227.4999542236328;
time:255.875420415:enco0:496130,joint0:2.1032116677020466e-39;enco1:552836,joint1:1.5088509240586754e-39;enco2:0,joint2:0.0;enco3:0,joint3:0.0;enco4:0,joint4:31.5430965423584;enco5:1112100784,joint5:-227.4999542236328;
time:255.879418128:enco0:497281,joint0:2.10809239025329e-39;enco1:552836,joint1:1.512352768921023e-39;enco2:0,joint2:0.0;enco3:0,joint3:0.0;enco4:0,joint4:31.616304397583008;enco5:1112131404,joint5:-227.4999542236328;
time:255.883415842:enco0:498431,joint0:2.1129689089091403e-39;enco1:552836,joint1:1.515850409887978e-39;enco2:0,joint2:0.0;enco3:0,joint3:0.0;enco4:0,joint4:31.68942642211914;enco5:1112161988,joint5:-227.4999542236328;
time:255.887412718:enco0:499580,joint0:2.117838421072669e-39;enco1:552836,joint1:1.5193438469595397e-39;enco2:0,joint2:0.0;enco3:0,joint3:0.0;enco4:0,joint4:31.76245880126953;enco5:1112192534,joint5:-227.4999542236328;
time:255.891411270:enco0:500727,joint0:2.1227023280423405e-39;enco1:552836,joint1:1.5228330801357085e-39;enco2:0,joint2:0.0;enco3:0,joint3:0.0;enco4:0,joint4:31.835399627685547;enco5:1112223042,joint5:-227.4999542236328;
time:255.895409821:enco0:501873,joint0:2.1275592285196903e-39;enco1:552836,joint1:1.52631670811802e-39;enco2:0,joint2:0.0;enco3:0,joint3:0.0;enco4:0,joint4:31.908245086669922;enco5:1112253510,joint5:-227.4999542236328;
time:255.899407535:enco0:503017,joint0:2.1324091225047185e-39;enco1:552836,joint1:1.5297975335034028e-39;enco2:0,joint2:0.0;enco3:0,joint3:0.0;enco4:0,joint4:31.98099136352539;enco5:1112283937,joint5:-227.4999542236328;
time:255.903404411:enco0:504160,joint0:2.1372534112958894e-39;enco1:552836,joint1:1.533271352396464e-39;enco2:0,joint2:0.0;enco3:0,joint3:0.0;enco4:0,joint4:32.05363464355469;enco5:1112314321,joint5:-227.4999542236328;
time:255.907402962:enco0:505301,joint0:2.1420892922962743e-39;enco1:552836,joint1:1.5367423686925966e-39;enco2:0,joint2:0.0;enco3:0,joint3:0.0;enco4:0,joint4:32.12617874145508;enco5:1112344662,joint5:-227.4999542236328;
time:255.911401514:enco0:506440,joint0:2.146919568102802e-39;enco1:552836,joint1:1.5402063784964075e-39;enco2:0,joint2:0.0;enco3:0,joint3:0.0;enco4:0,joint4:32.198612213134766;enco5:1112374958,joint5:-227.4999542236328;
time:255.915399228:enco0:507577,joint0:2.1517414361185437e-39;enco1:552836,joint1:1.5436661844048255e-39;enco2:0,joint2:0.0;enco3:0,joint3:0.0;enco4:0,joint4:32.27093505859375;enco5:1112405207,joint5:-227.4999542236328;
time:255.919398618:enco0:508713,joint0:2.1565562976419637e-39;enco1:552836,joint1:1.5471203851193862e-39;enco2:0,joint2:0.0;enco3:0,joint3:0.0;enco4:0,joint4:32.343143463134766;enco5:1112435410,joint5:-227.4999542236328;
time:255.923393817:enco0:509847,joint0:2.1613641526730622e-39;enco1:552836,joint1:1.5505689806400896e-39;enco2:0,joint2:0.0;enco3:0,joint3:0.0;enco4:0,joint4:32.41523742675781;enco5:1112465563,joint5:-227.4999542236328;
time:255.927392369:enco0:510979,joint0:2.1661621986149103e-39;enco1:552836,joint1:1.5540119709669356e-39;enco2:0,joint2:0.0;enco3:0,joint3:0.0;enco4:0,joint4:32.48720932006836;enco5:1112495667,joint5:-227.4999542236328;
time:255.931390921:enco0:512109,joint0:2.170953238064437e-39;enco1:552836,joint1:1.5574493560999244e-39;enco2:0,joint2:0.0;enco3:0,joint3:0.0;enco4:0,joint4:32.55906295776367;enco5:1112525719,joint5:-227.4999542236328;
time:255.935388635:enco0:513237,joint0:2.1757358697231775e-39;enco1:552836,joint1:1.5608797347405916e-39;enco2:0,joint2:0.0;enco3:0,joint3:0.0;enco4:0,joint4:32.63079071044922;enco5:1112555720,joint5:-227.4999542236328;
time:255.939386348:enco0:514364,joint0:2.180510093591132e-39;enco1:552836,joint1:1.5643045081874014e-39;enco2:0,joint2:0.0;enco3:0,joint3:0.0;enco4:0,joint4:32.702388763427734;enco5:1112585666,joint5:-227.4999542236328;
time:255.943384062:enco0:515488,joint0:2.185275909668301e-39;enco1:552836,joint1:1.567723676440354e-39;enco2:0,joint2:0.0;enco3:0,joint3:0.0;enco4:0,joint4:32.77385330200195;enco5:1112615558,joint5:-227.4999542236328;
time:255.947380938:enco0:516610,joint0:2.1900319166562193e-39;enco1:552836,joint1:1.571135838200985e-39;enco2:0,joint2:0.0;enco3:0,joint3:0.0;enco4:0,joint4:32.84518814086914;enco5:1112645393,joint5:-227.4999542236328;
time:255.951377812:enco0:517730,joint0:2.1947795158533518e-39;enco1:552836,joint1:1.5745409934692942e-39;enco2:0,joint2:0.0;enco3:0,joint3:0.0;enco4:0,joint4:32.916385650634766;enco5:1112675172,joint5:-227.4999542236328;
time:255.955381393:enco0:518847,joint0:2.199517305961234e-39;enco1:552836,joint1:1.5779405435437462e-39;enco2:0,joint2:0.0;enco3:0,joint3:0.0;enco4:0,joint4:32.9874382019043;enco5:1112704891,joint5:-227.4999542236328;
time:255.959374916:enco0:519962,joint0:2.204245286979866e-39;enco1:552836,joint1:1.5813316858274123e-39;enco2:0,joint2:0.0;enco3:0,joint3:0.0;enco4:0,joint4:33.058353424072266;enco5:1112734551,joint5:-227.4999542236328;
time:255.963372630:enco0:521076,joint0:2.2089634589092476e-39;enco1:552836,joint1:1.584717222917221e-39;enco2:0,joint2:0.0;enco3:0,joint3:0.0;enco4:0,joint4:33.129119873046875;enco5:1112764150,joint5:-227.4999542236328;
time:255.967371181:enco0:522186,joint0:2.213671821749379e-39;enco1:552836,joint1:1.588095753514708e-39;enco2:0,joint2:0.0;enco3:0,joint3:0.0;enco4:0,joint4:33.199737548828125;enco5:1112793686,joint5:-227.4999542236328;
time:255.971368057:enco0:523295,joint0:2.21837037550026e-39;enco1:552836,joint1:1.5914658763214093e-39;enco2:0,joint2:0.0;enco3:0,joint3:0.0;enco4:0,joint4:33.27020263671875;enco5:1112823158,joint5:-227.4999542236328;
time:255.975364933:enco0:524400,joint0:2.223059120161891e-39;enco1:552836,joint1:1.594828992635789e-39;enco2:0,joint2:0.0;enco3:0,joint3:0.0;enco4:0,joint4:33.340511322021484;enco5:1112852566,joint5:-227.4999542236328;
time:255.979362646:enco0:525504,joint0:2.227736654435807e-39;enco1:552836,joint1:1.598185102457847e-39;enco2:0,joint2:0.0;enco3:0,joint3:0.0;enco4:0,joint4:33.41066360473633;enco5:1112881908,joint5:-227.4999542236328;
time:255.983360360:enco0:526605,joint0:2.2324029783220088e-39;enco1:552836,joint1:1.6015328044891188e-39;enco2:0,joint2:0.0;enco3:0,joint3:0.0;enco4:0,joint4:33.480655670166016;enco5:1112911182,joint5:-227.4999542236328;
time:255.987359750:enco0:527703,joint0:2.23705949311896e-39;enco1:552836,joint1:1.6048735000280692e-39;enco2:0,joint2:0.0;enco3:0,joint3:0.0;enco4:0,joint4:33.55048370361328;enco5:1112940388,joint5:-227.4999542236328;
time:255.991356626:enco0:528799,joint0:2.2417033962297326e-39;enco1:552836,joint1:1.6082043864777693e-39;enco2:0,joint2:0.0;enco3:0,joint3:0.0;enco4:0,joint4:33.62014389038086;enco5:1112969524,joint5:-227.4999542236328;
time:255.995354339:enco0:529892,joint0:2.2463374902512548e-39;enco1:552836,joint1:1.611529667733612e-39;enco2:0,joint2:0.0;enco3:0,joint3:0.0;enco4:0,joint4:33.689632415771484;enco5:1112998589,joint5:-227.4999542236328;
time:255.999353729:enco0:530982,joint0:2.250958972586598e-39;enco1:552836,joint1:1.6148451399002046e-39;enco2:0,joint2:0.0;enco3:0,joint3:0.0;enco4:0,joint4:33.758949279785156;enco5:1113027581,joint5:-227.4999542236328;
time:256.3350605:enco0:532069,joint0:2.2555692445342267e-39;enco1:552836,joint1:1.618152204276011e-39;enco2:0,joint2:0.0;enco3:0,joint3:0.0;enco4:0,joint4:33.82809066772461;enco5:1113056500,joint5:-227.4999542236328;
time:256.7348319:enco0:533154,joint0:2.2601669047956764e-39;enco1:552836,joint1:1.6214508608610318e-39;enco2:0,joint2:0.0;enco3:0,joint3:0.0;enco4:0,joint4:33.89705276489258;enco5:1113085344,joint5:-227.4999542236328;
time:256.11346870:enco0:534236,joint0:2.2647533546694115e-39;enco1:552836,joint1:1.6247411096552665e-39;enco2:0,joint2:0.0;enco3:0,joint3:0.0;enco4:0,joint4:33.96583557128906;enco5:1113114112,joint5:-227.4999542236328;
time:256.15343746:enco0:535315,joint0:2.2693271928569677e-39;enco1:552836,joint1:1.6280229506587152e-39;enco2:0,joint2:0.0;enco3:0,joint3:0.0;enco4:0,joint4:34.03443145751953;enco5:1113142803,joint5:-227.4999542236328;
time:256.19341460:enco0:536391,joint0:2.273888419358345e-39;enco1:552836,joint1:1.6312949825729136e-39;enco2:0,joint2:0.0;enco3:0,joint3:0.0;enco4:0,joint4:34.10283660888672;enco5:1113171415,joint5:-227.4999542236328;
time:256.23339173:enco0:537464,joint0:2.2784370341735433e-39;enco1:552836,joint1:1.6345572053978618e-39;enco2:0,joint2:0.0;enco3:0,joint3:0.0;enco4:0,joint4:34.17105484008789;enco5:1113199947,joint5:-227.4999542236328;
time:256.27337725:enco0:538534,joint0:2.2829730373025628e-39;enco1:552836,joint1:1.637811020432024e-39;enco2:0,joint2:0.0;enco3:0,joint3:0.0;enco4:0,joint4:34.239078521728516;enco5:1113228398,joint5:-227.4999542236328;
time:256.31336277:enco0:539600,joint0:2.287495027446939e-39;enco1:552836,joint1:1.6410564276754003e-39;enco2:0,joint2:0.0;enco3:0,joint3:0.0;enco4:0,joint4:34.30690383911133;enco5:1113256767,joint5:-227.4999542236328;
time:256.35333153:enco0:540664,joint0:2.2920044059051362e-39;enco1:552836,joint1:1.644290624531062e-39;enco2:0,joint2:0.0;enco3:0,joint3:0.0;enco4:0,joint4:34.37453079223633;enco5:1113285052,joint5:-227.4999542236328;
time:256.39330866:enco0:541725,joint0:2.2964997713786902e-39;enco1:552836,joint1:1.6475164135959377e-39;enco2:0,joint2:0.0;enco3:0,joint3:0.0;enco4:0,joint4:34.44195556640625;enco5:1113313253,joint5:-227.4999542236328;
time:256.43329418:enco0:542782,joint0:2.3009825251660653e-39;enco1:552836,joint1:1.6507309922730988e-39;enco2:0,joint2:0.0;enco3:0,joint3:0.0;enco4:0,joint4:34.50917053222656;enco5:1113341367,joint5:-227.4999542236328;
time:256.47327132:enco0:543836,joint0:2.305449864670333e-39;enco1:552836,joint1:1.653937163159474e-39;enco2:0,joint2:0.0;enco3:0,joint3:0.0;enco4:0,joint4:34.57617950439453;enco5:1113369394,joint5:-227.4999542236328;
time:256.51324846:enco0:544886,joint0:2.309903191189957e-39;enco1:552836,joint1:1.6571321236581346e-39;enco2:0,joint2:0.0;enco3:0,joint3:0.0;enco4:0,joint4:34.64297866821289;enco5:1113397333,joint5:-227.4999542236328;
time:256.55322558:enco0:545934,joint0:2.3143439060234025e-39;enco1:552836,joint1:1.660317275067545e-39;enco2:0,joint2:0.0;enco3:0,joint3:0.0;enco4:0,joint4:34.70956039428711;enco5:1113425182,joint5:-227.4999542236328;
time:256.59320272:enco0:546978,joint0:2.318767805275276e-39;enco1:552836,joint1:1.6634912160892406e-39;enco2:0,joint2:0.0;enco3:0,joint3:0.0;enco4:0,joint4:34.77592849731445;enco5:1113452939,joint5:-227.4999542236328;
time:256.63317148:enco0:548018,joint0:2.3231790928409704e-39;enco1:552836,joint1:1.666655348021686e-39;enco2:0,joint2:0.0;enco3:0,joint3:0.0;enco4:0,joint4:34.842071533203125;enco5:1113480605,joint5:-227.4999542236328;
time:256.67315700:enco0:549055,joint0:2.327573564825093e-39;enco1:552836,joint1:1.669808269566417e-39;enco2:0,joint2:0.0;enco3:0,joint3:0.0;enco4:0,joint4:34.90799331665039;enco5:1113508177,joint5:-227.4999542236328;
time:256.71313413:enco0:550088,joint0:2.3319540238245724e-39;enco1:552836,joint1:1.6729513820218975e-39;enco2:0,joint2:0.0;enco3:0,joint3:0.0;enco4:0,joint4:34.97368621826172;enco5:1113535654,joint5:-227.4999542236328;
time:256.75312803:enco0:551118,joint0:2.3363190685409442e-39;enco1:552836,joint1:1.6760832840896634e-39;enco2:0,joint2:0.0;enco3:0,joint3:0.0;enco4:0,joint4:35.03915023803711;enco5:1113563035,joint5:-227.4999542236328;
time:256.79308841:enco0:552144,joint0:2.3406686989742085e-39;enco1:552836,joint1:1.6792025744712505e-39;enco2:0,joint2:0.0;enco3:0,joint3:0.0;enco4:0,joint4:35.1043815612793;enco5:1113590319,joint5:-227.4999542236328;
time:256.83307392:enco0:553166,joint0:2.345002915124365e-39;enco1:552836,joint1:1.6823120557635872e-39;enco2:0,joint2:0.0;enco3:0,joint3:0.0;enco4:0,joint4:35.16938018798828;enco5:1113617504,joint5:-227.4999542236328;
time:256.87305106:enco0:554185,joint0:2.34932031569295e-39;enco1:552836,joint1:1.6854103266682094e-39;enco2:0,joint2:0.0;enco3:0,joint3:0.0;enco4:0,joint4:35.23413848876953;enco5:1113644589,joint5:-227.4999542236328;
time:256.91302820:enco0:555199,joint0:2.353622301978427e-39;enco1:552836,joint1:1.6884959858866527e-39;enco2:0,joint2:0.0;enco3:0,joint3:0.0;enco4:0,joint4:35.29865264892578;enco5:1113671574,joint5:-227.4999542236328;
time:256.95300534:enco0:556210,joint0:2.3579074726823324e-39;enco1:552836,joint1:1.6915704347173813e-39;enco2:0,joint2:0.0;enco3:0,joint3:0.0;enco4:0,joint4:35.3629264831543;enco5:1113698456,joint5:-227.4999542236328;
time:256.99298247:enco0:557217,joint0:2.36217722910313e-39;enco1:552836,joint1:1.6946336731603954e-39;enco2:0,joint2:0.0;enco3:0,joint3:0.0;enco4:0,joint4:35.42694854736328;enco5:1113725235,joint5:-227.4999542236328;
time:256.103296799:enco0:558220,joint0:2.3664287686438916e-39;enco1:552836,joint1:1.697682898618766e-39;enco2:0,joint2:0.0;enco3:0,joint3:0.0;enco4:0,joint4:35.49072265625;enco5:1113751908,joint5:-227.4999542236328;
time:256.107294513:enco0:559219,joint0:2.3706648939015455e-39;enco1:552836,joint1:1.7007223149878867e-39;enco2:0,joint2:0.0;enco3:0,joint3:0.0;enco4:0,joint4:35.55424499511719;enco5:1113778476,joint5:-227.4999542236328;
time:256.111293065:enco0:560214,joint0:2.3748828022791632e-39;enco1:552836,joint1:1.703747718372364e-39;enco2:0,joint2:0.0;enco3:0,joint3:0.0;enco4:0,joint4:35.61750793457031;enco5:1113804937,joint5:-227.4999542236328;
time:256.115289940:enco0:561205,joint0:2.379083895075209e-39;enco1:552836,joint1:1.7067619113691266e-39;enco2:0,joint2:0.0;enco3:0,joint3:0.0;enco4:0,joint4:35.680511474609375;enco5:1113831289,joint5:-227.4999542236328;
time:256.119287654:enco0:562192,joint0:2.3832667709912186e-39;enco1:552836,joint1:1.7097634926797104e-39;enco2:0,joint2:0.0;enco3:0,joint3:0.0;enco4:0,joint4:35.743255615234375;enco5:1113857531,joint5:-227.4999542236328;
time:256.123287044:enco0:563175,joint0:2.3874328313256563e-39;enco1:552836,joint1:1.7127524623041152e-39;enco2:0,joint2:0.0;enco3:0,joint3:0.0;enco4:0,joint4:35.80573272705078;enco5:1113883663,joint5:-227.4999542236328;
time:256.127283920:enco0:564153,joint0:2.3915806747800577e-39;enco1:552836,joint1:1.7157274189438768e-39;enco2:0,joint2:0.0;enco3:0,joint3:0.0;enco4:0,joint4:35.86793899536133;enco5:1113909682,joint5:-227.4999542236328;
time:256.131280795:enco0:565128,joint0:2.395710301354423e-39;enco1:552836,joint1:1.7186897638974595e-39;enco2:0,joint2:0.0;enco3:0,joint3:0.0;enco4:0,joint4:35.92987823486328;enco5:1113935587,joint5:-227.4999542236328;
time:256.135279347:enco0:566097,joint0:2.399821711048752e-39;enco1:552836,joint1:1.7216394971648632e-39;enco2:0,joint2:0.0;enco3:0,joint3:0.0;enco4:0,joint4:35.991539001464844;enco5:1113961378,joint5:-227.4999542236328;
time:256.139277899:enco0:567063,joint0:2.4039149038630448e-39;enco1:552836,joint1:1.724576618746088e-39;enco2:0,joint2:0.0;enco3:0,joint3:0.0;enco4:0,joint4:36.05292510986328;enco5:1113987053,joint5:-227.4999542236328;
time:256.143275612:enco0:568024,joint0:2.4079898797973013e-39;enco1:552836,joint1:1.7274997273426696e-39;enco2:0,joint2:0.0;enco3:0,joint3:0.0;enco4:0,joint4:36.11402893066406;enco5:1114012611,joint5:-227.4999542236328;
time:256.147273326:enco0:568981,joint0:2.4120452375530574e-39;enco1:552836,joint1:1.730408822954608e-39;enco2:0,joint2:0.0;enco3:0,joint3:0.0;enco4:0,joint4:36.17485046386719;enco5:1114038050,joint5:-227.4999542236328;
time:256.151271877:enco0:569933,joint0:2.4160809771303128e-39;enco1:552836,joint1:1.733303905581903e-39;enco2:0,joint2:0.0;enco3:0,joint3:0.0;enco4:0,joint4:36.23538589477539;enco5:1114063369,joint5:-227.4999542236328;
time:256.155272105:enco0:570881,joint0:2.420098499827532e-39;enco1:552836,joint1:1.736186376523019e-39;enco2:0,joint2:0.0;enco3:0,joint3:0.0;enco4:0,joint4:36.29563522338867;enco5:1114088568,joint5:-227.4999542236328;
time:256.159267304:enco0:571823,joint0:2.4240964043462508e-39;enco1:552836,joint1:1.7390534331810277e-39;enco2:0,joint2:0.0;enco3:0,joint3:0.0;enco4:0,joint4:36.355587005615234;enco5:1114113644,joint5:-227.4999542236328;
time:256.163264180:enco0:572762,joint0:2.428074690686469e-39;enco1:552836,joint1:1.7419078781528574e-39;enco2:0,joint2:0.0;enco3:0,joint3:0.0;enco4:0,joint4:36.415245056152344;enco5:1114138597,joint5:-227.4999542236328;
time:256.167261056:enco0:573695,joint0:2.4320319575497222e-39;enco1:552836,joint1:1.7447469088415795e-39;enco2:0,joint2:0.0;enco3:0,joint3:0.0;enco4:0,joint4:36.474605560302734;enco5:1114163425,joint5:-227.4999542236328;
time:256.171260446:enco0:574624,joint0:2.435969606234475e-39;enco1:552836,joint1:1.7475719265456583e-39;enco2:0,joint2:0.0;enco3:0,joint3:0.0;enco4:0,joint4:36.53366470336914;enco5:1114188127,joint5:-227.4999542236328;
time:256.175257321:enco0:575549,joint0:2.439887636740727e-39;enco1:552836,joint1:1.750382931265094e-39;enco2:0,joint2:0.0;enco3:0,joint3:0.0;enco4:0,joint4:36.59242248535156;enco5:1114212702,joint5:-227.4999542236328;
time:256.179258387:enco0:576468,joint0:2.4437846477700145e-39;enco1:552836,joint1:1.753178521701422e-39;enco2:0,joint2:0.0;enco3:0,joint3:0.0;enco4:0,joint4:36.65087127685547;enco5:1114237148,joint5:-227.4999542236328;
time:256.183254425:enco0:577382,joint0:2.447660639322337e-39;enco1:552836,joint1:1.7559600991531066e-39;enco2:0,joint2:0.0;enco3:0,joint3:0.0;enco4:0,joint4:36.709007263183594;enco5:1114261465,joint5:-227.4999542236328;
time:256.187252139:enco0:578292,joint0:2.4515170126961588e-39;enco1:552836,joint1:1.7587262623216838e-39;enco2:0,joint2:0.0;enco3:0,joint3:0.0;enco4:0,joint4:36.7668342590332;enco5:1114285650,joint5:-227.4999542236328;
time:256.191249852:enco0:579196,joint0:2.4553509652945515e-39;enco1:552836,joint1:1.7614770112071535e-39;enco2:0,joint2:0.0;enco3:0,joint3:0.0;enco4:0,joint4:36.8243408203125;enco5:1114309704,joint5:-227.4999542236328;
time:256.195245890:enco0:580096,joint0:2.4591652997144436e-39;enco1:552836,joint1:1.7642123458095155e-39;enco2:0,joint2:0.0;enco3:0,joint3:0.0;enco4:0,joint4:36.88153076171875;enco5:1114333624,joint5:-227.4999542236328;
time:256.199245280:enco0:580990,joint0:2.4629558120604423e-39;enco1:552836,joint1:1.76693226612877e-39;enco2:0,joint2:0.0;enco3:0,joint3:0.0;enco4:0,joint4:36.93840026855469;enco5:1114357409,joint5:-227.4999542236328;
time:256.203243832:enco0:581880,joint0:2.4667267062279404e-39;enco1:552836,joint1:1.769636772164917e-39;enco2:0,joint2:0.0;enco3:0,joint3:0.0;enco4:0,joint4:36.99494171142578;enco5:1114381059,joint5:-227.4999542236328;
time:256.207239869:enco0:582764,joint0:2.4704751796200092e-39;enco1:552836,joint1:1.7723258639179562e-39;enco2:0,joint2:0.0;enco3:0,joint3:0.0;enco4:0,joint4:37.05115509033203;enco5:1114404571,joint5:-227.4999542236328;
time:256.211239259:enco0:583643,joint0:2.474201232236649e-39;enco1:552836,joint1:1.774999541387888e-39;enco2:0,joint2:0.0;enco3:0,joint3:0.0;enco4:0,joint4:37.10704040527344;enco5:1114427945,joint5:-227.4999542236328;
time:256.215235296:enco0:584517,joint0:2.4779048640778594e-39;enco1:552836,joint1:1.7776564032762478e-39;enco2:0,joint2:0.0;enco3:0,joint3:0.0;enco4:0,joint4:37.16259002685547;enco5:1114451179,joint5:-227.4999542236328;
time:256.219234686:enco0:585385,joint0:2.4815860751436407e-39;enco1:552836,joint1:1.7802978508815e-39;enco2:0,joint2:0.0;enco3:0,joint3:0.0;enco4:0,joint4:37.217803955078125;enco5:1114474272,joint5:-227.4999542236328;
time:256.223234076:enco0:586248,joint0:2.4852448654339928e-39;enco1:552836,joint1:1.7829224829051805e-39;enco2:0,joint2:0.0;enco3:0,joint3:0.0;enco4:0,joint4:37.272674560546875;enco5:1114497223,joint5:-227.4999542236328;
time:256.227266990:enco0:587106,joint0:2.4888812349489157e-39;enco1:552836,joint1:1.785530299347289e-39;enco2:0,joint2:0.0;enco3:0,joint3:0.0;enco4:0,joint4:37.327205657958984;enco5:1114520031,joint5:-227.4999542236328;
time:256.231264704:enco0:587958,joint0:2.492493782389945e-39;enco1:552836,joint1:1.78812270150629e-39;enco2:0,joint2:0.0;enco3:0,joint3:0.0;enco4:0,joint4:37.38138961791992;enco5:1114542693,joint5:-227.4999542236328;
time:256.235270798:enco0:588805,joint0:2.4960839090555453e-39;enco1:552836,joint1:1.790698288083719e-39;enco2:0,joint2:0.0;enco3:0,joint3:0.0;enco4:0,joint4:37.43522644042969;enco5:1114565210,joint5:-227.4999542236328;
time:256.239267674:enco0:589646,joint0:2.499650213647252e-39;enco1:552836,joint1:1.7932556577811117e-39;enco2:0,joint2:0.0;enco3:0,joint3:0.0;enco4:0,joint4:37.48870849609375;enco5:1114587580,joint5:-227.4999542236328;
time:256.243266226:enco0:590482,joint0:2.503192696165065e-39;enco1:552836,joint1:1.795797613195397e-39;enco2:0,joint2:0.0;enco3:0,joint3:0.0;enco4:0,joint4:37.54183578491211;enco5:1114609801,joint5:-227.4999542236328;
time:256.247268130:enco0:591312,joint0:2.5067113566089847e-39;enco1:552836,joint1:1.798321351729646e-39;enco2:0,joint2:0.0;enco3:0,joint3:0.0;enco4:0,joint4:37.594608306884766;enco5:1114631873,joint5:-227.4999542236328;
time:256.251249920:enco0:592136,joint0:2.5102047936805465e-39;enco1:552836,joint1:1.800828274682323e-39;enco2:0,joint2:0.0;enco3:0,joint3:0.0;enco4:0,joint4:37.64701461791992;enco5:1114653794,joint5:-227.4999542236328;
time:256.255245956:enco0:592955,joint0:2.513675809976679e-39;enco1:552836,joint1:1.8033183820534282e-39;enco2:0,joint2:0.0;enco3:0,joint3:0.0;enco4:0,joint4:37.69906234741211;enco5:1114675563,joint5:-227.4999542236328;
time:256.259247023:enco0:593767,joint0:2.5171216029004538e-39;enco1:552836,joint1:1.805790272544497e-39;enco2:0,joint2:0.0;enco3:0,joint3:0.0;enco4:0,joint4:37.75074005126953;enco5:1114697178,joint5:-227.4999542236328;
time:256.263242222:enco0:594574,joint0:2.5205421724518706e-39;enco1:552836,joint1:1.8082453474539942e-39;enco2:0,joint2:0.0;enco3:0,joint3:0.0;enco4:0,joint4:37.80205154418945;enco5:1114718638,joint5:-227.4999542236328;
time:256.267218145:enco0:595376,joint0:2.523938919929394e-39;enco1:552836,joint1:1.810682205483455e-39;enco2:0,joint2:0.0;enco3:0,joint3:0.0;enco4:0,joint4:37.852989196777344;enco5:1114739943,joint5:-227.4999542236328;
time:256.271210830:enco0:596171,joint0:2.5273104440345595e-39;enco1:552836,joint1:1.8130994453344154e-39;enco2:0,joint2:0.0;enco3:0,joint3:0.0;enco4:0,joint4:37.90354919433594;enco5:1114761090,joint5:-227.4999542236328;
time:256.275206030:enco0:596960,joint0:2.5306567447673672e-39;enco1:552836,joint1:1.815501270902268e-39;enco2:0,joint2:0.0;enco3:0,joint3:0.0;enco4:0,joint4:37.953731536865234;enco5:1114782080,joint5:-227.4999542236328;
time:256.279204582:enco0:597743,joint0:2.5339764208293527e-39;enco1:552836,joint1:1.817882076993156e-39;enco2:0,joint2:0.0;enco3:0,joint3:0.0;enco4:0,joint4:38.00353240966797;enco5:1114802909,joint5:-227.4999542236328;
time:256.283201457:enco0:598521,joint0:2.5372722748174446e-39;enco1:552836,joint1:1.820246067502472e-39;enco2:0,joint2:0.0;enco3:0,joint3:0.0;enco4:0,joint4:38.052947998046875;enco5:1114823578,joint5:-227.4999542236328;
time:256.287198333:enco0:599292,joint0:2.54054010283625e-39;enco1:552836,joint1:1.8225918411317517e-39;enco2:0,joint2:0.0;enco3:0,joint3:0.0;enco4:0,joint4:38.10197448730469;enco5:1114844084,joint5:-227.4999542236328;
time:256.291196885:enco0:600057,joint0:2.543784108781162e-39;enco1:552836,joint1:1.824917996582531e-39;enco2:0,joint2:0.0;enco3:0,joint3:0.0;enco4:0,joint4:38.150611877441406;enco5:1114864427,joint5:-227.4999542236328;
time:256.295196275:enco0:600816,joint0:2.5470000887567875e-39;enco1:552836,joint1:1.827225935153274e-39;enco2:0,joint2:0.0;enco3:0,joint3:0.0;enco4:0,joint4:38.198856353759766;enco5:1114884605,joint5:-227.4999542236328;
time:256.299191474:enco0:601568,joint0:2.550190845360055e-39;enco1:552836,joint1:1.8295142555455163e-39;enco2:0,joint2:0.0;enco3:0,joint3:0.0;enco4:0,joint4:38.2467041015625;enco5:1114904618,joint5:-227.4999542236328;
time:256.303189188:enco0:602314,joint0:2.5533549772925006e-39;enco1:552836,joint1:1.8317843590577225e-39;enco2:0,joint2:0.0;enco3:0,joint3:0.0;enco4:0,joint4:38.294151306152344;enco5:1114924463,joint5:-227.4999542236328;
time:256.307188578:enco0:603054,joint0:2.5564910832556595e-39;enco1:552836,joint1:1.834034844391428e-39;enco2:0,joint2:0.0;enco3:0,joint3:0.0;enco4:0,joint4:38.3411979675293;enco5:1114944140,joint5:-227.4999542236328;
time:256.311186291:enco0:603788,joint0:2.5596019658464606e-39;enco1:552836,joint1:1.8362657115466333e-39;enco2:0,joint2:0.0;enco3:0,joint3:0.0;enco4:0,joint4:38.38783645629883;enco5:1114963648,joint5:-227.4999542236328;
time:256.315184843:enco0:604515,joint0:2.562683421169511e-39;enco1:552836,joint1:1.8384769605233378e-39;enco2:0,joint2:0.0;enco3:0,joint3:0.0;enco4:0,joint4:38.4340705871582;enco5:1114982984,joint5:-227.4999542236328;
time:256.319180881:enco0:605236,joint0:2.5657396531202033e-39;enco1:552836,joint1:1.840668591321542e-39;enco2:0,joint2:0.0;enco3:0,joint3:0.0;enco4:0,joint4:38.479888916015625;enco5:1115002149,joint5:-227.4999542236328;
time:256.323178594:enco0:605950,joint0:2.568766457803145e-39;enco1:552836,joint1:1.8428406039412453e-39;enco2:0,joint2:0.0;enco3:0,joint3:0.0;enco4:0,joint4:38.52529525756836;enco5:1115021140,joint5:-227.4999542236328;
time:256.327177146:enco0:606658,joint0:2.5717666378152643e-39;enco1:552836,joint1:1.8449929983824482e-39;enco2:0,joint2:0.0;enco3:0,joint3:0.0;enco4:0,joint4:38.570281982421875;enco5:1115039956,joint5:-227.4999542236328;
time:256.331162288:enco0:607359,joint0:2.574737390559633e-39;enco1:552836,joint1:1.8471243733466863e-39;enco2:0,joint2:0.0;enco3:0,joint3:0.0;enco4:0,joint4:38.61484909057617;enco5:1115058597,joint5:-227.4999542236328;
time:256.335168383:enco0:608053,joint0:2.5776815186331794e-39;enco1:552836,joint1:1.8492361301324238e-39;enco2:0,joint2:0.0;enco3:0,joint3:0.0;enco4:0,joint4:38.65899658203125;enco5:1115077062,joint5:-227.4999542236328;
time:256.339157716:enco0:608741,joint0:2.5805976207374393e-39;enco1:552836,joint1:1.8513282687396607e-39;enco2:0,joint2:0.0;enco3:0,joint3:0.0;enco4:0,joint4:38.70272445678711;enco5:1115095351,joint5:-227.4999542236328;
time:256.343152915:enco0:609422,joint0:2.5834842955739484e-39;enco1:552836,joint1:1.8533993878699328e-39;enco2:0,joint2:0.0;enco3:0,joint3:0.0;enco4:0,joint4:38.746028900146484;enco5:1115113465,joint5:-227.4999542236328;
time:256.347151467:enco0:610096,joint0:2.5863443457396354e-39;enco1:552836,joint1:1.8554508888217043e-39;enco2:0,joint2:0.0;enco3:0,joint3:0.0;enco4:0,joint4:38.788917541503906;enco5:1115131402,joint5:-227.4999542236328;
time:256.351149180:enco0:610764,joint0:2.5891749686375715e-39;enco1:552836,joint1:1.8574827715949753e-39;enco2:0,joint2:0.0;enco3:0,joint3:0.0;enco4:0,joint4:38.831382751464844;enco5:1115149163,joint5:-227.4999542236328;
time:256.355151922:enco0:611426,joint0:2.5919789668646855e-39;enco1:552836,joint1:1.8594936348912814e-39;enco2:0,joint2:0.0;enco3:0,joint3:0.0;enco4:0,joint4:38.87342834472656;enco5:1115166749,joint5:-227.4999542236328;
time:256.359145445:enco0:612080,joint0:2.594754939122513e-39;enco1:552836,joint1:1.861484880009087e-39;enco2:0,joint2:0.0;enco3:0,joint3:0.0;enco4:0,joint4:38.9150505065918;enco5:1115184159,joint5:-227.4999542236328;
time:256.363143997:enco0:612728,joint0:2.5975014841125896e-39;enco1:552836,joint1:1.863456506948392e-39;enco2:0,joint2:0.0;enco3:0,joint3:0.0;enco4:0,joint4:38.95625686645508;enco5:1115201393,joint5:-227.4999542236328;
time:256.367140873:enco0:613370,joint0:2.600221404431844e-39;enco1:552836,joint1:1.865407114410732e-39;enco2:0,joint2:0.0;enco3:0,joint3:0.0;enco4:0,joint4:38.997039794921875;enco5:1115218451,joint5:-227.4999542236328;
time:256.371137748:enco0:614005,joint0:2.6029118974833477e-39;enco1:552836,joint1:1.8673381036945718e-39;enco2:0,joint2:0.0;enco3:0,joint3:0.0;enco4:0,joint4:39.03740310668945;enco5:1115235333,joint5:-227.4999542236328;
time:256.375137138:enco0:614633,joint0:2.6055757658640292e-39;enco1:552836,joint1:1.8692480735014465e-39;enco2:0,joint2:0.0;enco3:0,joint3:0.0;enco4:0,joint4:39.07734680175781;enco5:1115252040,joint5:-227.4999542236328;
time:256.379134852:enco0:615255,joint0:2.6082116082754242e-39;enco1:552836,joint1:1.8711384251298207e-39;enco2:0,joint2:0.0;enco3:0,joint3:0.0;enco4:0,joint4:39.11686706542969;enco5:1115268570,joint5:-227.4999542236328;
time:256.383131728:enco0:615870,joint0:2.6108180234190683e-39;enco1:552836,joint1:1.8730091585796943e-39;enco2:0,joint2:0.0;enco3:0,joint3:0.0;enco4:0,joint4:39.15597152709961;enco5:1115284925,joint5:-227.4999542236328;
time:256.387129441:enco0:616478,joint0:2.6133978138918903e-39;enco1:552836,joint1:1.874858872552603e-39;enco2:0,joint2:0.0;enco3:0,joint3:0.0;enco4:0,joint4:39.19465255737305;enco5:1115301104,joint5:-227.4999542236328;
time:256.391127993:enco0:617080,joint0:2.6159481770969615e-39;enco1:552836,joint1:1.8766903696454756e-39;enco2:0,joint2:0.0;enco3:0,joint3:0.0;enco4:0,joint4:39.232913970947266;enco5:1115317107,joint5:-227.4999542236328;
time:256.395126545:enco0:617675,joint0:2.6184719156312105e-39;enco1:552836,joint1:1.878499445962919e-39;enco2:0,joint2:0.0;enco3:0,joint3:0.0;enco4:0,joint4:39.270751953125;enco5:1115332934,joint5:-227.4999542236328;
time:256.399122582:enco0:618264,joint0:2.6209662268977087e-39;enco1:552836,joint1:1.880290305400326e-39;enco2:0,joint2:0.0;enco3:0,joint3:0.0;enco4:0,joint4:39.30817413330078;enco5:1115348585,joint5:-227.4999542236328;
time:256.403120296:enco0:618846,joint0:2.6234339134933847e-39;enco1:552836,joint1:1.8820601453607683e-39;enco2:0,joint2:0.0;enco3:0,joint3:0.0;enco4:0,joint4:39.34517288208008;enco5:1115364060,joint5:-227.4999542236328;
time:256.407118848:enco0:619421,joint0:2.625873574119774e-39;enco1:552836,joint1:1.8838089658442457e-39;enco2:0,joint2:0.0;enco3:0,joint3:0.0;enco4:0,joint4:39.381752014160156;enco5:1115379360,joint5:-227.4999542236328;
time:256.411116562:enco0:619990,joint0:2.628283807478413e-39;enco1:552836,joint1:1.8855395694476868e-39;enco2:0,joint2:0.0;enco3:0,joint3:0.0;enco4:0,joint4:39.417911529541016;enco5:1115394484,joint5:-227.4999542236328;
time:256.415114275:enco0:620552,joint0:2.6306674161662294e-39;enco1:552836,joint1:1.887249153574163e-39;enco2:0,joint2:0.0;enco3:0,joint3:0.0;enco4:0,joint4:39.45364761352539;enco5:1115409431,joint5:-227.4999542236328;
time:256.419112827:enco0:621107,joint0:2.633021597586295e-39;enco1:552836,joint1:1.8889377182236745e-39;enco2:0,joint2:0.0;enco3:0,joint3:0.0;enco4:0,joint4:39.48896789550781;enco5:1115424203,joint5:-227.4999542236328;
time:256.423111379:enco0:621656,joint0:2.6353491543355386e-39;enco1:552836,joint1:1.8906066646946853e-39;enco2:0,joint2:0.0;enco3:0,joint3:0.0;enco4:0,joint4:39.52386474609375;enco5:1115438800,joint5:-227.4999542236328;
time:256.427108255:enco0:622198,joint0:2.6376472838170313e-39;enco1:552836,joint1:1.8922559929871957e-39;enco2:0,joint2:0.0;enco3:0,joint3:0.0;enco4:0,joint4:39.55834197998047;enco5:1115453220,joint5:-227.4999542236328;
time:256.431106806:enco0:622734,joint0:2.6399187886277018e-39;enco1:552836,joint1:1.8938857031012054e-39;enco2:0,joint2:0.0;enco3:0,joint3:0.0;enco4:0,joint4:39.59239959716797;enco5:1115467464,joint5:-227.4999542236328;
time:256.435103682:enco0:623263,joint0:2.6421608661706215e-39;enco1:552836,joint1:1.8954943937382503e-39;enco2:0,joint2:0.0;enco3:0,joint3:0.0;enco4:0,joint4:39.626033782958984;enco5:1115481533,joint5:-227.4999542236328;
time:256.439102234:enco0:623786,joint0:2.644376319042719e-39;enco1:552836,joint1:1.8970834661967946e-39;enco2:0,joint2:0.0;enco3:0,joint3:0.0;enco4:0,joint4:39.65924835205078;enco5:1115495425,joint5:-227.4999542236328;
time:256.443099948:enco0:624301,joint0:2.6465623446470658e-39;enco1:552836,joint1:1.898651519178374e-39;enco2:0,joint2:0.0;enco3:0,joint3:0.0;enco4:0,joint4:39.69204330444336;enco5:1115509142,joint5:-227.4999542236328;
time:256.447096823:enco0:624811,joint0:2.6487217455805903e-39;enco1:552836,joint1:1.9002013552799174e-39;enco2:0,joint2:0.0;enco3:0,joint3:0.0;enco4:0,joint4:39.72441864013672;enco5:1115522683,joint5:-227.4999542236328;
time:256.451094536:enco0:625313,joint0:2.650851719246364e-39;enco1:552836,joint1:1.9017287706060314e-39;enco2:0,joint2:0.0;enco3:0,joint3:0.0;enco4:0,joint4:39.75637435913086;enco5:1115536048,joint5:-227.4999542236328;
time:256.455093088:enco0:625809,joint0:2.6529550682413156e-39;enco1:552836,joint1:1.9032379690521092e-39;enco2:0,joint2:0.0;enco3:0,joint3:0.0;enco4:0,joint4:39.787906646728516;enco5:1115549238,joint5:-227.4999542236328;
time:256.459090801:enco0:626299,joint0:2.6550289899685163e-39;enco1:552836,joint1:1.9047261480212222e-39;enco2:0,joint2:0.0;enco3:0,joint3:0.0;enco4:0,joint4:39.81901931762695;enco5:1115562251,joint5:-227.4999542236328;
time:256.463088515:enco0:626781,joint0:2.6570748857264305e-39;enco1:552836,joint1:1.9061947088118346e-39;enco2:0,joint2:0.0;enco3:0,joint3:0.0;enco4:0,joint4:39.84971237182617;enco5:1115575088,joint5:-227.4999542236328;
time:256.467086229:enco0:627257,joint0:2.6590941568135226e-39;enco1:552836,joint1:1.907642250125482e-39;enco2:0,joint2:0.0;enco3:0,joint3:0.0;enco4:0,joint4:39.87998580932617;enco5:1115587750,joint5:-227.4999542236328;
time:256.471085619:enco0:627727,joint0:2.661084000632864e-39;enco1:552836,joint1:1.909070173260629e-39;enco2:0,joint2:0.0;enco3:0,joint3:0.0;enco4:0,joint4:39.90983963012695;enco5:1115600236,joint5:-227.4999542236328;
time:256.475089199:enco0:628190,joint0:2.663047219781383e-39;enco1:552836,joint1:1.9104784782172756e-39;enco2:0,joint2:0.0;enco3:0,joint3:0.0;enco4:0,joint4:39.93927001953125;enco5:1115612546,joint5:-227.4999542236328;
time:256.479086913:enco0:628646,joint0:2.664981011662151e-39;enco1:552836,joint1:1.911865763696957e-39;enco2:0,joint2:0.0;enco3:0,joint3:0.0;enco4:0,joint4:39.968284606933594;enco5:1115624682,joint5:-227.4999542236328;
time:256.483083789:enco0:629096,joint0:2.6668881788720972e-39;enco1:552836,joint1:1.9132334309981382e-39;enco2:0,joint2:0.0;enco3:0,joint3:0.0;enco4:0,joint4:39.99688720703125;enco5:1115636644,joint5:-227.4999542236328;
time:256.487082340:enco0:629540,joint0:2.6687673201127568e-39;enco1:552836,joint1:1.914582881419283e-39;enco2:0,joint2:0.0;enco3:0,joint3:0.0;enco4:0,joint4:40.02507400512695;enco5:1115648434,joint5:-227.4999542236328;
time:256.491080054:enco0:629976,joint0:2.6706198366825942e-39;enco1:552836,joint1:1.915911312363463e-39;enco2:0,joint2:0.0;enco3:0,joint3:0.0;enco4:0,joint4:40.052852630615234;enco5:1115660053,joint5:-227.4999542236328;
time:256.495079444:enco0:630407,joint0:2.6724457285816095e-39;enco1:552836,joint1:1.9172201251291423e-39;enco2:0,joint2:0.0;enco3:0,joint3:0.0;enco4:0,joint4:40.08022689819336;enco5:1115671503,joint5:-227.4999542236328;
time:256.499076320:enco0:630831,joint0:2.6742435945113382e-39;enco1:552836,joint1:1.9185107210147854e-39;enco2:0,joint2:0.0;enco3:0,joint3:0.0;enco4:0,joint4:40.107200622558594;enco5:1115682784,joint5:-227.4999542236328;
time:256.503073195:enco0:631249,joint0:2.676016237068709e-39;enco1:552836,joint1:1.919781698721928e-39;enco2:0,joint2:0.0;enco3:0,joint3:0.0;enco4:0,joint4:40.13377380371094;enco5:1115689381,joint5:-227.4999542236328;
time:256.507071747:enco0:631661,joint0:2.6777608536567935e-39;enco1:552836,joint1:1.9210344595490344e-39;enco2:0,joint2:0.0;enco3:0,joint3:0.0;enco4:0,joint4:40.159950256347656;enco5:1115694855,joint5:-227.4999542236328;
time:256.511070299:enco0:632066,joint0:2.67948024687252e-39;enco1:552836,joint1:1.9222676021976403e-39;enco2:0,joint2:0.0;enco3:0,joint3:0.0;enco4:0,joint4:40.18572998046875;enco5:1115700247,joint5:-227.4999542236328;
time:256.515065498:enco0:632466,joint0:2.6811730154174244e-39;enco1:552836,joint1:1.92348252796621e-39;enco2:0,joint2:0.0;enco3:0,joint3:0.0;enco4:0,joint4:40.21112060546875;enco5:1115705557,joint5:-227.4999542236328;
time:256.519064888:enco0:632859,joint0:2.682840560589971e-39;enco1:552836,joint1:1.924677835556279e-39;enco2:0,joint2:0.0;enco3:0,joint3:0.0;enco4:0,joint4:40.23612594604492;enco5:1115710786,joint5:-227.4999542236328;
time:256.523061764:enco0:633246,joint0:2.6844814810916953e-39;enco1:552836,joint1:1.925856327564776e-39;enco2:0,joint2:0.0;enco3:0,joint3:0.0;enco4:0,joint4:40.260746002197266;enco5:1115715935,joint5:-227.4999542236328;
time:256.527061154:enco0:633628,joint0:2.686098579519526e-39;enco1:552836,joint1:1.9270152013947727e-39;enco2:0,joint2:0.0;enco3:0,joint3:0.0;enco4:0,joint4:40.28498458862305;enco5:1115721004,joint5:-227.4999542236328;
time:256.531058867:enco0:634003,joint0:2.6876890532765348e-39;enco1:552836,joint1:1.928155858344733e-39;enco2:0,joint2:0.0;enco3:0,joint3:0.0;enco4:0,joint4:40.308841705322266;enco5:1115725993,joint5:-227.4999542236328;
time:256.535056581:enco0:634372,joint0:2.6892543036611856e-39;enco1:552836,joint1:1.9292796997131216e-39;enco2:0,joint2:0.0;enco3:0,joint3:0.0;enco4:0,joint4:40.33232498168945;enco5:1115730904,joint5:-227.4999542236328;
time:256.539054295:enco0:634736,joint0:2.690795731971943e-39;enco1:552836,joint1:1.930385324201474e-39;enco2:0,joint2:0.0;enco3:0,joint3:0.0;enco4:0,joint4:40.35543441772461;enco5:1115735737,joint5:-227.4999542236328;
time:256.543052009:enco0:635093,joint0:2.6923119369103424e-39;enco1:552836,joint1:1.93147273180979e-39;enco2:0,joint2:0.0;enco3:0,joint3:0.0;enco4:0,joint4:40.378177642822266;enco5:1115740493,joint5:-227.4999542236328;
time:256.547048884:enco0:635445,joint0:2.6938043197748483e-39;enco1:552836,joint1:1.932543323836534e-39;enco2:0,joint2:0.0;enco3:0,joint3:0.0;enco4:0,joint4:40.400550842285156;enco5:1115745172,joint5:-227.4999542236328;
time:256.551047436:enco0:635791,joint0:2.6952714792669964e-39;enco1:552836,joint1:1.933595698983242e-39;enco2:0,joint2:0.0;enco3:0,joint3:0.0;enco4:0,joint4:40.42256164550781;enco5:1115749775,joint5:-227.4999542236328;
time:256.555050177:enco0:636132,joint0:2.696714816685251e-39;enco1:552836,joint1:1.934631258548378e-39;enco2:0,joint2:0.0;enco3:0,joint3:0.0;enco4:0,joint4:40.444210052490234;enco5:1115754302,joint5:-227.4999542236328;
time:256.559042024:enco0:636467,joint0:2.698134332029612e-39;enco1:552836,joint1:1.9356500025319423e-39;enco2:0,joint2:0.0;enco3:0,joint3:0.0;enco4:0,joint4:40.46549987792969;enco5:1115758755,joint5:-227.4999542236328;
time:256.563042252:enco0:636796,joint0:2.6995300253000795e-39;enco1:552836,joint1:1.9366519309339345e-39;enco2:0,joint2:0.0;enco3:0,joint3:0.0;enco4:0,joint4:40.4864387512207;enco5:1115763133,joint5:-227.4999542236328;
time:256.567039128:enco0:637120,joint0:2.700903297795118e-39;enco1:552836,joint1:1.9376356424558905e-39;enco2:0,joint2:0.0;enco3:0,joint3:0.0;enco4:0,joint4:40.507022857666016;enco5:1115767438,joint5:-227.4999542236328;
time:256.571036004:enco0:637438,joint0:2.7022527482162626e-39;enco1:552836,joint1:1.938603939694739e-39;enco2:0,joint2:0.0;enco3:0,joint3:0.0;enco4:0,joint4:40.527259826660156;enco5:1115771670,joint5:-227.4999542236328;
time:256.575033717:enco0:637751,joint0:2.703578376563514e-39;enco1:552836,joint1:1.9395554213520155e-39;enco2:0,joint2:0.0;enco3:0,joint3:0.0;enco4:0,joint4:40.547149658203125;enco5:1115775830,joint5:-227.4999542236328;
time:256.579032269:enco0:638058,joint0:2.704881584135336e-39;enco1:552836,joint1:1.9404900874277202e-39;enco2:0,joint2:0.0;enco3:0,joint3:0.0;enco4:0,joint4:40.56669616699219;enco5:1115779918,joint5:-227.4999542236328;
time:256.583030821:enco0:638361,joint0:2.706162370931729e-39;enco1:552836,joint1:1.9414093392203173e-39;enco2:0,joint2:0.0;enco3:0,joint3:0.0;enco4:0,joint4:40.58590316772461;enco5:1115783934,joint5:-227.4999542236328;
time:256.587031049:enco0:638657,joint0:2.7074207369526926e-39;enco1:552836,joint1:1.9423117754313424e-39;enco2:0,joint2:0.0;enco3:0,joint3:0.0;enco4:0,joint4:40.60477066040039;enco5:1115787881,joint5:-227.4999542236328;
time:256.591027924:enco0:638949,joint0:2.708656682198227e-39;enco1:552836,joint1:1.94319879735926e-39;enco2:0,joint2:0.0;enco3:0,joint3:0.0;enco4:0,joint4:40.62330627441406;enco5:1115791757,joint5:-227.4999542236328;
time:256.595025638:enco0:639235,joint0:2.7098702066683323e-39;enco1:552836,joint1:1.9440690037056058e-39;enco2:0,joint2:0.0;enco3:0,joint3:0.0;enco4:0,joint4:40.64151382446289;enco5:1115795564,joint5:-227.4999542236328;
time:256.599022514:enco0:639516,joint0:2.7110627116614728e-39;enco1:552836,joint1:1.9449251970673082e-39;enco2:0,joint2:0.0;enco3:0,joint3:0.0;enco4:0,joint4:40.65938949584961;enco5:1115799303,joint5:-227.4999542236328;
time:256.603022742:enco0:639792,joint0:2.712232795879184e-39;enco1:552836,joint1:1.9457645748474388e-39;enco2:0,joint2:0.0;enco3:0,joint3:0.0;enco4:0,joint4:40.67694091796875;enco5:1115802973,joint5:-227.4999542236328;
time:256.607017941:enco0:640064,joint0:2.7133818606199303e-39;enco1:552836,joint1:1.9465885383444618e-39;enco2:0,joint2:0.0;enco3:0,joint3:0.0;enco4:0,joint4:40.69417190551758;enco5:1115806577,joint5:-227.4999542236328;
time:256.611016493:enco0:640329,joint0:2.7145099058837118e-39;enco1:552836,joint1:1.9473970875583772e-39;enco2:0,joint2:0.0;enco3:0,joint3:0.0;enco4:0,joint4:40.711082458496094;enco5:1115810113,joint5:-227.4999542236328;
time:256.615015045:enco0:640591,joint0:2.715615530372064e-39;enco1:552836,joint1:1.9481916237876494e-39;enco2:0,joint2:0.0;enco3:0,joint3:0.0;enco4:0,joint4:40.72768020629883;enco5:1115813584,joint5:-227.4999542236328;
time:256.619011920:enco0:640847,joint0:2.7167015366819158e-39;enco1:552836,joint1:1.9489693444353497e-39;enco2:0,joint2:0.0;enco3:0,joint3:0.0;enco4:0,joint4:40.743961334228516;enco5:1115816989,joint5:-227.4999542236328;
time:256.623008796:enco0:641098,joint0:2.7177665235148027e-39;enco1:552836,joint1:1.949734453396871e-39;enco2:0,joint2:0.0;enco3:0,joint3:0.0;enco4:0,joint4:40.75993347167969;enco5:1115820329,joint5:-227.4999542236328;
time:256.627008186:enco0:641344,joint0:2.7188104908707247e-39;enco1:552836,joint1:1.9504827467768205e-39;enco2:0,joint2:0.0;enco3:0,joint3:0.0;enco4:0,joint4:40.775596618652344;enco5:1115823605,joint5:-227.4999542236328;
time:256.631005900:enco0:641586,joint0:2.719834840048146e-39;enco1:552836,joint1:1.951218428470591e-39;enco2:0,joint2:0.0;enco3:0,joint3:0.0;enco4:0,joint4:40.790958404541016;enco5:1115826817,joint5:-227.4999542236328;
time:256.635002775:enco0:641823,joint0:2.720839571047067e-39;enco1:552836,joint1:1.951938695881254e-39;enco2:0,joint2:0.0;enco3:0,joint3:0.0;enco4:0,joint4:40.80601501464844;enco5:1115829966,joint5:-227.4999542236328;
time:256.639001327:enco0:642055,joint0:2.721823282569023e-39;enco1:552836,joint1:1.9526449503072736e-39;enco2:0,joint2:0.0;enco3:0,joint3:0.0;enco4:0,joint4:40.820777893066406;enco5:1115833053,joint5:-227.4999542236328;
time:256.642998203:enco0:642282,joint0:2.7227873759124785e-39;enco1:552836,joint1:1.9533357904501858e-39;enco2:0,joint2:0.0;enco3:0,joint3:0.0;enco4:0,joint4:40.835243225097656;enco5:1115836079,joint5:-227.4999542236328;
time:256.646996755:enco0:642505,joint0:2.7237332523758978e-39;enco1:552836,joint1:1.954014018906919e-39;enco2:0,joint2:0.0;enco3:0,joint3:0.0;enco4:0,joint4:40.84941482543945;enco5:1115839043,joint5:-227.4999542236328;
time:256.650994467:enco0:642724,joint0:2.724658109362352e-39;enco1:552836,joint1:1.954678234379009e-39;enco2:0,joint2:0.0;enco3:0,joint3:0.0;enco4:0,joint4:40.86330032348633;enco5:1115841946,joint5:-227.4999542236328;
time:256.654992181:enco0:642938,joint0:2.7255647494687703e-39;enco1:552836,joint1:1.9553284368664557e-39;enco2:0,joint2:0.0;enco3:0,joint3:0.0;enco4:0,joint4:40.87689971923828;enco5:1115844790,joint5:-227.4999542236328;
time:256.658989057:enco0:643147,joint0:2.7264531726951522e-39;enco1:552836,joint1:1.9559660276677235e-39;enco2:0,joint2:0.0;enco3:0,joint3:0.0;enco4:0,joint4:40.89021301269531;enco5:1115847575,joint5:-227.4999542236328;
time:256.662988447:enco0:643352,joint0:2.7273219777430336e-39;enco1:552836,joint1:1.956589605484348e-39;enco2:0,joint2:0.0;enco3:0,joint3:0.0;enco4:0,joint4:40.90324783325195;enco5:1115850300,joint5:-227.4999542236328;
time:256.666986160:enco0:643553,joint0:2.7281725659108788e-39;enco1:552836,joint1:1.9571991703163293e-39;enco2:0,joint2:0.0;enco3:0,joint3:0.0;enco4:0,joint4:40.9160041809082;enco5:1115852968,joint5:-227.4999542236328;
time:256.670983874:enco0:643749,joint0:2.7290049371986877e-39;enco1:552836,joint1:1.9577961234621317e-39;enco2:0,joint2:0.0;enco3:0,joint3:0.0;enco4:0,joint4:40.928489685058594;enco5:1115855579,joint5:-227.4999542236328;
time:256.674982426:enco0:643941,joint0:2.7298190916064604e-39;enco1:552836,joint1:1.958380464921755e-39;enco2:0,joint2:0.0;enco3:0,joint3:0.0;enco4:0,joint4:40.94070053100586;enco5:1115858133,joint5:-227.4999542236328;
time:256.678979301:enco0:644129,joint0:2.7306164304326613e-39;enco1:552836,joint1:1.9589521946951996e-39;enco2:0,joint2:0.0;enco3:0,joint3:0.0;enco4:0,joint4:40.95264434814453;enco5:1115860630,joint5:-227.4999542236328;
time:256.682977015:enco0:644313,joint0:2.7313941510803615e-39;enco1:552836,joint1:1.9595113127824653e-39;enco2:0,joint2:0.0;enco3:0,joint3:0.0;enco4:0,joint4:40.96432113647461;enco5:1115863072,joint5:-227.4999542236328;
time:256.686974729:enco0:644492,joint0:2.73215505614649e-39;enco1:552836,joint1:1.9600564178850876e-39;enco2:0,joint2:0.0;enco3:0,joint3:0.0;enco4:0,joint4:40.97573471069336;enco5:1115865460,joint5:-227.4999542236328;
time:256.690972443:enco0:644668,joint0:2.7328991456310464e-39;enco1:552836,joint1:1.9605903125999954e-39;enco2:0,joint2:0.0;enco3:0,joint3:0.0;enco4:0,joint4:40.98689270019531;enco5:1115867793,joint5:-227.4999542236328;
time:256.694970156:enco0:644839,joint0:2.733626419534031e-39;enco1:552836,joint1:1.9611115956287242e-39;enco2:0,joint2:0.0;enco3:0,joint3:0.0;enco4:0,joint4:40.9977912902832;enco5:1115870072,joint5:-227.4999542236328;
time:256.698968708:enco0:645006,joint0:2.7343354765569793e-39;enco1:552836,joint1:1.9616216682697384e-39;enco2:0,joint2:0.0;enco3:0,joint3:0.0;enco4:0,joint4:41.00843811035156;enco5:1115872298,joint5:-227.4999542236328;
time:256.702966422:enco0:645170,joint0:2.73502911929682e-39;enco1:552836,joint1:1.9621177279261094e-39;enco2:0,joint2:0.0;enco3:0,joint3:0.0;enco4:0,joint4:41.01883316040039;enco5:1115874472,joint5:-227.4999542236328;
time:256.706964136:enco0:645330,joint0:2.735705946455089e-39;enco1:552836,joint1:1.96260397849323e-39;enco2:0,joint2:0.0;enco3:0,joint3:0.0;enco4:0,joint4:41.02898025512695;enco5:1115876595,joint5:-227.4999542236328;
time:256.710962687:enco0:645485,joint0:2.736365958031786e-39;enco1:552836,joint1:1.963077617374172e-39;enco2:0,joint2:0.0;enco3:0,joint3:0.0;enco4:0,joint4:41.038883209228516;enco5:1115878666,joint5:-227.4999542236328;
time:256.714961239:enco0:645637,joint0:2.7370105553253754e-39;enco1:552836,joint1:1.963540045867399e-39;enco2:0,joint2:0.0;enco3:0,joint3:0.0;enco4:0,joint4:41.048545837402344;enco5:1115880686,joint5:-227.4999542236328;
time:256.718957277:enco0:645786,joint0:2.737638337037393e-39;enco1:552836,joint1:1.9639898626744474e-39;enco2:0,joint2:0.0;enco3:0,joint3:0.0;enco4:0,joint4:41.05796813964844;enco5:1115882657,joint5:-227.4999542236328;
time:256.722955828:enco0:645930,joint0:2.738250704466303e-39;enco1:552836,joint1:1.9644298703922454e-39;enco2:0,joint2:0.0;enco3:0,joint3:0.0;enco4:0,joint4:41.06715774536133;enco5:1115884578,joint5:-227.4999542236328;
time:256.726953542:enco0:646071,joint0:2.7388490589105696e-39;enco1:552836,joint1:1.9648586677223288e-39;enco2:0,joint2:0.0;enco3:0,joint3:0.0;enco4:0,joint4:41.07611083984375;enco5:1115886451,joint5:-227.4999542236328;
time:256.730951256:enco0:646208,joint0:2.7394305977732644e-39;enco1:552836,joint1:1.9652762546646975e-39;enco2:0,joint2:0.0;enco3:0,joint3:0.0;enco4:0,joint4:41.0848388671875;enco5:1115888276,joint5:-227.4999542236328;
time:256.734948132:enco0:646342,joint0:2.7399967223528516e-39;enco1:552836,joint1:1.9656826312193517e-39;enco2:0,joint2:0.0;enco3:0,joint3:0.0;enco4:0,joint4:41.09333801269531;enco5:1115890053,joint5:-227.4999542236328;
time:256.738945845:enco0:646472,joint0:2.7405488339477956e-39;enco1:552836,joint1:1.9660777973862913e-39;enco2:0,joint2:0.0;enco3:0,joint3:0.0;enco4:0,joint4:41.10161209106445;enco5:1115891784,joint5:-227.4999542236328;
time:256.742945235:enco0:646599,joint0:2.741085531259632e-39;enco1:552836,joint1:1.9664631544639807e-39;enco2:0,joint2:0.0;enco3:0,joint3:0.0;enco4:0,joint4:41.10966491699219;enco5:1115893469,joint5:-227.4999542236328;
time:256.746942949:enco0:646722,joint0:2.741608215586825e-39;enco1:552836,joint1:1.9668387024524197e-39;enco2:0,joint2:0.0;enco3:0,joint3:0.0;enco4:0,joint4:41.11750411987305;enco5:1115895107,joint5:-227.4999542236328;
time:256.750939824:enco0:646842,joint0:2.742116886929375e-39;enco1:552836,joint1:1.9672030400531442e-39;enco2:0,joint2:0.0;enco3:0,joint3:0.0;enco4:0,joint4:41.125125885009766;enco5:1115896701,joint5:-227.4999542236328;
time:256.754941728:enco0:646958,joint0:2.7426101439888174e-39;enco1:552836,joint1:1.9675575685646184e-39;enco2:0,joint2:0.0;enco3:0,joint3:0.0;enco4:0,joint4:41.132537841796875;enco5:1115898251,joint5:-227.4999542236328;
time:256.758937765:enco0:647072,joint0:2.7430907893620808e-39;enco1:552836,joint1:1.9679022879868423e-39;enco2:0,joint2:0.0;enco3:0,joint3:0.0;enco4:0,joint4:41.139739990234375;enco5:1115899757,joint5:-227.4999542236328;
time:256.762932965:enco0:647182,joint0:2.743557421750701e-39;enco1:552836,joint1:1.968237198319816e-39;enco2:0,joint2:0.0;enco3:0,joint3:0.0;enco4:0,joint4:41.14673614501953;enco5:1115901220,joint5:-227.4999542236328;
time:256.766931516:enco0:647289,joint0:2.744010041154678e-39;enco1:552836,joint1:1.968560898265075e-39;enco2:0,joint2:0.0;enco3:0,joint3:0.0;enco4:0,joint4:41.153526306152344;enco5:1115902641,joint5:-227.4999542236328;
time:256.770930068:enco0:647392,joint0:2.744450048872476e-39;enco1:552836,joint1:1.968876190419548e-39;enco2:0,joint2:0.0;enco3:0,joint3:0.0;enco4:0,joint4:41.16012191772461;enco5:1115904020,joint5:-227.4999542236328;
time:256.774926944:enco0:647493,joint0:2.7448760436056306e-39;enco1:552836,joint1:1.969183074783235e-39;enco2:0,joint2:0.0;enco3:0,joint3:0.0;enco4:0,joint4:41.16651916503906;enco5:1115905358,joint5:-227.4999542236328;
time:256.778924658:enco0:647590,joint0:2.7452894266526064e-39;enco1:552836,joint1:1.969480150057672e-39;enco2:0,joint2:0.0;enco3:0,joint3:0.0;enco4:0,joint4:41.17272186279297;enco5:1115906655,joint5:-227.4999542236328;
time:256.782923209:enco0:647685,joint0:2.7456901980134033e-39;enco1:552836,joint1:1.9697674162428586e-39;enco2:0,joint2:0.0;enco3:0,joint3:0.0;enco4:0,joint4:41.178733825683594;enco5:1115907912,joint5:-227.4999542236328;
time:256.786920923:enco0:647777,joint0:2.7460797589864856e-39;enco1:552836,joint1:1.9700462746372592e-39;enco2:0,joint2:0.0;enco3:0,joint3:0.0;enco4:0,joint4:41.18455505371094;enco5:1115909130,joint5:-227.4999542236328;
time:256.790919475:enco0:647865,joint0:2.7464553069749247e-39;enco1:552836,joint1:1.9703153239424096e-39;enco2:0,joint2:0.0;enco3:0,joint3:0.0;enco4:0,joint4:41.1901969909668;enco5:1115910310,joint5:-227.4999542236328;
time:256.794916351:enco0:647951,joint0:2.746819644575649e-39;enco1:552836,joint1:1.970575965456774e-39;enco2:0,joint2:0.0;enco3:0,joint3:0.0;enco4:0,joint4:41.19565200805664;enco5:1115911451,joint5:-227.4999542236328;
time:256.798914902:enco0:648034,joint0:2.7471713704901947e-39;enco1:552836,joint1:1.9708296004788168e-39;enco2:0,joint2:0.0;enco3:0,joint3:0.0;enco4:0,joint4:41.200931549072266;enco5:1115912555,joint5:-227.4999542236328;
time:256.802912616:enco0:648114,joint0:2.7475118860170256e-39;enco1:552836,joint1:1.9710734264116093e-39;enco2:0,joint2:0.0;enco3:0,joint3:0.0;enco4:0,joint4:41.20603561401367;enco5:1115913622,joint5:-227.4999542236328;
time:256.806909492:enco0:648192,joint0:2.7478397898576776e-39;enco1:552836,joint1:1.971308844553616e-39;enco2:0,joint2:0.0;enco3:0,joint3:0.0;enco4:0,joint4:41.21096420288086;enco5:1115914653,joint5:-227.4999542236328;
time:256.810908882:enco0:648267,joint0:2.7481578846090793e-39;enco1:552836,joint1:1.9715372562033008e-39;enco2:0,joint2:0.0;enco3:0,joint3:0.0;enco4:0,joint4:41.21572494506836;enco5:1115915648,joint5:-227.4999542236328;
time:256.814906595:enco0:648339,joint0:2.748463367674302e-39;enco1:552836,joint1:1.9717558587637355e-39;enco2:0,joint2:0.0;enco3:0,joint3:0.0;enco4:0,joint4:41.22031784057617;enco5:1115916609,joint5:-227.4999542236328;
time:256.818904309:enco0:648409,joint0:2.7487590416502747e-39;enco1:552836,joint1:1.971968856130313e-39;enco2:0,joint2:0.0;enco3:0,joint3:0.0;enco4:0,joint4:41.22474670410156;enco5:1115917535,joint5:-227.4999542236328;
time:256.822901185:enco0:648476,joint0:2.7490435052385326e-39;enco1:552836,joint1:1.97217204440764e-39;enco2:0,joint2:0.0;enco3:0,joint3:0.0;enco4:0,joint4:41.22901153564453;enco5:1115918427,joint5:-227.4999542236328;
time:256.826898898:enco0:648540,joint0:2.7493181597375403e-39;enco1:552836,joint1:1.9723682261926454e-39;enco2:0,joint2:0.0;enco3:0,joint3:0.0;enco4:0,joint4:41.233123779296875;enco5:1115919287,joint5:-227.4999542236328;
time:256.830897450:enco0:648603,joint0:2.7495816038488333e-39;enco1:552836,joint1:1.9725574014853293e-39;enco2:0,joint2:0.0;enco3:0,joint3:0.0;enco4:0,joint4:41.23707580566406;enco5:1115920114,joint5:-227.4999542236328;
time:256.834895164:enco0:648662,joint0:2.749835238870876e-39;enco1:552836,joint1:1.9727395702856915e-39;enco2:0,joint2:0.0;enco3:0,joint3:0.0;enco4:0,joint4:41.24087905883789;enco5:1115920909,joint5:-227.4999542236328;
time:256.838892878:enco0:648720,joint0:2.7500790648036686e-39;enco1:552836,joint1:1.972914732593732e-39;enco2:0,joint2:0.0;enco3:0,joint3:0.0;enco4:0,joint4:41.24453353881836;enco5:1115921673,joint5:-227.4999542236328;
time:256.842890591:enco0:648775,joint0:2.7503116803487466e-39;enco1:552836,joint1:1.973082888409451e-39;enco2:0,joint2:0.0;enco3:0,joint3:0.0;enco4:0,joint4:41.24803924560547;enco5:1115922406,joint5:-227.4999542236328;
time:256.846887467:enco0:648828,joint0:2.7505358881030385e-39;enco1:552836,joint1:1.9732440377328485e-39;enco2:0,joint2:0.0;enco3:0,joint3:0.0;enco4:0,joint4:41.25140380859375;enco5:1115923110,joint5:-227.4999542236328;
time:256.850888532:enco0:648879,joint0:2.7507516880665446e-39;enco1:552836,joint1:1.97339677926546e-39;enco2:0,joint2:0.0;enco3:0,joint3:0.0;enco4:0,joint4:41.2546272277832;enco5:1115923784,joint5:-227.4999542236328;
time:256.854884570:enco0:648927,joint0:2.7509576789408003e-39;enco1:552836,joint1:1.9735453169026783e-39;enco2:0,joint2:0.0;enco3:0,joint3:0.0;enco4:0,joint4:41.257713317871094;enco5:1115924430,joint5:-227.4999542236328;
time:256.858883959:enco0:648974,joint0:2.7511538607258058e-39;enco1:552836,joint1:1.973686848047575e-39;enco2:0,joint2:0.0;enco3:0,joint3:0.0;enco4:0,joint4:41.26066589355469;enco5:1115925047,joint5:-227.4999542236328;
time:256.862879997:enco0:649018,joint0:2.7513416347200253e-39;enco1:552836,joint1:1.9738213727001503e-39;enco2:0,joint2:0.0;enco3:0,joint3:0.0;enco4:0,joint4:41.26348876953125;enco5:1115925637,joint5:-227.4999542236328;
time:256.866877711:enco0:649060,joint0:2.7515224022219232e-39;enco1:552836,joint1:1.9739502921588682e-39;enco2:0,joint2:0.0;enco3:0,joint3:0.0;enco4:0,joint4:41.26618194580078;enco5:1115926200,joint5:-227.4999542236328;
time:256.870876262:enco0:649101,joint0:2.751693360634571e-39;enco1:552836,joint1:1.9740736064237287e-39;enco2:0,joint2:0.0;enco3:0,joint3:0.0;enco4:0,joint4:41.26874923706055;enco5:1115926737,joint5:-227.4999542236328;
time:256.874873976:enco0:649139,joint0:2.7518559112564325e-39;enco1:552836,joint1:1.9741899141962677e-39;enco2:0,joint2:0.0;enco3:0,joint3:0.0;enco4:0,joint4:41.27119445800781;enco5:1115927249,joint5:-227.4999542236328;
time:256.878871690:enco0:649176,joint0:2.7520114553859726e-39;enco1:552836,joint1:1.9743020180734137e-39;enco2:0,joint2:0.0;enco3:0,joint3:0.0;enco4:0,joint4:41.273521423339844;enco5:1115927735,joint5:-227.4999542236328;
time:256.882869404:enco0:649211,joint0:2.7521585917247267e-39;enco1:552836,joint1:1.974407115458238e-39;enco2:0,joint2:0.0;enco3:0,joint3:0.0;enco4:0,joint4:41.275733947753906;enco5:1115928198,joint5:-227.4999542236328;
time:256.886868794:enco0:649244,joint0:2.752298721571159e-39;enco1:552836,joint1:1.9745080089476694e-39;enco2:0,joint2:0.0;enco3:0,joint3:0.0;enco4:0,joint4:41.277828216552734;enco5:1115928636,joint5:-227.4999542236328;
time:256.890867345:enco0:649275,joint0:2.7524304436268057e-39;enco1:552836,joint1:1.9746018959447792e-39;enco2:0,joint2:0.0;enco3:0,joint3:0.0;enco4:0,joint4:41.279815673828125;enco5:1115929052,joint5:-227.4999542236328;
time:256.894864221:enco0:649304,joint0:2.752556560488595e-39;enco1:552836,joint1:1.974691579046496e-39;enco2:0,joint2:0.0;enco3:0,joint3:0.0;enco4:0,joint4:41.28169631958008;enco5:1115929445,joint5:-227.4999542236328;
time:256.898861097:enco0:649332,joint0:2.7526742695595982e-39;enco1:552836,joint1:1.9747770582528198e-39;enco2:0,joint2:0.0;enco3:0,joint3:0.0;enco4:0,joint4:41.283470153808594;enco5:1115929816,joint5:-227.4999542236328;
time:256.902859648:enco0:649359,joint0:2.7527863734367442e-39;enco1:552836,joint1:1.9748569322652863e-39;enco2:0,joint2:0.0;enco3:0,joint3:0.0;enco4:0,joint4:41.28514099121094;enco5:1115930166,joint5:-227.4999542236328;
time:256.906856524:enco0:649383,joint0:2.7528914708215686e-39;enco1:552836,joint1:1.97493260238236e-39;enco2:0,joint2:0.0;enco3:0,joint3:0.0;enco4:0,joint4:41.28671646118164;enco5:1115930495,joint5:-227.4999542236328;
time:256.910855076:enco0:649407,joint0:2.7529895617140713e-39;enco1:552836,joint1:1.975002667305576e-39;enco2:0,joint2:0.0;enco3:0,joint3:0.0;enco4:0,joint4:41.2881965637207;enco5:1115930804,joint5:-227.4999542236328;
time:256.914852790:enco0:649429,joint0:2.7530820474127167e-39;enco1:552836,joint1:1.9750699296318637e-39;enco2:0,joint2:0.0;enco3:0,joint3:0.0;enco4:0,joint4:41.28958511352539;enco5:1115931094,joint5:-227.4999542236328;
time:256.918850503:enco0:649449,joint0:2.753168927917505e-39;enco1:552836,joint1:1.975131586764294e-39;enco2:0,joint2:0.0;enco3:0,joint3:0.0;enco4:0,joint4:41.2908821105957;enco5:1115931366,joint5:-227.4999542236328;
time:256.922847379:enco0:649468,joint0:2.7532488019299714e-39;enco1:552836,joint1:1.9751890400013313e-39;enco2:0,joint2:0.0;enco3:0,joint3:0.0;enco4:0,joint4:41.292091369628906;enco5:1115931619,joint5:-227.4999542236328;
time:256.926846769:enco0:649486,joint0:2.753324472047045e-39;enco1:552836,joint1:1.97524369064144e-39;enco2:0,joint2:0.0;enco3:0,joint3:0.0;enco4:0,joint4:41.29322052001953;enco5:1115931855,joint5:-227.4999542236328;
time:256.930843644:enco0:649502,joint0:2.7533945369702612e-39;enco1:552836,joint1:1.9752941373861557e-39;enco2:0,joint2:0.0;enco3:0,joint3:0.0;enco4:0,joint4:41.29426956176758;enco5:1115932074,joint5:-227.4999542236328;
time:256.934842196:enco0:649517,joint0:2.75345899669962e-39;enco1:552836,joint1:1.9753403802354784e-39;enco2:0,joint2:0.0;enco3:0,joint3:0.0;enco4:0,joint4:41.29523849487305;enco5:1115932277,joint5:-227.4999542236328;
time:256.938839072:enco0:649532,joint0:2.753519252533586e-39;enco1:552836,joint1:1.975382419189408e-39;enco2:0,joint2:0.0;enco3:0,joint3:0.0;enco4:0,joint4:41.2961311340332;enco5:1115932464,joint5:-227.4999542236328;
time:256.942838462:enco0:649544,joint0:2.7535739031736947e-39;enco1:552836,joint1:1.9754216555464092e-39;enco2:0,joint2:0.0;enco3:0,joint3:0.0;enco4:0,joint4:41.29695510864258;enco5:1115932636,joint5:-227.4999542236328;
time:256.946835337:enco0:649556,joint0:2.7536243499184104e-39;enco1:552836,joint1:1.9754580893064817e-39;enco2:0,joint2:0.0;enco3:0,joint3:0.0;enco4:0,joint4:41.29771041870117;enco5:1115932794,joint5:-227.4999542236328;
time:256.950833050:enco0:649567,joint0:2.753670592767733e-39;enco1:552836,joint1:1.9754917204696255e-39;enco2:0,joint2:0.0;enco3:0,joint3:0.0;enco4:0,joint4:41.29840087890625;enco5:1115932938,joint5:-227.4999542236328;
time:256.954834116:enco0:649577,joint0:2.7537112304231986e-39;enco1:552836,joint1:1.9755211477373763e-39;enco2:0,joint2:0.0;enco3:0,joint3:0.0;enco4:0,joint4:41.29902648925781;enco5:1115933069,joint5:-227.4999542236328;
time:256.958828477:enco0:649586,joint0:2.7537490654817353e-39;enco1:552836,joint1:1.9755477724081985e-39;enco2:0,joint2:0.0;enco3:0,joint3:0.0;enco4:0,joint4:41.29959487915039;enco5:1115933188,joint5:-227.4999542236328;
time:256.962827867:enco0:649594,joint0:2.7537840979433435e-39;enco1:552836,joint1:1.9755729957805563e-39;enco2:0,joint2:0.0;enco3:0,joint3:0.0;enco4:0,joint4:41.300106048583984;enco5:1115933295,joint5:-227.4999542236328;
time:256.966824743:enco0:649601,joint0:2.7538135252110943e-39;enco1:552836,joint1:1.9755954165559855e-39;enco2:0,joint2:0.0;enco3:0,joint3:0.0;enco4:0,joint4:41.300559997558594;enco5:1115933390,joint5:-227.4999542236328;
time:256.970823295:enco0:649608,joint0:2.7538415511803808e-39;enco1:552836,joint1:1.9756136334360217e-39;enco2:0,joint2:0.0;enco3:0,joint3:0.0;enco4:0,joint4:41.300968170166016;enco5:1115933475,joint5:-227.4999542236328;
time:256.974820170:enco0:649613,joint0:2.7538653732542743e-39;enco1:552836,joint1:1.975631850316058e-39;enco2:0,joint2:0.0;enco3:0,joint3:0.0;enco4:0,joint4:41.301326751708984;enco5:1115933550,joint5:-227.4999542236328;
time:256.978817884:enco0:649618,joint0:2.7538863927312392e-39;enco1:552836,joint1:1.9756458633007012e-39;enco2:0,joint2:0.0;enco3:0,joint3:0.0;enco4:0,joint4:41.301639556884766;enco5:1115933616,joint5:-227.4999542236328;
time:256.982815598:enco0:649622,joint0:2.7539046096112754e-39;enco1:552836,joint1:1.9756598762853444e-39;enco2:0,joint2:0.0;enco3:0,joint3:0.0;enco4:0,joint4:41.301910400390625;enco5:1115933672,joint5:-227.4999542236328;
time:256.986822531:enco0:649626,joint0:2.753920023894383e-39;enco1:552836,joint1:1.975671086673059e-39;enco2:0,joint2:0.0;enco3:0,joint3:0.0;enco4:0,joint4:41.30214309692383;enco5:1115933721,joint5:-227.4999542236328;
time:256.990813540:enco0:649629,joint0:2.753932635580562e-39;enco1:552836,joint1:1.975679494463845e-39;enco2:0,joint2:0.0;enco3:0,joint3:0.0;enco4:0,joint4:41.30234146118164;enco5:1115933762,joint5:-227.4999542236328;
time:256.994811253:enco0:649632,joint0:2.7539438459682765e-39;enco1:552836,joint1:1.975687902254631e-39;enco2:0,joint2:0.0;enco3:0,joint3:0.0;enco4:0,joint4:41.30250549316406;enco5:1115933797,joint5:-227.4999542236328;
time:256.998808967:enco0:649634,joint0:2.7539522537590624e-39;enco1:552836,joint1:1.9756935074484882e-39;enco2:0,joint2:0.0;enco3:0,joint3:0.0;enco4:0,joint4:41.30263900756836;enco5:1115933825,joint5:-227.4999542236328;
time:257.2805005:enco0:649636,joint0:2.753959260251384e-39;enco1:552836,joint1:1.9756991126423455e-39;enco2:0,joint2:0.0;enco3:0,joint3:0.0;enco4:0,joint4:41.30274963378906;enco5:1115933847,joint5:-227.4999542236328;
time:257.6805233:enco0:649637,joint0:2.7539662667437057e-39;enco1:552836,joint1:1.9757033165377385e-39;enco2:0,joint2:0.0;enco3:0,joint3:0.0;enco4:0,joint4:41.302833557128906;enco5:1115933865,joint5:-227.4999542236328;
time:257.10800432:enco0:649638,joint0:2.7539690693406343e-39;enco1:552836,joint1:1.975706119134667e-39;enco2:0,joint2:0.0;enco3:0,joint3:0.0;enco4:0,joint4:41.302894592285156;enco5:1115933878,joint5:-227.4999542236328;
time:257.14799822:enco0:649639,joint0:2.7539732732360273e-39;enco1:552836,joint1:1.9757089217315958e-39;enco2:0,joint2:0.0;enco3:0,joint3:0.0;enco4:0,joint4:41.302940368652344;enco5:1115933888,joint5:-227.4999542236328;
time:257.18796697:enco0:649639,joint0:2.7539746745344916e-39;enco1:552836,joint1:1.97571032303006e-39;enco2:0,joint2:0.0;enco3:0,joint3:0.0;enco4:0,joint4:41.30297088623047;enco5:1115933894,joint5:-227.4999542236328;
time:257.22794411:enco0:649639,joint0:2.753976075832956e-39;enco1:552836,joint1:1.97571032303006e-39;enco2:0,joint2:0.0;enco3:0,joint3:0.0;enco4:0,joint4:41.3029899597168;enco5:1115933898,joint5:-227.4999542236328;
time:257.26792125:enco0:649640,joint0:2.753976075832956e-39;enco1:552836,joint1:1.9757117243285245e-39;enco2:0,joint2:0.0;enco3:0,joint3:0.0;enco4:0,joint4:41.30299758911133;enco5:1115933900,joint5:-227.4999542236328;
time:257.30789839:enco0:649640,joint0:2.7539774771314203e-39;enco1:552836,joint1:1.9757117243285245e-39;enco2:0,joint2:0.0;enco3:0,joint3:0.0;enco4:0,joint4:41.303001403808594;enco5:1115933901,joint5:-227.4999542236328;
time:257.34812695:enco0:649640,joint0:2.7539774771314203e-39;enco1:552836,joint1:1.9757117243285245e-39;enco2:0,joint2:0.0;enco3:0,joint3:0.0;enco4:0,joint4:41.303001403808594;enco5:1115933901,joint5:-227.4999542236328;
time:257.38843933:enco0:649640,joint0:2.7539774771314203e-39;enco1:552829,joint1:1.9757117243285245e-39;enco2:0,joint2:0.0;enco3:0,joint3:0.0;enco4:0,joint4:41.303001403808594;enco5:1115933901,joint5:-227.49734497070312;
time:257.42827399:enco0:649640,joint0:2.7539774771314203e-39;enco1:552781,joint1:1.9757117243285245e-39;enco2:0,joint2:0.0;enco3:0,joint3:0.0;enco4:0,joint4:41.303001403808594;enco5:1115933901,joint5:-227.4793701171875;
time:257.46827627:enco0:649640,joint0:2.7539774771314203e-39;enco1:552650,joint1:1.9757117243285245e-39;enco2:0,joint2:0.0;enco3:0,joint3:0.0;enco4:0,joint4:41.303001403808594;enco5:1115933901,joint5:-227.43052673339844;
time:257.50820312:enco0:649640,joint0:2.753976075832956e-39;enco1:552394,joint1:1.9757117243285245e-39;enco2:0,joint2:0.0;enco3:0,joint3:0.0;enco4:0,joint4:41.303001403808594;enco5:1115933900,joint5:-227.33543395996094;
time:257.54821377:enco0:649640,joint0:2.753976075832956e-39;enco1:551973,joint1:1.9757117243285245e-39;enco2:0,joint2:0.0;enco3:0,joint3:0.0;enco4:0,joint4:41.303001403808594;enco5:1115933900,joint5:-227.17860412597656;
time:257.58793110:enco0:649640,joint0:2.7539774771314203e-39;enco1:551345,joint1:1.9757117243285245e-39;enco2:0,joint2:0.0;enco3:0,joint3:0.0;enco4:0,joint4:41.303001403808594;enco5:1115933901,joint5:-226.94468688964844;
time:257.62805909:enco0:649640,joint0:2.7539774771314203e-39;enco1:550469,joint1:1.9757117243285245e-39;enco2:0,joint2:0.0;enco3:0,joint3:0.0;enco4:0,joint4:41.303001403808594;enco5:1115933901,joint5:-226.6182403564453;
time:257.66802785:enco0:649640,joint0:2.7539774771314203e-39;enco1:549304,joint1:1.9757117243285245e-39;enco2:0,joint2:0.0;enco3:0,joint3:0.0;enco4:0,joint4:41.303001403808594;enco5:1115933901,joint5:-226.18382263183594;
time:257.70774518:enco0:649640,joint0:2.7539774771314203e-39;enco1:547809,joint1:1.9757117243285245e-39;enco2:0,joint2:0.0;enco3:0,joint3:0.0;enco4:0,joint4:41.303001403808594;enco5:1115933901,joint5:-225.6260223388672;
time:257.74773069:enco0:649640,joint0:2.7539774771314203e-39;enco1:545944,joint1:1.9757117243285245e-39;enco2:0,joint2:0.0;enco3:0,joint3:0.0;enco4:0,joint4:41.303001403808594;enco5:1115933901,joint5:-224.92942810058594;
time:257.78770783:enco0:649640,joint0:2.7539774771314203e-39;enco1:543668,joint1:1.9757117243285245e-39;enco2:0,joint2:0.0;enco3:0,joint3:0.0;enco4:0,joint4:41.303001403808594;enco5:1115933901,joint5:-224.07858276367188;
time:257.82769335:enco0:649640,joint0:2.7539774771314203e-39;enco1:540943,joint1:1.9757117243285245e-39;enco2:0,joint2:0.0;enco3:0,joint3:0.0;enco4:0,joint4:41.303001403808594;enco5:1115933901,joint5:-223.05809020996094;
time:257.86766211:enco0:649640,joint0:2.7539774771314203e-39;enco1:537728,joint1:1.9757117243285245e-39;enco2:0,joint2:0.0;enco3:0,joint3:0.0;enco4:0,joint4:41.303001403808594;enco5:1115933901,joint5:-221.85252380371094;
time:257.90764762:enco0:649640,joint0:2.7539774771314203e-39;enco1:533986,joint1:1.9757117243285245e-39;enco2:0,joint2:0.0;enco3:0,joint3:0.0;enco4:0,joint4:41.303001403808594;enco5:1115933901,joint5:-220.44647216796875;
time:257.94760800:enco0:649640,joint0:2.753976075832956e-39;enco1:529679,joint1:1.9757117243285245e-39;enco2:0,joint2:0.0;enco3:0,joint3:0.0;enco4:0,joint4:41.303001403808594;enco5:1115933900,joint5:-218.82447814941406;
time:257.98759352:enco0:649640,joint0:2.753976075832956e-39;enco1:524769,joint1:1.9757117243285245e-39;enco2:0,joint2:0.0;enco3:0,joint3:0.0;enco4:0,joint4:41.303001403808594;enco5:1115933900,joint5:-216.97116088867188;
time:257.102762094:enco0:649640,joint0:2.7539774771314203e-39;enco1:519234,joint1:1.9757117243285245e-39;enco2:0,joint2:0.0;enco3:0,joint3:0.0;enco4:0,joint4:41.303001403808594;enco5:1115933901,joint5:-214.87619018554688;
time:257.106759808:enco0:649640,joint0:2.753976075832956e-39;enco1:513107,joint1:1.9757117243285245e-39;enco2:0,joint2:0.0;enco3:0,joint3:0.0;enco4:0,joint4:41.303001403808594;enco5:1115933900,joint5:-212.54989624023438;
time:257.110758360:enco0:649640,joint0:2.7539774771314203e-39;enco1:506433,joint1:1.9757117243285245e-39;enco2:0,joint2:0.0;enco3:0,joint3:0.0;enco4:0,joint4:41.303001403808594;enco5:1115933901,joint5:-210.00765991210938;
time:257.114755235:enco0:649640,joint0:2.753976075832956e-39;enco1:499258,joint1:1.9757117243285245e-39;enco2:0,joint2:0.0;enco3:0,joint3:0.0;enco4:0,joint4:41.303001403808594;enco5:1115933900,joint5:-207.26492309570312;
time:257.118752949:enco0:649640,joint0:2.7539774771314203e-39;enco1:491627,joint1:1.9757117243285245e-39;enco2:0,joint2:0.0;enco3:0,joint3:0.0;enco4:0,joint4:41.303001403808594;enco5:1115933901,joint5:-204.33712768554688;
time:257.122750663:enco0:649640,joint0:2.7539774771314203e-39;enco1:483585,joint1:1.9757117243285245e-39;enco2:0,joint2:0.0;enco3:0,joint3:0.0;enco4:0,joint4:41.303001403808594;enco5:1115933901,joint5:-201.2396697998047;
time:257.126750052:enco0:649640,joint0:2.7539774771314203e-39;enco1:475175,joint1:1.9757117243285245e-39;enco2:0,joint2:0.0;enco3:0,joint3:0.0;enco4:0,joint4:41.303001403808594;enco5:1115933901,joint5:-197.9879913330078;
time:257.130745252:enco0:649640,joint0:2.7539774771314203e-39;enco1:466442,joint1:1.9757117243285245e-39;enco2:0,joint2:0.0;enco3:0,joint3:0.0;enco4:0,joint4:41.303001403808594;enco5:1115933901,joint5:-194.59750366210938;
time:257.134744642:enco0:649640,joint0:2.7539774771314203e-39;enco1:457427,joint1:1.9757117243285245e-39;enco2:0,joint2:0.0;enco3:0,joint3:0.0;enco4:0,joint4:41.303001403808594;enco5:1115933901,joint5:-191.08363342285156;
time:257.138742356:enco0:649640,joint0:2.7539774771314203e-39;enco1:448174,joint1:1.9757117243285245e-39;enco2:0,joint2:0.0;enco3:0,joint3:0.0;enco4:0,joint4:41.303001403808594;enco5:1115933901,joint5:-187.4617919921875;
time:257.142739231:enco0:649640,joint0:2.7539774771314203e-39;enco1:438723,joint1:1.9757117243285245e-39;enco2:0,joint2:0.0;enco3:0,joint3:0.0;enco4:0,joint4:41.303001403808594;enco5:1115933901,joint5:-183.74742126464844;
time:257.146736945:enco0:649640,joint0:2.7539774771314203e-39;enco1:429116,joint1:1.9757117243285245e-39;enco2:0,joint2:0.0;enco3:0,joint3:0.0;enco4:0,joint4:41.303001403808594;enco5:1115933901,joint5:-179.9559326171875;
time:257.150734658:enco0:649640,joint0:2.753976075832956e-39;enco1:419391,joint1:1.9757117243285245e-39;enco2:0,joint2:0.0;enco3:0,joint3:0.0;enco4:0,joint4:41.303001403808594;enco5:1115933900,joint5:-176.10275268554688;
time:257.154737400:enco0:649640,joint0:2.753976075832956e-39;enco1:409589,joint1:1.9757117243285245e-39;enco2:0,joint2:0.0;enco3:0,joint3:0.0;enco4:0,joint4:41.303001403808594;enco5:1115933900,joint5:-172.20327758789062;
time:257.158731761:enco0:649640,joint0:2.753976075832956e-39;enco1:399748,joint1:1.9757117243285245e-39;enco2:0,joint2:0.0;enco3:0,joint3:0.0;enco4:0,joint4:41.303001403808594;enco5:1115933900,joint5:-168.2729949951172;
time:257.162729475:enco0:649640,joint0:2.753976075832956e-39;enco1:389905,joint1:1.9757117243285245e-39;enco2:0,joint2:0.0;enco3:0,joint3:0.0;enco4:0,joint4:41.303001403808594;enco5:1115933900,joint5:-164.32725524902344;
time:257.166720484:enco0:649640,joint0:2.753976075832956e-39;enco1:380093,joint1:1.9757117243285245e-39;enco2:0,joint2:0.0;enco3:0,joint3:0.0;enco4:0,joint4:41.303001403808594;enco5:1115933900,joint5:-160.3789825439453;
time:257.170717359:enco0:649640,joint0:2.753976075832956e-39;enco1:370315,joint1:1.9757117243285245e-39;enco2:0,joint2:0.0;enco3:0,joint3:0.0;enco4:0,joint4:41.303001403808594;enco5:1115933900,joint5:-156.43069458007812;
time:257.174715073:enco0:649640,joint0:2.7539774771314203e-39;enco1:360572,joint1:1.9757117243285245e-39;enco2:0,joint2:0.0;enco3:0,joint3:0.0;enco4:0,joint4:41.303001403808594;enco5:1115933901,joint5:-152.48240661621094;
time:257.178711949:enco0:649640,joint0:2.7539774771314203e-39;enco1:350861,joint1:1.9757117243285245e-39;enco2:0,joint2:0.0;enco3:0,joint3:0.0;enco4:0,joint4:41.303001403808594;enco5:1115933901,joint5:-148.53408813476562;
time:257.182710501:enco0:649640,joint0:2.753976075832956e-39;enco1:341181,joint1:1.9757117243285245e-39;enco2:0,joint2:0.0;enco3:0,joint3:0.0;enco4:0,joint4:41.303001403808594;enco5:1115933900,joint5:-144.5858154296875;
time:257.186709052:enco0:649640,joint0:2.7539774771314203e-39;enco1:331532,joint1:1.9757117243285245e-39;enco2:0,joint2:0.0;enco3:0,joint3:0.0;enco4:0,joint4:41.303001403808594;enco5:1115933901,joint5:-140.6375274658203;
time:257.190706766:enco0:649640,joint0:2.7539774771314203e-39;enco1:321913,joint1:1.9757117243285245e-39;enco2:0,joint2:0.0;enco3:0,joint3:0.0;enco4:0,joint4:41.303001403808594;enco5:1115933901,joint5:-136.68923950195312;
time:257.194704480:enco0:649640,joint0:2.7539774771314203e-39;enco1:312321,joint1:1.9757117243285245e-39;enco2:0,joint2:0.0;enco3:0,joint3:0.0;enco4:0,joint4:41.303001403808594;enco5:1115933901,joint5:-132.74095153808594;
time:257.198702194:enco0:649640,joint0:2.753976075832956e-39;enco1:302757,joint1:1.9757117243285245e-39;enco2:0,joint2:0.0;enco3:0,joint3:0.0;enco4:0,joint4:41.303001403808594;enco5:1115933900,joint5:-128.79266357421875;
time:257.202700745:enco0:649640,joint0:2.7539774771314203e-39;enco1:293218,joint1:1.9757117243285245e-39;enco2:0,joint2:0.0;enco3:0,joint3:0.0;enco4:0,joint4:41.303001403808594;enco5:1115933901,joint5:-124.84435272216797;
time:257.206698459:enco0:649640,joint0:2.753976075832956e-39;enco1:283705,joint1:1.9757117243285245e-39;enco2:0,joint2:0.0;enco3:0,joint3:0.0;enco4:0,joint4:41.303001403808594;enco5:1115933900,joint5:-120.89608764648438;
time:257.210696173:enco0:649640,joint0:2.753976075832956e-39;enco1:274216,joint1:1.9757117243285245e-39;enco2:0,joint2:0.0;enco3:0,joint3:0.0;enco4:0,joint4:41.303001403808594;enco5:1115933900,joint5:-116.94778442382812;
time:257.214693048:enco0:649640,joint0:2.7539774771314203e-39;enco1:264750,joint1:1.9757117243285245e-39;enco2:0,joint2:0.0;enco3:0,joint3:0.0;enco4:0,joint4:41.303001403808594;enco5:1115933901,joint5:-112.99949645996094;
time:257.218690762:enco0:649640,joint0:2.7539774771314203e-39;enco1:255307,joint1:1.9757117243285245e-39;enco2:0,joint2:0.0;enco3:0,joint3:0.0;enco4:0,joint4:41.303001403808594;enco5:1115933901,joint5:-109.05120849609375;
time:257.222687638:enco0:649640,joint0:2.7539774771314203e-39;enco1:245885,joint1:1.9757117243285245e-39;enco2:0,joint2:0.0;enco3:0,joint3:0.0;enco4:0,joint4:41.303001403808594;enco5:1115933901,joint5:-105.10289764404297;
time:257.226686190:enco0:649640,joint0:2.753976075832956e-39;enco1:236483,joint1:1.9757117243285245e-39;enco2:0,joint2:0.0;enco3:0,joint3:0.0;enco4:0,joint4:41.303001403808594;enco5:1115933900,joint5:-101.15463256835938;
time:257.230684741:enco0:649640,joint0:2.7539774771314203e-39;enco1:227100,joint1:1.9757117243285245e-39;enco2:0,joint2:0.0;enco3:0,joint3:0.0;enco4:0,joint4:41.303001403808594;enco5:1115933901,joint5:-97.20632934570312;
time:257.234683293:enco0:649640,joint0:2.7539774771314203e-39;enco1:217737,joint1:1.9757117243285245e-39;enco2:0,joint2:0.0;enco3:0,joint3:0.0;enco4:0,joint4:41.303001403808594;enco5:1115933901,joint5:-93.25804138183594;
time:257.238680169:enco0:649640,joint0:2.7539774771314203e-39;enco1:208391,joint1:1.9757117243285245e-39;enco2:0,joint2:0.0;enco3:0,joint3:0.0;enco4:0,joint4:41.303001403808594;enco5:1115933901,joint5:-89.30975341796875;
time:257.242678721:enco0:649640,joint0:2.7539774771314203e-39;enco1:199062,joint1:1.9757117243285245e-39;enco2:0,joint2:0.0;enco3:0,joint3:0.0;enco4:0,joint4:41.303001403808594;enco5:1115933901,joint5:-85.3614501953125;
time:257.246675596:enco0:649640,joint0:2.753976075832956e-39;enco1:189749,joint1:1.9757117243285245e-39;enco2:0,joint2:0.0;enco3:0,joint3:0.0;enco4:0,joint4:41.303001403808594;enco5:1115933900,joint5:-81.41317749023438;
time:257.250673310:enco0:649640,joint0:2.7539774771314203e-39;enco1:180451,joint1:1.9757117243285245e-39;enco2:0,joint2:0.0;enco3:0,joint3:0.0;enco4:0,joint4:41.303001403808594;enco5:1115933901,joint5:-77.4648666381836;
time:257.254671023:enco0:649640,joint0:2.7539774771314203e-39;enco1:171168,joint1:1.9757117243285245e-39;enco2:0,joint2:0.0;enco3:0,joint3:0.0;enco4:0,joint4:41.303001403808594;enco5:1115933901,joint5:-73.51658630371094;
time:257.258669575:enco0:649640,joint0:2.753976075832956e-39;enco1:161899,joint1:1.9757117243285245e-39;enco2:0,joint2:0.0;enco3:0,joint3:0.0;enco4:0,joint4:41.303001403808594;enco5:1115933900,joint5:-69.56829833984375;
time:257.262666450:enco0:649640,joint0:2.7539774771314203e-39;enco1:152642,joint1:1.9757117243285245e-39;enco2:0,joint2:0.0;enco3:0,joint3:0.0;enco4:0,joint4:41.303001403808594;enco5:1115933901,joint5:-65.6199951171875;
time:257.266665002:enco0:649640,joint0:2.7539774771314203e-39;enco1:143397,joint1:1.9757117243285245e-39;enco2:0,joint2:0.0;enco3:0,joint3:0.0;enco4:0,joint4:41.303001403808594;enco5:1115933901,joint5:-61.67171859741211;
time:257.270661878:enco0:649640,joint0:2.7539774771314203e-39;enco1:134164,joint1:1.9757117243285245e-39;enco2:0,joint2:0.0;enco3:0,joint3:0.0;enco4:0,joint4:41.303001403808594;enco5:1115933901,joint5:-57.723419189453125;
time:257.274660429:enco0:649640,joint0:2.753976075832956e-39;enco1:124941,joint1:1.9757117243285245e-39;enco2:0,joint2:0.0;enco3:0,joint3:0.0;enco4:0,joint4:41.303001403808594;enco5:1115933900,joint5:-53.775142669677734;
time:257.278658143:enco0:649640,joint0:2.7539774771314203e-39;enco1:115729,joint1:1.9757117243285245e-39;enco2:0,joint2:0.0;enco3:0,joint3:0.0;enco4:0,joint4:41.303001403808594;enco5:1115933901,joint5:-49.82684326171875;
time:257.282657533:enco0:649640,joint0:2.7539774771314203e-39;enco1:106525,joint1:1.9757117243285245e-39;enco2:0,joint2:0.0;enco3:0,joint3:0.0;enco4:0,joint4:41.303001403808594;enco5:1115933901,joint5:-45.8785400390625;
time:257.286653571:enco0:649640,joint0:2.7539774771314203e-39;enco1:97329,joint1:1.9757117243285245e-39;enco2:0,joint2:0.0;enco3:0,joint3:0.0;enco4:0,joint4:41.303001403808594;enco5:1115933901,joint5:-41.93026351928711;
time:257.290652122:enco0:649640,joint0:2.7539774771314203e-39;enco1:88141,joint1:1.9757117243285245e-39;enco2:0,joint2:0.0;enco3:0,joint3:0.0;enco4:0,joint4:41.303001403808594;enco5:1115933901,joint5:-37.981964111328125;
time:257.294648998:enco0:649640,joint0:2.7539774771314203e-39;enco1:78960,joint1:1.9757117243285245e-39;enco2:0,joint2:0.0;enco3:0,joint3:0.0;enco4:0,joint4:41.303001403808594;enco5:1115933901,joint5:-34.033687591552734;
time:257.298647550:enco0:649640,joint0:2.753976075832956e-39;enco1:69785,joint1:1.9757117243285245e-39;enco2:0,joint2:0.0;enco3:0,joint3:0.0;enco4:0,joint4:41.303001403808594;enco5:1115933900,joint5:-30.08538818359375;
time:257.302646102:enco0:649640,joint0:2.7539774771314203e-39;enco1:60616,joint1:1.9757117243285245e-39;enco2:0,joint2:0.0;enco3:0,joint3:0.0;enco4:0,joint4:41.303001403808594;enco5:1115933901,joint5:-26.1370849609375;
time:257.306642977:enco0:649640,joint0:2.7539774771314203e-39;enco1:51451,joint1:1.9757117243285245e-39;enco2:0,joint2:0.0;enco3:0,joint3:0.0;enco4:0,joint4:41.303001403808594;enco5:1115933901,joint5:-22.188812255859375;
time:257.310641529:enco0:649640,joint0:2.7539774771314203e-39;enco1:42290,joint1:1.9757117243285245e-39;enco2:0,joint2:0.0;enco3:0,joint3:0.0;enco4:0,joint4:41.303001403808594;enco5:1115933901,joint5:-18.240507125854492;
time:257.314638405:enco0:649640,joint0:2.7539774771314203e-39;enco1:33132,joint1:1.9757117243285245e-39;enco2:0,joint2:0.0;enco3:0,joint3:0.0;enco4:0,joint4:41.303001403808594;enco5:1115933901,joint5:-14.292205810546875;
time:257.318636956:enco0:649640,joint0:2.7539774771314203e-39;enco1:23977,joint1:1.9757117243285245e-39;enco2:0,joint2:0.0;enco3:0,joint3:0.0;enco4:0,joint4:41.303001403808594;enco5:1115933901,joint5:-10.34393310546875;
time:257.322634670:enco0:649640,joint0:2.753976075832956e-39;enco1:14824,joint1:1.9757117243285245e-39;enco2:0,joint2:0.0;enco3:0,joint3:0.0;enco4:0,joint4:41.303001403808594;enco5:1115933900,joint5:-6.395629405975342;
time:257.326634060:enco0:649640,joint0:2.7539774771314203e-39;enco1:5672,joint1:1.9757117243285245e-39;enco2:0,joint2:0.0;enco3:0,joint3:0.0;enco4:0,joint4:41.303001403808594;enco5:1115933901,joint5:-2.447326421737671;
time:257.330630936:enco0:649640,joint0:2.7539774771314203e-39;enco1:-3478,joint1:1.9757117243285245e-39;enco2:0,joint2:0.0;enco3:0,joint3:0.0;enco4:0,joint4:41.303001403808594;enco5:1115933901,joint5:1.500946044921875;
time:257.334626973:enco0:649640,joint0:2.7539774771314203e-39;enco1:-12630,joint1:1.9757117243285245e-39;enco2:0,joint2:0.0;enco3:0,joint3:0.0;enco4:0,joint4:41.303001403808594;enco5:1115933901,joint5:5.44921875;
time:257.338625525:enco0:649640,joint0:2.753976075832956e-39;enco1:-21783,joint1:1.9757117243285245e-39;enco2:0,joint2:0.0;enco3:0,joint3:0.0;enco4:0,joint4:41.303001403808594;enco5:1115933900,joint5:9.39752197265625;
time:257.342624077:enco0:649640,joint0:2.7539774771314203e-39;enco1:-30938,joint1:1.9757117243285245e-39;enco2:0,joint2:0.0;enco3:0,joint3:0.0;enco4:0,joint4:41.303001403808594;enco5:1115933901,joint5:13.3458251953125;
time:257.346620952:enco0:649640,joint0:2.7539774771314203e-39;enco1:-40095,joint1:1.9757117243285245e-39;enco2:0,joint2:0.0;enco3:0,joint3:0.0;enco4:0,joint4:41.303001403808594;enco5:1115933901,joint5:17.294097900390625;
time:257.350619503:enco0:649640,joint0:2.753976075832956e-39;enco1:-49255,joint1:1.9757117243285245e-39;enco2:0,joint2:0.0;enco3:0,joint3:0.0;enco4:0,joint4:41.303001403808594;enco5:1115933900,joint5:21.242401123046875;
time:257.354619731:enco0:649640,joint0:2.7539774771314203e-39;enco1:-58419,joint1:1.9757117243285245e-39;enco2:0,joint2:0.0;enco3:0,joint3:0.0;enco4:0,joint4:41.303001403808594;enco5:1115933901,joint5:25.190702438354492;
time:257.358615769:enco0:649640,joint0:2.7539774771314203e-39;enco1:-67587,joint1:1.9757117243285245e-39;enco2:0,joint2:0.0;enco3:0,joint3:0.0;enco4:0,joint4:41.303001403808594;enco5:1115933901,joint5:29.138975143432617;
time:257.362613482:enco0:649640,joint0:2.753976075832956e-39;enco1:-76761,joint1:1.9757117243285245e-39;enco2:0,joint2:0.0;enco3:0,joint3:0.0;enco4:0,joint4:41.303001403808594;enco5:1115933900,joint5:33.0872802734375;
time:257.366653101:enco0:649640,joint0:2.753980279728349e-39;enco1:-85937,joint1:1.9757117243285245e-39;enco2:0,joint2:0.0;enco3:0,joint3:0.0;enco4:0,joint4:41.303001403808594;enco5:1115933912,joint5:37.03414535522461;
time:257.370642434:enco0:649640,joint0:2.7540055031007068e-39;enco1:-95100,joint1:1.9757117243285245e-39;enco2:0,joint2:0.0;enco3:0,joint3:0.0;enco4:0,joint4:41.303001403808594;enco5:1115933990,joint5:40.9725341796875;
time:257.374639309:enco0:649640,joint0:2.7540727654269944e-39;enco1:-104231,joint1:1.9757117243285245e-39;enco2:0,joint2:0.0;enco3:0,joint3:0.0;enco4:0,joint4:41.303001403808594;enco5:1115934200,joint5:44.89388656616211;
time:257.378635347:enco0:649640,joint0:2.7542016848857123e-39;enco1:-113310,joint1:1.9757117243285245e-39;enco2:0,joint2:0.0;enco3:0,joint3:0.0;enco4:0,joint4:41.303001403808594;enco5:1115934604,joint5:48.789791107177734;
time:257.382632222:enco0:649640,joint0:2.7544104783568967e-39;enco1:-122319,joint1:1.9757117243285245e-39;enco2:0,joint2:0.0;enco3:0,joint3:0.0;enco4:0,joint4:41.303001403808594;enco5:1115935260,joint5:52.651702880859375;
time:257.386630774:enco0:649640,joint0:2.754718764019048e-39;enco1:-131238,joint1:1.9757117243285245e-39;enco2:0,joint2:0.0;enco3:0,joint3:0.0;enco4:0,joint4:41.303001403808594;enco5:1115936226,joint5:56.471126556396484;
time:257.390627650:enco0:649640,joint0:2.7551419561552742e-39;enco1:-140047,joint1:1.9757117243285245e-39;enco2:0,joint2:0.0;enco3:0,joint3:0.0;enco4:0,joint4:41.303001403808594;enco5:1115937556,joint5:60.239559173583984;
time:257.394626202:enco0:649640,joint0:2.7556996729440755e-39;enco1:-148727,joint1:1.9757117243285245e-39;enco2:0,joint2:0.0;enco3:0,joint3:0.0;enco4:0,joint4:41.303001403808594;enco5:1115939305,joint5:63.948577880859375;
time:257.398624754:enco0:649640,joint0:2.7564073286685595e-39;enco1:-157258,joint1:1.9757117243285245e-39;enco2:0,joint2:0.0;enco3:0,joint3:0.0;enco4:0,joint4:41.303001403808594;enco5:1115941523,joint5:67.58966064453125;
time:257.402621629:enco0:649640,joint0:2.757280337611834e-39;enco1:-165621,joint1:1.9757117243285245e-39;enco2:0,joint2:0.0;enco3:0,joint3:0.0;enco4:0,joint4:41.303001403808594;enco5:1115944261,joint5:71.15435791015625;
time:257.406619343:enco0:649640,joint0:2.7583355153554705e-39;enco1:-173794,joint1:1.9757117243285245e-39;enco2:0,joint2:0.0;enco3:0,joint3:0.0;enco4:0,joint4:41.303001403808594;enco5:1115947569,joint5:74.63412475585938;
time:257.410617057:enco0:649640,joint0:2.7595868748841125e-39;enco1:-181759,joint1:1.9757117243285245e-39;enco2:0,joint2:0.0;enco3:0,joint3:0.0;enco4:0,joint4:41.303001403808594;enco5:1115951494,joint5:78.0206298828125;
time:257.414615608:enco0:649640,joint0:2.761051231779332e-39;enco1:-189495,joint1:1.9757117243285245e-39;enco2:0,joint2:0.0;enco3:0,joint3:0.0;enco4:0,joint4:41.303001403808594;enco5:1115956087,joint5:81.30535888671875;
time:257.418613322:enco0:649640,joint0:2.762742599025772e-39;enco1:-196981,joint1:1.9757117243285245e-39;enco2:0,joint2:0.0;enco3:0,joint3:0.0;enco4:0,joint4:41.303001403808594;enco5:1115961393,joint5:84.47994995117188;
time:257.422611036:enco0:649640,joint0:2.7646777922050046e-39;enco1:-204198,joint1:1.9757117243285245e-39;enco2:0,joint2:0.0;enco3:0,joint3:0.0;enco4:0,joint4:41.303001403808594;enco5:1115967461,joint5:87.53597259521484;
time:257.426609588:enco0:649640,joint0:2.766870824301673e-39;enco1:-211124,joint1:1.9757117243285245e-39;enco2:0,joint2:0.0;enco3:0,joint3:0.0;enco4:0,joint4:41.303001403808594;enco5:1115974340,joint5:90.46504974365234;
time:257.430616520:enco0:649640,joint0:2.7693315044050273e-39;enco1:-217745,joint1:1.9757117243285245e-39;enco2:0,joint2:0.0;enco3:0,joint3:0.0;enco4:0,joint4:41.303001403808594;enco5:1115982059,joint5:93.26165771484375;
time:257.434611720:enco0:649640,joint0:2.77204441823196e-39;enco1:-224075,joint1:1.9757117243285245e-39;enco2:0,joint2:0.0;enco3:0,joint3:0.0;enco4:0,joint4:41.303001403808594;enco5:1115990567,joint5:95.93160247802734;
time:257.438611110:enco0:649640,joint0:2.7749871450070423e-39;enco1:-230133,joint1:1.9757117243285245e-39;enco2:0,joint2:0.0;enco3:0,joint3:0.0;enco4:0,joint4:41.303001403808594;enco5:1115999799,joint5:98.48355102539062;
time:257.442608823:enco0:649640,joint0:2.7781414678502374e-39;enco1:-235939,joint1:1.9757117243285245e-39;enco2:0,joint2:0.0;enco3:0,joint3:0.0;enco4:0,joint4:41.303001403808594;enco5:1116009690,joint5:100.9260482788086;
time:257.446608213:enco0:649640,joint0:2.7814849659861164e-39;enco1:-241512,joint1:1.9757117243285245e-39;enco2:0,joint2:0.0;enco3:0,joint3:0.0;enco4:0,joint4:41.303001403808594;enco5:1116020177,joint5:103.26775360107422;
time:257.450604251:enco0:649640,joint0:2.7849980212361788e-39;enco1:-246873,joint1:1.9757117243285245e-39;enco2:0,joint2:0.0;enco3:0,joint3:0.0;enco4:0,joint4:41.303001403808594;enco5:1116031197,joint5:105.51729583740234;
time:257.454601964:enco0:649640,joint0:2.7886638180188525e-39;enco1:-252040,joint1:1.9757117243285245e-39;enco2:0,joint2:0.0;enco3:0,joint3:0.0;enco4:0,joint4:41.303001403808594;enco5:1116042692,joint5:107.68325805664062;
time:257.458598839:enco0:649640,joint0:2.7924613368571727e-39;enco1:-257035,joint1:1.9757117243285245e-39;enco2:0,joint2:0.0;enco3:0,joint3:0.0;enco4:0,joint4:41.303001403808594;enco5:1116054602,joint5:109.77420043945312;
time:257.462597391:enco0:649640,joint0:2.796370959572639e-39;enco1:-261876,joint1:1.9757117243285245e-39;enco2:0,joint2:0.0;enco3:0,joint3:0.0;enco4:0,joint4:41.303001403808594;enco5:1116066867,joint5:111.79866790771484;
time:257.466595105:enco0:649640,joint0:2.8003772718821436e-39;enco1:-266585,joint1:1.9757117243285245e-39;enco2:0,joint2:0.0;enco3:0,joint3:0.0;enco4:0,joint4:41.303001403808594;enco5:1116079430,joint5:113.76528930664062;
time:257.470592818:enco0:649640,joint0:2.8044578530102575e-39;enco1:-271180,joint1:1.9757117243285245e-39;enco2:0,joint2:0.0;enco3:0,joint3:0.0;enco4:0,joint4:41.303001403808594;enco5:1116092232,joint5:115.6825180053711;
time:257.474592208:enco0:649640,joint0:2.8085986899723373e-39;enco1:-275684,joint1:1.9757117243285245e-39;enco2:0,joint2:0.0;enco3:0,joint3:0.0;enco4:0,joint4:41.303001403808594;enco5:1116105218,joint5:117.55892181396484;
time:257.478589084:enco0:649640,joint0:2.8127787632914183e-39;enco1:-280114,joint1:1.9757117243285245e-39;enco2:0,joint2:0.0;enco3:0,joint3:0.0;enco4:0,joint4:41.303001403808594;enco5:1116118328,joint5:119.4029541015625;
time:257.482586798:enco0:649640,joint0:2.816979856087464e-39;enco1:-284492,joint1:1.9757117243285245e-39;enco2:0,joint2:0.0;enco3:0,joint3:0.0;enco4:0,joint4:41.303001403808594;enco5:1116131504,joint5:121.22308349609375;
time:257.486585349:enco0:649640,joint0:2.8211837514804385e-39;enco1:-288838,joint1:1.9757117243285245e-39;enco2:0,joint2:0.0;enco3:0,joint3:0.0;enco4:0,joint4:41.303001403808594;enco5:1116144690,joint5:123.0277328491211;
time:257.490582225:enco0:649640,joint0:2.8253736338887697e-39;enco1:-293173,joint1:1.9757117243285245e-39;enco2:0,joint2:0.0;enco3:0,joint3:0.0;enco4:0,joint4:41.303001403808594;enco5:1116157829,joint5:124.82537078857422;
time:257.494547253:enco0:649640,joint0:2.8295312864324215e-39;enco1:-297512,joint1:1.9757117243285245e-39;enco2:0,joint2:0.0;enco3:0,joint3:0.0;enco4:0,joint4:41.303001403808594;enco5:1116170871,joint5:126.6229476928711;
time:257.498542453:enco0:649640,joint0:2.8336553078129294e-39;enco1:-301860,joint1:1.9757117243285245e-39;enco2:0,joint2:0.0;enco3:0,joint3:0.0;enco4:0,joint4:41.303001403808594;enco5:1116183808,joint5:128.421875;
time:257.502537652:enco0:649640,joint0:2.8377485006272222e-39;enco1:-306216,joint1:1.9757117243285245e-39;enco2:0,joint2:0.0;enco3:0,joint3:0.0;enco4:0,joint4:41.303001403808594;enco5:1116196642,joint5:130.2221221923828;
time:257.506536204:enco0:649640,joint0:2.841806660979907e-39;enco1:-310581,joint1:1.9757117243285245e-39;enco2:0,joint2:0.0;enco3:0,joint3:0.0;enco4:0,joint4:41.303001403808594;enco5:1116209374,joint5:132.02365112304688;
time:257.510534756:enco0:649640,joint0:2.8458339927663764e-39;enco1:-314955,joint1:1.9757117243285245e-39;enco2:0,joint2:0.0;enco3:0,joint3:0.0;enco4:0,joint4:41.303001403808594;enco5:1116222005,joint5:133.82647705078125;
time:257.514531631:enco0:649640,joint0:2.8498290946881664e-39;enco1:-319338,joint1:1.9757117243285245e-39;enco2:0,joint2:0.0;enco3:0,joint3:0.0;enco4:0,joint4:41.303001403808594;enco5:1116234535,joint5:135.630615234375;
time:257.518530183:enco0:649640,joint0:2.8537933680437413e-39;enco1:-323730,joint1:1.9757117243285245e-39;enco2:0,joint2:0.0;enco3:0,joint3:0.0;enco4:0,joint4:41.303001403808594;enco5:1116246968,joint5:137.43594360351562;
time:257.522528735:enco0:649640,joint0:2.8577254115346368e-39;enco1:-328130,joint1:1.9757117243285245e-39;enco2:0,joint2:0.0;enco3:0,joint3:0.0;enco4:0,joint4:41.303001403808594;enco5:1116259302,joint5:139.2425537109375;
time:257.526526449:enco0:649640,joint0:2.8616280277577814e-39;enco1:-332540,joint1:1.9757117243285245e-39;enco2:0,joint2:0.0;enco3:0,joint3:0.0;enco4:0,joint4:41.303001403808594;enco5:1116271539,joint5:141.05039978027344;
time:257.530524162:enco0:649640,joint0:2.8654984141162465e-39;enco1:-336959,joint1:1.9757117243285245e-39;enco2:0,joint2:0.0;enco3:0,joint3:0.0;enco4:0,joint4:41.303001403808594;enco5:1116283681,joint5:142.85943603515625;
time:257.534521876:enco0:649640,joint0:2.869339373206961e-39;enco1:-341386,joint1:1.9757117243285245e-39;enco2:0,joint2:0.0;enco3:0,joint3:0.0;enco4:0,joint4:41.303001403808594;enco5:1116295727,joint5:144.669677734375;
time:257.538520428:enco0:649640,joint0:2.8731509050299244e-39;enco1:-345824,joint1:1.9757117243285245e-39;enco2:0,joint2:0.0;enco3:0,joint3:0.0;enco4:0,joint4:41.303001403808594;enco5:1116307681,joint5:146.48110961914062;
