heyhilz/my_project-----/2024-09-18-14-50-44/plan_data.txt
time:255.723466229;plan:joint0:28.726051,joint1:45.833157,joint2:-227.499954,joint3:494.178070,joint4:0.000000,joint5:0.000000
time:255.727463104;plan:joint0:28.800472,joint1:45.951893,joint2:-227.499954,joint3:495.458313,joint4:0.000000,joint5:0.000000
time:255.731462494;plan:joint0:28.874891,joint1:46.070633,joint2:-227.499954,joint3:496.738556,joint4:0.000000,joint5:0.000000
time:255.735458532;plan:joint0:28.949312,joint1:46.189369,joint2:-227.499954,joint3:498.018829,joint4:0.000000,joint5:0.000000
time:255.739457084;plan:joint0:29.023731,joint1:46.308109,joint2:-227.499954,joint3:499.299072,joint4:0.000000,joint5:0.000000
time:255.743453959;plan:joint0:29.098152,joint1:46.426849,joint2:-227.499954,joint3:500.579346,joint4:0.000000,joint5:0.000000
time:255.747451673;plan:joint0:29.172571,joint1:46.545586,joint2:-227.499954,joint3:501.859589,joint4:0.000000,joint5:0.000000
time:255.751448548;plan:joint0:29.246990,joint1:46.664326,joint2:-227.499954,joint3:503.139832,joint4:0.000000,joint5:0.000000
time:255.755451290;plan:joint0:29.321411,joint1:46.783066,joint2:-227.499954,joint3:504.420105,joint4:0.000000,joint5:0.000000
time:255.759446489;plan:joint0:29.395830,joint1:46.901802,joint2:-227.499954,joint3:505.700348,joint4:0.000000,joint5:0.000000
time:255.763444203;plan:joint0:29.470251,joint1:47.020542,joint2:-227.499954,joint3:506.980591,joint4:0.000000,joint5:0.000000
time:255.767462031;plan:joint0:29.544670,joint1:47.139278,joint2:-227.499954,joint3:508.260834,joint4:0.000000,joint5:0.000000
time:255.771458069;plan:joint0:29.619087,joint1:47.258015,joint2:-227.499954,joint3:509.541046,joint4:0.000000,joint5:0.000000
time:255.775457459;plan:joint0:29.693497,joint1:47.376736,joint2:-227.499954,joint3:510.821136,joint4:0.000000,joint5:0.000000
time:255.779454334;plan:joint0:29.767899,joint1:47.495445,joint2:-227.499954,joint3:512.101074,joint4:0.000000,joint5:0.000000
time:255.783451210;plan:joint0:29.842287,joint1:47.614136,joint2:-227.499954,joint3:513.380798,joint4:0.000000,joint5:0.000000
time:255.787449762;plan:joint0:29.916662,joint1:47.732803,joint2:-227.499954,joint3:514.660278,joint4:0.000000,joint5:0.000000
time:255.791448313;plan:joint0:29.991018,joint1:47.851440,joint2:-227.499954,joint3:515.939453,joint4:0.000000,joint5:0.000000
time:255.795446865;plan:joint0:30.065355,joint1:47.970047,joint2:-227.499954,joint3:517.218262,joint4:0.000000,joint5:0.000000
time:255.799443741;plan:joint0:30.139668,joint1:48.088612,joint2:-227.499954,joint3:518.496643,joint4:0.000000,joint5:0.000000
time:255.803441455;plan:joint0:30.213953,joint1:48.207138,joint2:-227.499954,joint3:519.774597,joint4:0.000000,joint5:0.000000
time:255.807438330;plan:joint0:30.288208,joint1:48.325611,joint2:-227.499954,joint3:521.052002,joint4:0.000000,joint5:0.000000
time:255.811436044;plan:joint0:30.362431,joint1:48.444035,joint2:-227.499954,joint3:522.328857,joint4:0.000000,joint5:0.000000
time:255.815434596;plan:joint0:30.436617,joint1:48.562405,joint2:-227.499954,joint3:523.605103,joint4:0.000000,joint5:0.000000
time:255.819432309;plan:joint0:30.510765,joint1:48.680710,joint2:-227.499954,joint3:524.880676,joint4:0.000000,joint5:0.000000
time:255.823430023;plan:joint0:30.584871,joint1:48.798946,joint2:-227.499954,joint3:526.155579,joint4:0.000000,joint5:0.000000
time:255.827427737;plan:joint0:30.658932,joint1:48.917114,joint2:-227.499954,joint3:527.429626,joint4:0.000000,joint5:0.000000
time:255.831426289;plan:joint0:30.732946,joint1:49.035206,joint2:-227.499954,joint3:528.702881,joint4:0.000000,joint5:0.000000
time:255.835424002;plan:joint0:30.806910,joint1:49.153214,joint2:-227.499954,joint3:529.975281,joint4:0.000000,joint5:0.000000
time:255.839420878;plan:joint0:30.880819,joint1:49.271137,joint2:-227.499954,joint3:531.246765,joint4:0.000000,joint5:0.000000
time:255.843419430;plan:joint0:30.954672,joint1:49.388973,joint2:-227.499954,joint3:532.517273,joint4:0.000000,joint5:0.000000
time:255.847417143;plan:joint0:31.028465,joint1:49.506710,joint2:-227.499954,joint3:533.786743,joint4:0.000000,joint5:0.000000
time:255.851414857;plan:joint0:31.102196,joint1:49.624352,joint2:-227.499954,joint3:535.055176,joint4:0.000000,joint5:0.000000
time:255.855412570;plan:joint0:31.175859,joint1:49.741886,joint2:-227.499954,joint3:536.322388,joint4:0.000000,joint5:0.000000
time:255.859411122;plan:joint0:31.249456,joint1:49.859310,joint2:-227.499954,joint3:537.588501,joint4:0.000000,joint5:0.000000
time:255.863409674;plan:joint0:31.322981,joint1:49.976620,joint2:-227.499954,joint3:538.853333,joint4:0.000000,joint5:0.000000
time:255.867405711;plan:joint0:31.396431,joint1:50.093811,joint2:-227.499954,joint3:540.116943,joint4:0.000000,joint5:0.000000
time:255.871405101;plan:joint0:31.469805,joint1:50.210880,joint2:-227.499954,joint3:541.379150,joint4:0.000000,joint5:0.000000
time:255.875402815;plan:joint0:31.543097,joint1:50.327820,joint2:-227.499954,joint3:542.640015,joint4:0.000000,joint5:0.000000
time:255.879399690;plan:joint0:31.616304,joint1:50.444626,joint2:-227.499954,joint3:543.899414,joint4:0.000000,joint5:0.000000
time:255.883398242;plan:joint0:31.689426,joint1:50.561295,joint2:-227.499954,joint3:545.157349,joint4:0.000000,joint5:0.000000
time:255.887395118;plan:joint0:31.762459,joint1:50.677818,joint2:-227.499954,joint3:546.413757,joint4:0.000000,joint5:0.000000
time:255.891393670;plan:joint0:31.835400,joint1:50.794197,joint2:-227.499954,joint3:547.668579,joint4:0.000000,joint5:0.000000
time:255.895391383;plan:joint0:31.908245,joint1:50.910423,joint2:-227.499954,joint3:548.921753,joint4:0.000000,joint5:0.000000
time:255.899389935;plan:joint0:31.980991,joint1:51.026493,joint2:-227.499954,joint3:550.173218,joint4:0.000000,joint5:0.000000
time:255.903386811;plan:joint0:32.053635,joint1:51.142399,joint2:-227.499954,joint3:551.422913,joint4:0.000000,joint5:0.000000
time:255.907384524;plan:joint0:32.126179,joint1:51.258141,joint2:-227.499954,joint3:552.670837,joint4:0.000000,joint5:0.000000
time:255.911383914;plan:joint0:32.198612,joint1:51.373711,joint2:-227.499954,joint3:553.916931,joint4:0.000000,joint5:0.000000
time:255.915380790;plan:joint0:32.270935,joint1:51.489101,joint2:-227.499954,joint3:555.161133,joint4:0.000000,joint5:0.000000
time:255.919380180;plan:joint0:32.343143,joint1:51.604317,joint2:-227.499954,joint3:556.403320,joint4:0.000000,joint5:0.000000
time:255.923376217;plan:joint0:32.415237,joint1:51.719341,joint2:-227.499954,joint3:557.643555,joint4:0.000000,joint5:0.000000
time:255.927373931;plan:joint0:32.487209,joint1:51.834179,joint2:-227.499954,joint3:558.881775,joint4:0.000000,joint5:0.000000
time:255.931373321;plan:joint0:32.559063,joint1:51.948818,joint2:-227.499954,joint3:560.117798,joint4:0.000000,joint5:0.000000
time:255.935371035;plan:joint0:32.630791,joint1:52.063263,joint2:-227.499954,joint3:561.351746,joint4:0.000000,joint5:0.000000
time:255.939368748;plan:joint0:32.702389,joint1:52.177498,joint2:-227.499954,joint3:562.583496,joint4:0.000000,joint5:0.000000
time:255.943366462;plan:joint0:32.773853,joint1:52.291527,joint2:-227.499954,joint3:563.812927,joint4:0.000000,joint5:0.000000
time:255.947363338;plan:joint0:32.845188,joint1:52.405338,joint2:-227.499954,joint3:565.040100,joint4:0.000000,joint5:0.000000
time:255.951360212;plan:joint0:32.916386,joint1:52.518936,joint2:-227.499954,joint3:566.264893,joint4:0.000000,joint5:0.000000
time:255.955362955;plan:joint0:32.987438,joint1:52.632305,joint2:-227.499954,joint3:567.487244,joint4:0.000000,joint5:0.000000
time:255.959356478;plan:joint0:33.058353,joint1:52.745449,joint2:-227.499954,joint3:568.707153,joint4:0.000000,joint5:0.000000
time:255.963354192;plan:joint0:33.129120,joint1:52.858360,joint2:-227.499954,joint3:569.924561,joint4:0.000000,joint5:0.000000
time:255.967353581;plan:joint0:33.199738,joint1:52.971031,joint2:-227.499954,joint3:571.139404,joint4:0.000000,joint5:0.000000
time:255.971350457;plan:joint0:33.270203,joint1:53.083458,joint2:-227.499954,joint3:572.351624,joint4:0.000000,joint5:0.000000
time:255.975347333;plan:joint0:33.340511,joint1:53.195641,joint2:-227.499954,joint3:573.561218,joint4:0.000000,joint5:0.000000
time:255.979345046;plan:joint0:33.410664,joint1:53.307571,joint2:-227.499954,joint3:574.768005,joint4:0.000000,joint5:0.000000
time:255.983342760;plan:joint0:33.480656,joint1:53.419243,joint2:-227.499954,joint3:575.972107,joint4:0.000000,joint5:0.000000
time:255.987342150;plan:joint0:33.550484,joint1:53.530655,joint2:-227.499954,joint3:577.173340,joint4:0.000000,joint5:0.000000
time:255.991339026;plan:joint0:33.620144,joint1:53.641800,joint2:-227.499954,joint3:578.371704,joint4:0.000000,joint5:0.000000
time:255.995336739;plan:joint0:33.689632,joint1:53.752674,joint2:-227.499954,joint3:579.567139,joint4:0.000000,joint5:0.000000
time:255.999336129;plan:joint0:33.758949,joint1:53.863270,joint2:-227.499954,joint3:580.759644,joint4:0.000000,joint5:0.000000
time:256.003333005;plan:joint0:33.828091,joint1:53.973587,joint2:-227.499954,joint3:581.949097,joint4:0.000000,joint5:0.000000
time:256.007329881;plan:joint0:33.897053,joint1:54.083618,joint2:-227.499954,joint3:583.135437,joint4:0.000000,joint5:0.000000
time:256.011328432;plan:joint0:33.965836,joint1:54.193359,joint2:-227.499954,joint3:584.318726,joint4:0.000000,joint5:0.000000
time:256.015326146;plan:joint0:34.034431,joint1:54.302807,joint2:-227.499954,joint3:585.498779,joint4:0.000000,joint5:0.000000
time:256.019323860;plan:joint0:34.102837,joint1:54.411953,joint2:-227.499954,joint3:586.675598,joint4:0.000000,joint5:0.000000
time:256.023320735;plan:joint0:34.171055,joint1:54.520794,joint2:-227.499954,joint3:587.849121,joint4:0.000000,joint5:0.000000
time:256.027320125;plan:joint0:34.239079,joint1:54.629326,joint2:-227.499954,joint3:589.019348,joint4:0.000000,joint5:0.000000
time:256.031318677;plan:joint0:34.306904,joint1:54.737545,joint2:-227.499954,joint3:590.186157,joint4:0.000000,joint5:0.000000
time:256.035315553;plan:joint0:34.374531,joint1:54.845444,joint2:-227.499954,joint3:591.349548,joint4:0.000000,joint5:0.000000
time:256.039313266;plan:joint0:34.441956,joint1:54.953022,joint2:-227.499954,joint3:592.509460,joint4:0.000000,joint5:0.000000
time:256.043310980;plan:joint0:34.509171,joint1:55.060268,joint2:-227.499954,joint3:593.665833,joint4:0.000000,joint5:0.000000
time:256.047309532;plan:joint0:34.576180,joint1:55.167183,joint2:-227.499954,joint3:594.818604,joint4:0.000000,joint5:0.000000
time:256.051307246;plan:joint0:34.642979,joint1:55.273762,joint2:-227.499954,joint3:595.967712,joint4:0.000000,joint5:0.000000
time:256.055304958;plan:joint0:34.709560,joint1:55.379997,joint2:-227.499954,joint3:597.113159,joint4:0.000000,joint5:0.000000
time:256.059302672;plan:joint0:34.775928,joint1:55.485882,joint2:-227.499954,joint3:598.254822,joint4:0.000000,joint5:0.000000
time:256.063299548;plan:joint0:34.842072,joint1:55.591419,joint2:-227.499954,joint3:599.392700,joint4:0.000000,joint5:0.000000
time:256.067298100;plan:joint0:34.907993,joint1:55.696598,joint2:-227.499954,joint3:600.526794,joint4:0.000000,joint5:0.000000
time:256.071295813;plan:joint0:34.973686,joint1:55.801414,joint2:-227.499954,joint3:601.656921,joint4:0.000000,joint5:0.000000
time:256.075295203;plan:joint0:35.039150,joint1:55.905865,joint2:-227.499954,joint3:602.783081,joint4:0.000000,joint5:0.000000
time:256.079290403;plan:joint0:35.104382,joint1:56.009945,joint2:-227.499954,joint3:603.905273,joint4:0.000000,joint5:0.000000
time:256.083289792;plan:joint0:35.169380,joint1:56.113647,joint2:-227.499954,joint3:605.023438,joint4:0.000000,joint5:0.000000
time:256.087287506;plan:joint0:35.234138,joint1:56.216969,joint2:-227.499954,joint3:606.137512,joint4:0.000000,joint5:0.000000
time:256.091285220;plan:joint0:35.298653,joint1:56.319908,joint2:-227.499954,joint3:607.247375,joint4:0.000000,joint5:0.000000
time:256.095282934;plan:joint0:35.362926,joint1:56.422455,joint2:-227.499954,joint3:608.353027,joint4:0.000000,joint5:0.000000
time:256.099281485;plan:joint0:35.426949,joint1:56.524609,joint2:-227.499954,joint3:609.454468,joint4:0.000000,joint5:0.000000
time:256.103279199;plan:joint0:35.490723,joint1:56.626358,joint2:-227.499954,joint3:610.551575,joint4:0.000000,joint5:0.000000
time:256.107276913;plan:joint0:35.554245,joint1:56.727707,joint2:-227.499954,joint3:611.644348,joint4:0.000000,joint5:0.000000
time:256.111275465;plan:joint0:35.617508,joint1:56.828648,joint2:-227.499954,joint3:612.732666,joint4:0.000000,joint5:0.000000
time:256.115272340;plan:joint0:35.680511,joint1:56.929173,joint2:-227.499954,joint3:613.816528,joint4:0.000000,joint5:0.000000
time:256.119270054;plan:joint0:35.743256,joint1:57.029278,joint2:-227.499954,joint3:614.895874,joint4:0.000000,joint5:0.000000
time:256.123269444;plan:joint0:35.805733,joint1:57.128963,joint2:-227.499954,joint3:615.970703,joint4:0.000000,joint5:0.000000
time:256.127266320;plan:joint0:35.867939,joint1:57.228218,joint2:-227.499954,joint3:617.040894,joint4:0.000000,joint5:0.000000
time:256.131264033;plan:joint0:35.929878,joint1:57.327038,joint2:-227.499954,joint3:618.106384,joint4:0.000000,joint5:0.000000
time:256.135261747;plan:joint0:35.991539,joint1:57.425423,joint2:-227.499954,joint3:619.167175,joint4:0.000000,joint5:0.000000
time:256.139260299;plan:joint0:36.052925,joint1:57.523365,joint2:-227.499954,joint3:620.223206,joint4:0.000000,joint5:0.000000
time:256.143258013;plan:joint0:36.114029,joint1:57.620861,joint2:-227.499954,joint3:621.274414,joint4:0.000000,joint5:0.000000
time:256.147254888;plan:joint0:36.174850,joint1:57.717903,joint2:-227.499954,joint3:622.320740,joint4:0.000000,joint5:0.000000
time:256.151254277;plan:joint0:36.235386,joint1:57.814487,joint2:-227.499954,joint3:623.362122,joint4:0.000000,joint5:0.000000
time:256.155253667;plan:joint0:36.295635,joint1:57.910614,joint2:-227.499954,joint3:624.398560,joint4:0.000000,joint5:0.000000
time:256.159249704;plan:joint0:36.355587,joint1:58.006271,joint2:-227.499954,joint3:625.429932,joint4:0.000000,joint5:0.000000
time:256.163246580;plan:joint0:36.415245,joint1:58.101460,joint2:-227.499954,joint3:626.456238,joint4:0.000000,joint5:0.000000
time:256.167243456;plan:joint0:36.474606,joint1:58.196171,joint2:-227.499954,joint3:627.477417,joint4:0.000000,joint5:0.000000
time:256.171242846;plan:joint0:36.533665,joint1:58.290401,joint2:-227.499954,joint3:628.493469,joint4:0.000000,joint5:0.000000
time:256.175239721;plan:joint0:36.592422,joint1:58.384148,joint2:-227.499954,joint3:629.504211,joint4:0.000000,joint5:0.000000
time:256.179239949;plan:joint0:36.650871,joint1:58.477402,joint2:-227.499954,joint3:630.509705,joint4:0.000000,joint5:0.000000
time:256.183235987;plan:joint0:36.709007,joint1:58.570164,joint2:-227.499954,joint3:631.509888,joint4:0.000000,joint5:0.000000
time:256.187233700;plan:joint0:36.766834,joint1:58.662422,joint2:-227.499954,joint3:632.504639,joint4:0.000000,joint5:0.000000
time:256.191232252;plan:joint0:36.824341,joint1:58.754181,joint2:-227.499954,joint3:633.493958,joint4:0.000000,joint5:0.000000
time:256.195228290;plan:joint0:36.881531,joint1:58.845428,joint2:-227.499954,joint3:634.477844,joint4:0.000000,joint5:0.000000
time:256.199227680;plan:joint0:36.938400,joint1:58.936161,joint2:-227.499954,joint3:635.456116,joint4:0.000000,joint5:0.000000
time:256.203225393;plan:joint0:36.994942,joint1:59.026379,joint2:-227.499954,joint3:636.428833,joint4:0.000000,joint5:0.000000
time:256.207222269;plan:joint0:37.051155,joint1:59.116070,joint2:-227.499954,joint3:637.395935,joint4:0.000000,joint5:0.000000
time:256.211220821;plan:joint0:37.107040,joint1:59.205235,joint2:-227.499954,joint3:638.357300,joint4:0.000000,joint5:0.000000
time:256.215217696;plan:joint0:37.162590,joint1:59.293865,joint2:-227.499954,joint3:639.312927,joint4:0.000000,joint5:0.000000
time:256.219217086;plan:joint0:37.217804,joint1:59.381958,joint2:-227.499954,joint3:640.262756,joint4:0.000000,joint5:0.000000
time:256.223215638;plan:joint0:37.272675,joint1:59.469509,joint2:-227.499954,joint3:641.206726,joint4:0.000000,joint5:0.000000
time:256.227248552;plan:joint0:37.327206,joint1:59.556515,joint2:-227.499954,joint3:642.144836,joint4:0.000000,joint5:0.000000
time:256.231245428;plan:joint0:37.381390,joint1:59.642963,joint2:-227.499954,joint3:643.076965,joint4:0.000000,joint5:0.000000
time:256.235249846;plan:joint0:37.435226,joint1:59.728859,joint2:-227.499954,joint3:644.003052,joint4:0.000000,joint5:0.000000
time:256.239247560;plan:joint0:37.488708,joint1:59.814194,joint2:-227.499954,joint3:644.923157,joint4:0.000000,joint5:0.000000
time:256.243246112;plan:joint0:37.541836,joint1:59.898960,joint2:-227.499954,joint3:645.837158,joint4:0.000000,joint5:0.000000
time:256.247248016;plan:joint0:37.594608,joint1:59.983158,joint2:-227.499954,joint3:646.744934,joint4:0.000000,joint5:0.000000
time:256.251230644;plan:joint0:37.647015,joint1:60.066780,joint2:-227.499954,joint3:647.646545,joint4:0.000000,joint5:0.000000
time:256.255227518;plan:joint0:37.699062,joint1:60.149822,joint2:-227.499954,joint3:648.541931,joint4:0.000000,joint5:0.000000
time:256.259227746;plan:joint0:37.750740,joint1:60.232277,joint2:-227.499954,joint3:649.430969,joint4:0.000000,joint5:0.000000
time:256.263222946;plan:joint0:37.802052,joint1:60.314140,joint2:-227.499954,joint3:650.313660,joint4:0.000000,joint5:0.000000
time:256.267199707;plan:joint0:37.852989,joint1:60.395412,joint2:-227.499954,joint3:651.189941,joint4:0.000000,joint5:0.000000
time:256.271192392;plan:joint0:37.903549,joint1:60.476082,joint2:-227.499954,joint3:652.059692,joint4:0.000000,joint5:0.000000
time:256.275188430;plan:joint0:37.953732,joint1:60.556152,joint2:-227.499954,joint3:652.923035,joint4:0.000000,joint5:0.000000
time:256.279186143;plan:joint0:38.003532,joint1:60.635609,joint2:-227.499954,joint3:653.779724,joint4:0.000000,joint5:0.000000
time:256.283183857;plan:joint0:38.052948,joint1:60.714455,joint2:-227.499954,joint3:654.629822,joint4:0.000000,joint5:0.000000
time:256.287180733;plan:joint0:38.101974,joint1:60.792679,joint2:-227.499954,joint3:655.473267,joint4:0.000000,joint5:0.000000
time:256.291179285;plan:joint0:38.150612,joint1:60.870281,joint2:-227.499954,joint3:656.309998,joint4:0.000000,joint5:0.000000
time:256.295177836;plan:joint0:38.198856,joint1:60.947254,joint2:-227.499954,joint3:657.139954,joint4:0.000000,joint5:0.000000
time:256.299173874;plan:joint0:38.246704,joint1:61.023598,joint2:-227.499954,joint3:657.963074,joint4:0.000000,joint5:0.000000
time:256.303171588;plan:joint0:38.294151,joint1:61.099300,joint2:-227.499954,joint3:658.779358,joint4:0.000000,joint5:0.000000
time:256.307170139;plan:joint0:38.341198,joint1:61.174362,joint2:-227.499954,joint3:659.588684,joint4:0.000000,joint5:0.000000
time:256.311167853;plan:joint0:38.387836,joint1:61.248779,joint2:-227.499954,joint3:660.390991,joint4:0.000000,joint5:0.000000
time:256.315167243;plan:joint0:38.434071,joint1:61.322540,joint2:-227.499954,joint3:661.186340,joint4:0.000000,joint5:0.000000
time:256.319163281;plan:joint0:38.479889,joint1:61.395649,joint2:-227.499954,joint3:661.974548,joint4:0.000000,joint5:0.000000
time:256.323160156;plan:joint0:38.525295,joint1:61.468094,joint2:-227.499954,joint3:662.755676,joint4:0.000000,joint5:0.000000
time:256.327158708;plan:joint0:38.570282,joint1:61.539871,joint2:-227.499954,joint3:663.529602,joint4:0.000000,joint5:0.000000
time:256.331143850;plan:joint0:38.614849,joint1:61.610981,joint2:-227.499954,joint3:664.296326,joint4:0.000000,joint5:0.000000
time:256.335150783;plan:joint0:38.658997,joint1:61.681419,joint2:-227.499954,joint3:665.055786,joint4:0.000000,joint5:0.000000
time:256.339140116;plan:joint0:38.702724,joint1:61.751186,joint2:-227.499954,joint3:665.808044,joint4:0.000000,joint5:0.000000
time:256.343135315;plan:joint0:38.746029,joint1:61.820286,joint2:-227.499954,joint3:666.553040,joint4:0.000000,joint5:0.000000
time:256.347133867;plan:joint0:38.788918,joint1:61.888710,joint2:-227.499954,joint3:667.290833,joint4:0.000000,joint5:0.000000
time:256.351131580;plan:joint0:38.831383,joint1:61.956463,joint2:-227.499954,joint3:668.021362,joint4:0.000000,joint5:0.000000
time:256.355133484;plan:joint0:38.873428,joint1:62.023548,joint2:-227.499954,joint3:668.744629,joint4:0.000000,joint5:0.000000
time:256.359127845;plan:joint0:38.915051,joint1:62.089962,joint2:-227.499954,joint3:669.460754,joint4:0.000000,joint5:0.000000
time:256.363125559;plan:joint0:38.956257,joint1:62.155704,joint2:-227.499954,joint3:670.169556,joint4:0.000000,joint5:0.000000
time:256.367122435;plan:joint0:38.997040,joint1:62.220776,joint2:-227.499954,joint3:670.871155,joint4:0.000000,joint5:0.000000
time:256.371120148;plan:joint0:39.037403,joint1:62.285175,joint2:-227.499954,joint3:671.565552,joint4:0.000000,joint5:0.000000
time:256.375118700;plan:joint0:39.077347,joint1:62.348907,joint2:-227.499954,joint3:672.252686,joint4:0.000000,joint5:0.000000
time:256.379116414;plan:joint0:39.116867,joint1:62.411964,joint2:-227.499954,joint3:672.932617,joint4:0.000000,joint5:0.000000
time:256.383113290;plan:joint0:39.155972,joint1:62.474354,joint2:-227.499954,joint3:673.605286,joint4:0.000000,joint5:0.000000
time:256.387111003;plan:joint0:39.194653,joint1:62.536072,joint2:-227.499954,joint3:674.270752,joint4:0.000000,joint5:0.000000
time:256.391109555;plan:joint0:39.232914,joint1:62.597118,joint2:-227.499954,joint3:674.928955,joint4:0.000000,joint5:0.000000
time:256.395108945;plan:joint0:39.270752,joint1:62.657494,joint2:-227.499954,joint3:675.579895,joint4:0.000000,joint5:0.000000
time:256.399104144;plan:joint0:39.308174,joint1:62.717197,joint2:-227.499954,joint3:676.223633,joint4:0.000000,joint5:0.000000
time:256.403102696;plan:joint0:39.345173,joint1:62.776230,joint2:-227.499954,joint3:676.860168,joint4:0.000000,joint5:0.000000
time:256.407100410;plan:joint0:39.381752,joint1:62.834595,joint2:-227.499954,joint3:677.489441,joint4:0.000000,joint5:0.000000
time:256.411098962;plan:joint0:39.417912,joint1:62.892288,joint2:-227.499954,joint3:678.111511,joint4:0.000000,joint5:0.000000
time:256.415096675;plan:joint0:39.453648,joint1:62.949306,joint2:-227.499954,joint3:678.726318,joint4:0.000000,joint5:0.000000
time:256.419095227;plan:joint0:39.488968,joint1:63.005657,joint2:-227.499954,joint3:679.333862,joint4:0.000000,joint5:0.000000
time:256.423093779;plan:joint0:39.523865,joint1:63.061340,joint2:-227.499954,joint3:679.934204,joint4:0.000000,joint5:0.000000
time:256.427090655;plan:joint0:39.558342,joint1:63.116348,joint2:-227.499954,joint3:680.527344,joint4:0.000000,joint5:0.000000
time:256.431088368;plan:joint0:39.592400,joint1:63.170685,joint2:-227.499954,joint3:681.113220,joint4:0.000000,joint5:0.000000
time:256.435086082;plan:joint0:39.626034,joint1:63.224354,joint2:-227.499954,joint3:681.691833,joint4:0.000000,joint5:0.000000
time:256.439083796;plan:joint0:39.659248,joint1:63.277348,joint2:-227.499954,joint3:682.263245,joint4:0.000000,joint5:0.000000
time:256.443082348;plan:joint0:39.692043,joint1:63.329674,joint2:-227.499954,joint3:682.827454,joint4:0.000000,joint5:0.000000
time:256.447078385;plan:joint0:39.724419,joint1:63.381329,joint2:-227.499954,joint3:683.384399,joint4:0.000000,joint5:0.000000
time:256.451076936;plan:joint0:39.756374,joint1:63.432312,joint2:-227.499954,joint3:683.934082,joint4:0.000000,joint5:0.000000
time:256.455075488;plan:joint0:39.787907,joint1:63.482628,joint2:-227.499954,joint3:684.476563,joint4:0.000000,joint5:0.000000
time:256.459073201;plan:joint0:39.819019,joint1:63.532269,joint2:-227.499954,joint3:685.011841,joint4:0.000000,joint5:0.000000
time:256.463070915;plan:joint0:39.849712,joint1:63.581238,joint2:-227.499954,joint3:685.539856,joint4:0.000000,joint5:0.000000
time:256.467067791;plan:joint0:39.879986,joint1:63.629539,joint2:-227.499954,joint3:686.060608,joint4:0.000000,joint5:0.000000
time:256.471068019;plan:joint0:39.909840,joint1:63.677170,joint2:-227.499954,joint3:686.574158,joint4:0.000000,joint5:0.000000
time:256.475071599;plan:joint0:39.939270,joint1:63.724129,joint2:-227.499954,joint3:687.080505,joint4:0.000000,joint5:0.000000
time:256.479068475;plan:joint0:39.968285,joint1:63.770424,joint2:-227.499954,joint3:687.579651,joint4:0.000000,joint5:0.000000
time:256.483066189;plan:joint0:39.996887,joint1:63.816055,joint2:-227.499954,joint3:688.071655,joint4:0.000000,joint5:0.000000
time:256.487064740;plan:joint0:40.025074,joint1:63.861031,joint2:-227.499954,joint3:688.556580,joint4:0.000000,joint5:0.000000
time:256.491061616;plan:joint0:40.052853,joint1:63.905354,joint2:-227.499954,joint3:689.034485,joint4:0.000000,joint5:0.000000
time:256.495061006;plan:joint0:40.080227,joint1:63.949032,joint2:-227.499954,joint3:689.505432,joint4:0.000000,joint5:0.000000
time:256.499057881;plan:joint0:40.107201,joint1:63.992065,joint2:-227.499954,joint3:689.969421,joint4:0.000000,joint5:0.000000
time:256.503055595;plan:joint0:40.133774,joint1:64.034462,joint2:-227.499954,joint3:690.426575,joint4:0.000000,joint5:0.000000
time:256.507053309;plan:joint0:40.159950,joint1:64.076225,joint2:-227.499954,joint3:690.876831,joint4:0.000000,joint5:0.000000
time:256.511051861;plan:joint0:40.185730,joint1:64.117363,joint2:-227.499954,joint3:691.320374,joint4:0.000000,joint5:0.000000
time:256.515047898;plan:joint0:40.211121,joint1:64.157875,joint2:-227.499954,joint3:691.757202,joint4:0.000000,joint5:0.000000
time:256.519047288;plan:joint0:40.236126,joint1:64.197769,joint2:-227.499954,joint3:692.187378,joint4:0.000000,joint5:0.000000
time:256.523044164;plan:joint0:40.260746,joint1:64.237053,joint2:-227.499954,joint3:692.610901,joint4:0.000000,joint5:0.000000
time:256.527042716;plan:joint0:40.284985,joint1:64.275726,joint2:-227.499954,joint3:693.027832,joint4:0.000000,joint5:0.000000
time:256.531041267;plan:joint0:40.308842,joint1:64.313789,joint2:-227.499954,joint3:693.438293,joint4:0.000000,joint5:0.000000
time:256.535038981;plan:joint0:40.332325,joint1:64.351257,joint2:-227.499954,joint3:693.842285,joint4:0.000000,joint5:0.000000
time:256.539035857;plan:joint0:40.355434,joint1:64.388130,joint2:-227.499954,joint3:694.239868,joint4:0.000000,joint5:0.000000
time:256.543034409;plan:joint0:40.378178,joint1:64.424416,joint2:-227.499954,joint3:694.631042,joint4:0.000000,joint5:0.000000
time:256.547031284;plan:joint0:40.400551,joint1:64.460114,joint2:-227.499954,joint3:695.015930,joint4:0.000000,joint5:0.000000
time:256.551029836;plan:joint0:40.422562,joint1:64.495232,joint2:-227.499954,joint3:695.394592,joint4:0.000000,joint5:0.000000
time:256.555031739;plan:joint0:40.444210,joint1:64.529770,joint2:-227.499954,joint3:695.767029,joint4:0.000000,joint5:0.000000
time:256.559024424;plan:joint0:40.465500,joint1:64.563744,joint2:-227.499954,joint3:696.133301,joint4:0.000000,joint5:0.000000
time:256.563023814;plan:joint0:40.486439,joint1:64.597145,joint2:-227.499954,joint3:696.493469,joint4:0.000000,joint5:0.000000
time:256.567021528;plan:joint0:40.507023,joint1:64.629990,joint2:-227.499954,joint3:696.847595,joint4:0.000000,joint5:0.000000
time:256.571017565;plan:joint0:40.527260,joint1:64.662277,joint2:-227.499954,joint3:697.195740,joint4:0.000000,joint5:0.000000
time:256.575016117;plan:joint0:40.547150,joint1:64.694016,joint2:-227.499954,joint3:697.537903,joint4:0.000000,joint5:0.000000
time:256.579014669;plan:joint0:40.566696,joint1:64.725204,joint2:-227.499954,joint3:697.874146,joint4:0.000000,joint5:0.000000
time:256.583013221;plan:joint0:40.585903,joint1:64.755844,joint2:-227.499954,joint3:698.204590,joint4:0.000000,joint5:0.000000
time:256.587013449;plan:joint0:40.604771,joint1:64.785957,joint2:-227.499954,joint3:698.529236,joint4:0.000000,joint5:0.000000
time:256.591010324;plan:joint0:40.623306,joint1:64.815529,joint2:-227.499954,joint3:698.848083,joint4:0.000000,joint5:0.000000
time:256.595008038;plan:joint0:40.641514,joint1:64.844574,joint2:-227.499954,joint3:699.161255,joint4:0.000000,joint5:0.000000
time:256.599004076;plan:joint0:40.659389,joint1:64.873100,joint2:-227.499954,joint3:699.468811,joint4:0.000000,joint5:0.000000
time:256.603005142;plan:joint0:40.676941,joint1:64.901100,joint2:-227.499954,joint3:699.770752,joint4:0.000000,joint5:0.000000
time:256.606999503;plan:joint0:40.694172,joint1:64.928596,joint2:-227.499954,joint3:700.067200,joint4:0.000000,joint5:0.000000
time:256.610998055;plan:joint0:40.711082,joint1:64.955574,joint2:-227.499954,joint3:700.358093,joint4:0.000000,joint5:0.000000
time:256.614996607;plan:joint0:40.727680,joint1:64.982056,joint2:-227.499954,joint3:700.643555,joint4:0.000000,joint5:0.000000
time:256.618993482;plan:joint0:40.743961,joint1:65.008034,joint2:-227.499954,joint3:700.923706,joint4:0.000000,joint5:0.000000
time:256.622991196;plan:joint0:40.759933,joint1:65.033516,joint2:-227.499954,joint3:701.198425,joint4:0.000000,joint5:0.000000
time:256.626989748;plan:joint0:40.775597,joint1:65.058510,joint2:-227.499954,joint3:701.467896,joint4:0.000000,joint5:0.000000
time:256.630987462;plan:joint0:40.790958,joint1:65.083015,joint2:-227.499954,joint3:701.732178,joint4:0.000000,joint5:0.000000
time:256.634985175;plan:joint0:40.806015,joint1:65.107040,joint2:-227.499954,joint3:701.991211,joint4:0.000000,joint5:0.000000
time:256.638983727;plan:joint0:40.820778,joint1:65.130592,joint2:-227.499954,joint3:702.245178,joint4:0.000000,joint5:0.000000
time:256.642980603;plan:joint0:40.835243,joint1:65.153679,joint2:-227.499954,joint3:702.494019,joint4:0.000000,joint5:0.000000
time:256.646979155;plan:joint0:40.849415,joint1:65.176292,joint2:-227.499954,joint3:702.737854,joint4:0.000000,joint5:0.000000
time:256.650976867;plan:joint0:40.863300,joint1:65.198441,joint2:-227.499954,joint3:702.976685,joint4:0.000000,joint5:0.000000
time:256.654974581;plan:joint0:40.876900,joint1:65.220139,joint2:-227.499954,joint3:703.210632,joint4:0.000000,joint5:0.000000
time:256.658971457;plan:joint0:40.890213,joint1:65.241386,joint2:-227.499954,joint3:703.439697,joint4:0.000000,joint5:0.000000
time:256.662970847;plan:joint0:40.903248,joint1:65.262177,joint2:-227.499954,joint3:703.663940,joint4:0.000000,joint5:0.000000
time:256.666968560;plan:joint0:40.916004,joint1:65.282532,joint2:-227.499954,joint3:703.883423,joint4:0.000000,joint5:0.000000
time:256.670965436;plan:joint0:40.928490,joint1:65.302452,joint2:-227.499954,joint3:704.098145,joint4:0.000000,joint5:0.000000
time:256.674963988;plan:joint0:40.940701,joint1:65.321938,joint2:-227.499954,joint3:704.308228,joint4:0.000000,joint5:0.000000
time:256.678960863;plan:joint0:40.952644,joint1:65.340988,joint2:-227.499954,joint3:704.513672,joint4:0.000000,joint5:0.000000
time:256.682959415;plan:joint0:40.964321,joint1:65.359619,joint2:-227.499954,joint3:704.714539,joint4:0.000000,joint5:0.000000
time:256.686957129;plan:joint0:40.975735,joint1:65.377838,joint2:-227.499954,joint3:704.910950,joint4:0.000000,joint5:0.000000
time:256.690954843;plan:joint0:40.986893,joint1:65.395638,joint2:-227.499954,joint3:705.102844,joint4:0.000000,joint5:0.000000
time:256.694952556;plan:joint0:40.997791,joint1:65.413025,joint2:-227.499954,joint3:705.290344,joint4:0.000000,joint5:0.000000
time:256.698950270;plan:joint0:41.008438,joint1:65.430008,joint2:-227.499954,joint3:705.473511,joint4:0.000000,joint5:0.000000
time:256.702948822;plan:joint0:41.018833,joint1:65.446594,joint2:-227.499954,joint3:705.652344,joint4:0.000000,joint5:0.000000
time:256.706945697;plan:joint0:41.028980,joint1:65.462791,joint2:-227.499954,joint3:705.826904,joint4:0.000000,joint5:0.000000
time:256.710945087;plan:joint0:41.038883,joint1:65.478592,joint2:-227.499954,joint3:705.997314,joint4:0.000000,joint5:0.000000
time:256.714942801;plan:joint0:41.048546,joint1:65.494003,joint2:-227.499954,joint3:706.163513,joint4:0.000000,joint5:0.000000
time:256.718939677;plan:joint0:41.057968,joint1:65.509041,joint2:-227.499954,joint3:706.325623,joint4:0.000000,joint5:0.000000
time:256.722937390;plan:joint0:41.067158,joint1:65.523697,joint2:-227.499954,joint3:706.483643,joint4:0.000000,joint5:0.000000
time:256.726935942;plan:joint0:41.076111,joint1:65.537987,joint2:-227.499954,joint3:706.637756,joint4:0.000000,joint5:0.000000
time:256.730933656;plan:joint0:41.084839,joint1:65.551910,joint2:-227.499954,joint3:706.787842,joint4:0.000000,joint5:0.000000
time:256.734930532;plan:joint0:41.093338,joint1:65.565468,joint2:-227.499954,joint3:706.934021,joint4:0.000000,joint5:0.000000
time:256.738928245;plan:joint0:41.101612,joint1:65.578674,joint2:-227.499954,joint3:707.076416,joint4:0.000000,joint5:0.000000
time:256.742926797;plan:joint0:41.109665,joint1:65.591530,joint2:-227.499954,joint3:707.214966,joint4:0.000000,joint5:0.000000
time:256.746924511;plan:joint0:41.117504,joint1:65.604027,joint2:-227.499954,joint3:707.349792,joint4:0.000000,joint5:0.000000
time:256.750921386;plan:joint0:41.125126,joint1:65.616188,joint2:-227.499954,joint3:707.480896,joint4:0.000000,joint5:0.000000
time:256.754924128;plan:joint0:41.132538,joint1:65.628014,joint2:-227.499954,joint3:707.608398,joint4:0.000000,joint5:0.000000
time:256.758919327;plan:joint0:41.139740,joint1:65.639503,joint2:-227.499954,joint3:707.732300,joint4:0.000000,joint5:0.000000
time:256.762915365;plan:joint0:41.146736,joint1:65.650665,joint2:-227.499954,joint3:707.852661,joint4:0.000000,joint5:0.000000
time:256.766913916;plan:joint0:41.153526,joint1:65.661507,joint2:-227.499954,joint3:707.969543,joint4:0.000000,joint5:0.000000
time:256.770911630;plan:joint0:41.160122,joint1:65.672028,joint2:-227.499954,joint3:708.082947,joint4:0.000000,joint5:0.000000
time:256.774909344;plan:joint0:41.166519,joint1:65.682236,joint2:-227.499954,joint3:708.192993,joint4:0.000000,joint5:0.000000
time:256.778907058;plan:joint0:41.172722,joint1:65.692131,joint2:-227.499954,joint3:708.299683,joint4:0.000000,joint5:0.000000
time:256.782905609;plan:joint0:41.178734,joint1:65.701721,joint2:-227.499954,joint3:708.403137,joint4:0.000000,joint5:0.000000
time:256.786903323;plan:joint0:41.184555,joint1:65.711014,joint2:-227.499954,joint3:708.503296,joint4:0.000000,joint5:0.000000
time:256.790901037;plan:joint0:41.190197,joint1:65.720016,joint2:-227.499954,joint3:708.600342,joint4:0.000000,joint5:0.000000
time:256.794898751;plan:joint0:41.195652,joint1:65.728722,joint2:-227.499954,joint3:708.694214,joint4:0.000000,joint5:0.000000
time:256.798897302;plan:joint0:41.200932,joint1:65.737144,joint2:-227.499954,joint3:708.785034,joint4:0.000000,joint5:0.000000
time:256.802895016;plan:joint0:41.206036,joint1:65.745285,joint2:-227.499954,joint3:708.872803,joint4:0.000000,joint5:0.000000
time:256.806891892;plan:joint0:41.210964,joint1:65.753151,joint2:-227.499954,joint3:708.957642,joint4:0.000000,joint5:0.000000
time:256.810890443;plan:joint0:41.215725,joint1:65.760742,joint2:-227.499954,joint3:709.039490,joint4:0.000000,joint5:0.000000
time:256.814888995;plan:joint0:41.220318,joint1:65.768074,joint2:-227.499954,joint3:709.118530,joint4:0.000000,joint5:0.000000
time:256.818886709;plan:joint0:41.224747,joint1:65.775139,joint2:-227.499954,joint3:709.194702,joint4:0.000000,joint5:0.000000
time:256.822883585;plan:joint0:41.229012,joint1:65.781944,joint2:-227.499954,joint3:709.268127,joint4:0.000000,joint5:0.000000
time:256.826881298;plan:joint0:41.233124,joint1:65.788506,joint2:-227.499954,joint3:709.338806,joint4:0.000000,joint5:0.000000
time:256.830879850;plan:joint0:41.237076,joint1:65.794815,joint2:-227.499954,joint3:709.406860,joint4:0.000000,joint5:0.000000
time:256.834877564;plan:joint0:41.240879,joint1:65.800880,joint2:-227.499954,joint3:709.472229,joint4:0.000000,joint5:0.000000
time:256.838875278;plan:joint0:41.244534,joint1:65.806709,joint2:-227.499954,joint3:709.535095,joint4:0.000000,joint5:0.000000
time:256.842872991;plan:joint0:41.248039,joint1:65.812302,joint2:-227.499954,joint3:709.595459,joint4:0.000000,joint5:0.000000
time:256.846869867;plan:joint0:41.251404,joint1:65.817673,joint2:-227.499954,joint3:709.653320,joint4:0.000000,joint5:0.000000
time:256.850870932;plan:joint0:41.254627,joint1:65.822815,joint2:-227.499954,joint3:709.708740,joint4:0.000000,joint5:0.000000
time:256.854866970;plan:joint0:41.257713,joint1:65.827744,joint2:-227.499954,joint3:709.761841,joint4:0.000000,joint5:0.000000
time:256.858866359;plan:joint0:41.260666,joint1:65.832451,joint2:-227.499954,joint3:709.812683,joint4:0.000000,joint5:0.000000
time:256.862862397;plan:joint0:41.263489,joint1:65.836952,joint2:-227.499954,joint3:709.861206,joint4:0.000000,joint5:0.000000
time:256.866859273;plan:joint0:41.266182,joint1:65.841248,joint2:-227.499954,joint3:709.907532,joint4:0.000000,joint5:0.000000
time:256.870857824;plan:joint0:41.268749,joint1:65.845345,joint2:-227.499954,joint3:709.951721,joint4:0.000000,joint5:0.000000
time:256.874856376;plan:joint0:41.271194,joint1:65.849251,joint2:-227.499954,joint3:709.993774,joint4:0.000000,joint5:0.000000
time:256.878854090;plan:joint0:41.273521,joint1:65.852959,joint2:-227.499954,joint3:710.033813,joint4:0.000000,joint5:0.000000
time:256.882851804;plan:joint0:41.275734,joint1:65.856491,joint2:-227.499954,joint3:710.071838,joint4:0.000000,joint5:0.000000
time:256.886851194;plan:joint0:41.277828,joint1:65.859833,joint2:-227.499954,joint3:710.107910,joint4:0.000000,joint5:0.000000
time:256.890848907;plan:joint0:41.279816,joint1:65.863007,joint2:-227.499954,joint3:710.142090,joint4:0.000000,joint5:0.000000
time:256.894845783;plan:joint0:41.281696,joint1:65.866005,joint2:-227.499954,joint3:710.174377,joint4:0.000000,joint5:0.000000
time:256.898843497;plan:joint0:41.283470,joint1:65.868835,joint2:-227.499954,joint3:710.204956,joint4:0.000000,joint5:0.000000
time:256.902842048;plan:joint0:41.285141,joint1:65.871506,joint2:-227.499954,joint3:710.233704,joint4:0.000000,joint5:0.000000
time:256.906838924;plan:joint0:41.286716,joint1:65.874016,joint2:-227.499954,joint3:710.260803,joint4:0.000000,joint5:0.000000
time:256.910836638;plan:joint0:41.288197,joint1:65.876373,joint2:-227.499954,joint3:710.286255,joint4:0.000000,joint5:0.000000
time:256.914835190;plan:joint0:41.289585,joint1:65.878586,joint2:-227.499954,joint3:710.310120,joint4:0.000000,joint5:0.000000
time:256.918832065;plan:joint0:41.290882,joint1:65.880661,joint2:-227.499954,joint3:710.332458,joint4:0.000000,joint5:0.000000
time:256.922829779;plan:joint0:41.292091,joint1:65.882591,joint2:-227.499954,joint3:710.353271,joint4:0.000000,joint5:0.000000
time:256.926829169;plan:joint0:41.293221,joint1:65.884392,joint2:-227.499954,joint3:710.372681,joint4:0.000000,joint5:0.000000
time:256.930826044;plan:joint0:41.294270,joint1:65.886063,joint2:-227.499954,joint3:710.390686,joint4:0.000000,joint5:0.000000
time:256.934824596;plan:joint0:41.295238,joint1:65.887611,joint2:-227.499954,joint3:710.407349,joint4:0.000000,joint5:0.000000
time:256.938821472;plan:joint0:41.296131,joint1:65.889038,joint2:-227.499954,joint3:710.422791,joint4:0.000000,joint5:0.000000
time:256.942820862;plan:joint0:41.296955,joint1:65.890350,joint2:-227.499954,joint3:710.436951,joint4:0.000000,joint5:0.000000
time:256.946817737;plan:joint0:41.297710,joint1:65.891556,joint2:-227.499954,joint3:710.449951,joint4:0.000000,joint5:0.000000
time:256.950815450;plan:joint0:41.298401,joint1:65.892654,joint2:-227.499954,joint3:710.461792,joint4:0.000000,joint5:0.000000
time:256.954816516;plan:joint0:41.299026,joint1:65.893654,joint2:-227.499954,joint3:710.472595,joint4:0.000000,joint5:0.000000
time:256.958810877;plan:joint0:41.299595,joint1:65.894562,joint2:-227.499954,joint3:710.482300,joint4:0.000000,joint5:0.000000
time:256.962809429;plan:joint0:41.300106,joint1:65.895378,joint2:-227.499954,joint3:710.491089,joint4:0.000000,joint5:0.000000
time:256.966807143;plan:joint0:41.300560,joint1:65.896103,joint2:-227.499954,joint3:710.498962,joint4:0.000000,joint5:0.000000
time:256.970805695;plan:joint0:41.300968,joint1:65.896751,joint2:-227.499954,joint3:710.505920,joint4:0.000000,joint5:0.000000
time:256.974802570;plan:joint0:41.301327,joint1:65.897324,joint2:-227.499954,joint3:710.512085,joint4:0.000000,joint5:0.000000
time:256.978800284;plan:joint0:41.301640,joint1:65.897827,joint2:-227.499954,joint3:710.517517,joint4:0.000000,joint5:0.000000
time:256.982797998;plan:joint0:41.301910,joint1:65.898254,joint2:-227.499954,joint3:710.522156,joint4:0.000000,joint5:0.000000
time:256.986804093;plan:joint0:41.302143,joint1:65.898628,joint2:-227.499954,joint3:710.526184,joint4:0.000000,joint5:0.000000
time:256.990795101;plan:joint0:41.302341,joint1:65.898941,joint2:-227.499954,joint3:710.529602,joint4:0.000000,joint5:0.000000
time:256.994792815;plan:joint0:41.302505,joint1:65.899208,joint2:-227.499954,joint3:710.532410,joint4:0.000000,joint5:0.000000
time:256.998790529;plan:joint0:41.302639,joint1:65.899422,joint2:-227.499954,joint3:710.534729,joint4:0.000000,joint5:0.000000
time:257.002787405;plan:joint0:41.302750,joint1:65.899590,joint2:-227.499954,joint3:710.536560,joint4:0.000000,joint5:0.000000
time:257.006787633;plan:joint0:41.302834,joint1:65.899727,joint2:-227.499954,joint3:710.538025,joint4:0.000000,joint5:0.000000
time:257.010782832;plan:joint0:41.302895,joint1:65.899826,joint2:-227.499954,joint3:710.539124,joint4:0.000000,joint5:0.000000
time:257.014781384;plan:joint0:41.302940,joint1:65.899902,joint2:-227.499954,joint3:710.539917,joint4:0.000000,joint5:0.000000
time:257.018779097;plan:joint0:41.302971,joint1:65.899948,joint2:-227.499954,joint3:710.540405,joint4:0.000000,joint5:0.000000
time:257.022775973;plan:joint0:41.302990,joint1:65.899979,joint2:-227.499954,joint3:710.540710,joint4:0.000000,joint5:0.000000
time:257.026774525;plan:joint0:41.302998,joint1:65.899994,joint2:-227.499954,joint3:710.540894,joint4:0.000000,joint5:0.000000
time:257.030772239;plan:joint0:41.303001,joint1:65.900002,joint2:-227.499954,joint3:710.540955,joint4:0.000000,joint5:0.000000
time:257.034795095;plan:joint0:41.303001,joint1:65.900002,joint2:-227.499954,joint3:710.540955,joint4:0.000000,joint5:0.000000
time:257.038824657;plan:joint0:41.303001,joint1:65.900002,joint2:-227.497345,joint3:710.540955,joint4:0.000000,joint5:0.000000
time:257.042808123;plan:joint0:41.303001,joint1:65.900002,joint2:-227.479370,joint3:710.540955,joint4:0.000000,joint5:0.000000
time:257.046808351;plan:joint0:41.303001,joint1:65.900002,joint2:-227.430527,joint3:710.540955,joint4:0.000000,joint5:0.000000
time:257.050801874;plan:joint0:41.303001,joint1:65.899994,joint2:-227.335434,joint3:710.540955,joint4:0.000000,joint5:0.000000
time:257.054802939;plan:joint0:41.303001,joint1:65.899994,joint2:-227.178604,joint3:710.540955,joint4:0.000000,joint5:0.000000
time:257.058775510;plan:joint0:41.303001,joint1:65.900002,joint2:-226.944687,joint3:710.540955,joint4:0.000000,joint5:0.000000
time:257.062786633;plan:joint0:41.303001,joint1:65.900002,joint2:-226.618240,joint3:710.540955,joint4:0.000000,joint5:0.000000
time:257.066785185;plan:joint0:41.303001,joint1:65.900002,joint2:-226.183823,joint3:710.540955,joint4:0.000000,joint5:0.000000
time:257.070756918;plan:joint0:41.303001,joint1:65.900002,joint2:-225.626022,joint3:710.540955,joint4:0.000000,joint5:0.000000
time:257.074755469;plan:joint0:41.303001,joint1:65.900002,joint2:-224.929428,joint3:710.540955,joint4:0.000000,joint5:0.000000
time:257.078753183;plan:joint0:41.303001,joint1:65.900002,joint2:-224.078583,joint3:710.540955,joint4:0.000000,joint5:0.000000
time:257.082751735;plan:joint0:41.303001,joint1:65.900002,joint2:-223.058090,joint3:710.540955,joint4:0.000000,joint5:0.000000
time:257.086747772;plan:joint0:41.303001,joint1:65.900002,joint2:-221.852524,joint3:710.540955,joint4:0.000000,joint5:0.000000
time:257.090747162;plan:joint0:41.303001,joint1:65.900002,joint2:-220.446472,joint3:710.540955,joint4:0.000000,joint5:0.000000
time:257.094743200;plan:joint0:41.303001,joint1:65.899994,joint2:-218.824478,joint3:710.540955,joint4:0.000000,joint5:0.000000
time:257.098741752;plan:joint0:41.303001,joint1:65.899994,joint2:-216.971161,joint3:710.540955,joint4:0.000000,joint5:0.000000
time:257.102744494;plan:joint0:41.303001,joint1:65.900002,joint2:-214.876190,joint3:710.540955,joint4:0.000000,joint5:0.000000
time:257.106742208;plan:joint0:41.303001,joint1:65.899994,joint2:-212.549896,joint3:710.540955,joint4:0.000000,joint5:0.000000
time:257.110740760;plan:joint0:41.303001,joint1:65.900002,joint2:-210.007660,joint3:710.540955,joint4:0.000000,joint5:0.000000
time:257.114736797;plan:joint0:41.303001,joint1:65.899994,joint2:-207.264923,joint3:710.540955,joint4:0.000000,joint5:0.000000
time:257.118735349;plan:joint0:41.303001,joint1:65.900002,joint2:-204.337128,joint3:710.540955,joint4:0.000000,joint5:0.000000
time:257.122733063;plan:joint0:41.303001,joint1:65.900002,joint2:-201.239670,joint3:710.540955,joint4:0.000000,joint5:0.000000
time:257.126731614;plan:joint0:41.303001,joint1:65.900002,joint2:-197.987991,joint3:710.540955,joint4:0.000000,joint5:0.000000
time:257.130727652;plan:joint0:41.303001,joint1:65.900002,joint2:-194.597504,joint3:710.540955,joint4:0.000000,joint5:0.000000
time:257.134726204;plan:joint0:41.303001,joint1:65.900002,joint2:-191.083633,joint3:710.540955,joint4:0.000000,joint5:0.000000
time:257.138723917;plan:joint0:41.303001,joint1:65.900002,joint2:-187.461792,joint3:710.540955,joint4:0.000000,joint5:0.000000
time:257.142721631;plan:joint0:41.303001,joint1:65.900002,joint2:-183.747421,joint3:710.540955,joint4:0.000000,joint5:0.000000
time:257.146719345;plan:joint0:41.303001,joint1:65.900002,joint2:-179.955933,joint3:710.540955,joint4:0.000000,joint5:0.000000
time:257.150717058;plan:joint0:41.303001,joint1:65.899994,joint2:-176.102753,joint3:710.540955,joint4:0.000000,joint5:0.000000
time:257.154719800;plan:joint0:41.303001,joint1:65.899994,joint2:-172.203278,joint3:710.540955,joint4:0.000000,joint5:0.000000
time:257.158714161;plan:joint0:41.303001,joint1:65.899994,joint2:-168.272995,joint3:710.540955,joint4:0.000000,joint5:0.000000
time:257.162711875;plan:joint0:41.303001,joint1:65.899994,joint2:-164.327255,joint3:710.540955,joint4:0.000000,joint5:0.000000
time:257.166702884;plan:joint0:41.303001,joint1:65.899994,joint2:-160.378983,joint3:710.540955,joint4:0.000000,joint5:0.000000
time:257.170699760;plan:joint0:41.303001,joint1:65.899994,joint2:-156.430695,joint3:710.540955,joint4:0.000000,joint5:0.000000
time:257.174697473;plan:joint0:41.303001,joint1:65.900002,joint2:-152.482407,joint3:710.540955,joint4:0.000000,joint5:0.000000
time:257.178695187;plan:joint0:41.303001,joint1:65.900002,joint2:-148.534088,joint3:710.540955,joint4:0.000000,joint5:0.000000
time:257.182692901;plan:joint0:41.303001,joint1:65.899994,joint2:-144.585815,joint3:710.540955,joint4:0.000000,joint5:0.000000
time:257.186691452;plan:joint0:41.303001,joint1:65.900002,joint2:-140.637527,joint3:710.540955,joint4:0.000000,joint5:0.000000
time:257.190689166;plan:joint0:41.303001,joint1:65.900002,joint2:-136.689240,joint3:710.540955,joint4:0.000000,joint5:0.000000
time:257.194686880;plan:joint0:41.303001,joint1:65.900002,joint2:-132.740952,joint3:710.540955,joint4:0.000000,joint5:0.000000
time:257.198684594;plan:joint0:41.303001,joint1:65.899994,joint2:-128.792664,joint3:710.540955,joint4:0.000000,joint5:0.000000
time:257.202683145;plan:joint0:41.303001,joint1:65.900002,joint2:-124.844353,joint3:710.540955,joint4:0.000000,joint5:0.000000
time:257.206680859;plan:joint0:41.303001,joint1:65.899994,joint2:-120.896088,joint3:710.540955,joint4:0.000000,joint5:0.000000
time:257.210678573;plan:joint0:41.303001,joint1:65.899994,joint2:-116.947784,joint3:710.540955,joint4:0.000000,joint5:0.000000
time:257.214676287;plan:joint0:41.303001,joint1:65.900002,joint2:-112.999496,joint3:710.540955,joint4:0.000000,joint5:0.000000
time:257.218673162;plan:joint0:41.303001,joint1:65.900002,joint2:-109.051208,joint3:710.540955,joint4:0.000000,joint5:0.000000
time:257.222670876;plan:joint0:41.303001,joint1:65.900002,joint2:-105.102898,joint3:710.540955,joint4:0.000000,joint5:0.000000
time:257.226669428;plan:joint0:41.303001,joint1:65.899994,joint2:-101.154633,joint3:710.540955,joint4:0.000000,joint5:0.000000
time:257.230667141;plan:joint0:41.303001,joint1:65.900002,joint2:-97.206329,joint3:710.540955,joint4:0.000000,joint5:0.000000
time:257.234665693;plan:joint0:41.303001,joint1:65.900002,joint2:-93.258041,joint3:710.540955,joint4:0.000000,joint5:0.000000
time:257.238662569;plan:joint0:41.303001,joint1:65.900002,joint2:-89.309753,joint3:710.540955,joint4:0.000000,joint5:0.000000
time:257.242661121;plan:joint0:41.303001,joint1:65.900002,joint2:-85.361450,joint3:710.540955,joint4:0.000000,joint5:0.000000
time:257.246658834;plan:joint0:41.303001,joint1:65.899994,joint2:-81.413177,joint3:710.540955,joint4:0.000000,joint5:0.000000
time:257.250656548;plan:joint0:41.303001,joint1:65.900002,joint2:-77.464867,joint3:710.540955,joint4:0.000000,joint5:0.000000
time:257.254654261;plan:joint0:41.303001,joint1:65.900002,joint2:-73.516586,joint3:710.540955,joint4:0.000000,joint5:0.000000
time:257.258651975;plan:joint0:41.303001,joint1:65.899994,joint2:-69.568298,joint3:710.540955,joint4:0.000000,joint5:0.000000
time:257.262648850;plan:joint0:41.303001,joint1:65.900002,joint2:-65.619995,joint3:710.540955,joint4:0.000000,joint5:0.000000
time:257.266647402;plan:joint0:41.303001,joint1:65.900002,joint2:-61.671719,joint3:710.540955,joint4:0.000000,joint5:0.000000
time:257.270645116;plan:joint0:41.303001,joint1:65.900002,joint2:-57.723419,joint3:710.540955,joint4:0.000000,joint5:0.000000
time:257.274642829;plan:joint0:41.303001,joint1:65.899994,joint2:-53.775143,joint3:710.540955,joint4:0.000000,joint5:0.000000
time:257.278640543;plan:joint0:41.303001,joint1:65.900002,joint2:-49.826843,joint3:710.540955,joint4:0.000000,joint5:0.000000
time:257.282639933;plan:joint0:41.303001,joint1:65.900002,joint2:-45.878540,joint3:710.540955,joint4:0.000000,joint5:0.000000
time:257.286635971;plan:joint0:41.303001,joint1:65.900002,joint2:-41.930264,joint3:710.540955,joint4:0.000000,joint5:0.000000
time:257.290634522;plan:joint0:41.303001,joint1:65.900002,joint2:-37.981964,joint3:710.540955,joint4:0.000000,joint5:0.000000
time:257.294631398;plan:joint0:41.303001,joint1:65.900002,joint2:-34.033688,joint3:710.540955,joint4:0.000000,joint5:0.000000
time:257.298629950;plan:joint0:41.303001,joint1:65.899994,joint2:-30.085388,joint3:710.540955,joint4:0.000000,joint5:0.000000
time:257.302628502;plan:joint0:41.303001,joint1:65.900002,joint2:-26.137085,joint3:710.540955,joint4:0.000000,joint5:0.000000
time:257.306625377;plan:joint0:41.303001,joint1:65.900002,joint2:-22.188812,joint3:710.540955,joint4:0.000000,joint5:0.000000
time:257.310623929;plan:joint0:41.303001,joint1:65.900002,joint2:-18.240507,joint3:710.540955,joint4:0.000000,joint5:0.000000
time:257.314621643;plan:joint0:41.303001,joint1:65.900002,joint2:-14.292206,joint3:710.540955,joint4:0.000000,joint5:0.000000
time:257.318619356;plan:joint0:41.303001,joint1:65.900002,joint2:-10.343933,joint3:710.540955,joint4:0.000000,joint5:0.000000
time:257.322617070;plan:joint0:41.303001,joint1:65.899994,joint2:-6.395629,joint3:710.540955,joint4:0.000000,joint5:0.000000
time:257.326616460;plan:joint0:41.303001,joint1:65.900002,joint2:-2.447326,joint3:710.540955,joint4:0.000000,joint5:0.000000
time:257.330613336;plan:joint0:41.303001,joint1:65.900002,joint2:1.500946,joint3:710.540955,joint4:0.000000,joint5:0.000000
time:257.334610211;plan:joint0:41.303001,joint1:65.900002,joint2:5.449219,joint3:710.540955,joint4:0.000000,joint5:0.000000
time:257.338607925;plan:joint0:41.303001,joint1:65.899994,joint2:9.397522,joint3:710.540955,joint4:0.000000,joint5:0.000000
time:257.342606477;plan:joint0:41.303001,joint1:65.900002,joint2:13.345825,joint3:710.540955,joint4:0.000000,joint5:0.000000
time:257.346603352;plan:joint0:41.303001,joint1:65.900002,joint2:17.294098,joint3:710.540955,joint4:0.000000,joint5:0.000000
time:257.350601903;plan:joint0:41.303001,joint1:65.899994,joint2:21.242401,joint3:710.540955,joint4:0.000000,joint5:0.000000
time:257.354602969;plan:joint0:41.303001,joint1:65.900002,joint2:25.190702,joint3:710.540955,joint4:0.000000,joint5:0.000000
time:257.358598169;plan:joint0:41.303001,joint1:65.900002,joint2:29.138975,joint3:710.540955,joint4:0.000000,joint5:0.000000
time:257.362595882;plan:joint0:41.303001,joint1:65.899994,joint2:33.087280,joint3:710.540955,joint4:0.000000,joint5:0.000000
time:257.366635501;plan:joint0:41.303001,joint1:65.900085,joint2:37.034145,joint3:710.540955,joint4:0.000000,joint5:0.000000
time:257.370624834;plan:joint0:41.303001,joint1:65.900681,joint2:40.972534,joint3:710.540955,joint4:0.000000,joint5:0.000000
time:257.374621709;plan:joint0:41.303001,joint1:65.902283,joint2:44.893887,joint3:710.540955,joint4:0.000000,joint5:0.000000
time:257.378617747;plan:joint0:41.303001,joint1:65.905365,joint2:48.789791,joint3:710.540955,joint4:0.000000,joint5:0.000000
time:257.382614622;plan:joint0:41.303001,joint1:65.910370,joint2:52.651703,joint3:710.540955,joint4:0.000000,joint5:0.000000
time:257.386612336;plan:joint0:41.303001,joint1:65.917740,joint2:56.471127,joint3:710.540955,joint4:0.000000,joint5:0.000000
time:257.390610050;plan:joint0:41.303001,joint1:65.927887,joint2:60.239559,joint3:710.540955,joint4:0.000000,joint5:0.000000
time:257.394608602;plan:joint0:41.303001,joint1:65.941231,joint2:63.948578,joint3:710.540955,joint4:0.000000,joint5:0.000000
time:257.398607154;plan:joint0:41.303001,joint1:65.958153,joint2:67.589661,joint3:710.540955,joint4:0.000000,joint5:0.000000
time:257.402604029;plan:joint0:41.303001,joint1:65.979042,joint2:71.154358,joint3:710.540955,joint4:0.000000,joint5:0.000000
time:257.406601743;plan:joint0:41.303001,joint1:66.004280,joint2:74.634125,joint3:710.540955,joint4:0.000000,joint5:0.000000
time:257.410599457;plan:joint0:41.303001,joint1:66.034225,joint2:78.020630,joint3:710.540955,joint4:0.000000,joint5:0.000000
time:257.414598008;plan:joint0:41.303001,joint1:66.069267,joint2:81.305359,joint3:710.540955,joint4:0.000000,joint5:0.000000
time:257.418594884;plan:joint0:41.303001,joint1:66.109749,joint2:84.479950,joint3:710.540955,joint4:0.000000,joint5:0.000000
time:257.422593436;plan:joint0:41.303001,joint1:66.156044,joint2:87.535973,joint3:710.540955,joint4:0.000000,joint5:0.000000
time:257.426591988;plan:joint0:41.303001,joint1:66.208527,joint2:90.465050,joint3:710.540955,joint4:0.000000,joint5:0.000000
time:257.430598082;plan:joint0:41.303001,joint1:66.267418,joint2:93.261658,joint3:710.540955,joint4:0.000000,joint5:0.000000
time:257.434594120;plan:joint0:41.303001,joint1:66.332329,joint2:95.931602,joint3:710.540955,joint4:0.000000,joint5:0.000000
time:257.438593510;plan:joint0:41.303001,joint1:66.402763,joint2:98.483551,joint3:710.540955,joint4:0.000000,joint5:0.000000
time:257.442591223;plan:joint0:41.303001,joint1:66.478226,joint2:100.926048,joint3:710.540955,joint4:0.000000,joint5:0.000000
time:257.446590613;plan:joint0:41.303001,joint1:66.558235,joint2:103.267754,joint3:710.540955,joint4:0.000000,joint5:0.000000
time:257.450586651;plan:joint0:41.303001,joint1:66.642311,joint2:105.517296,joint3:710.540955,joint4:0.000000,joint5:0.000000
time:257.454584364;plan:joint0:41.303001,joint1:66.730011,joint2:107.683258,joint3:710.540955,joint4:0.000000,joint5:0.000000
time:257.458581239;plan:joint0:41.303001,joint1:66.820877,joint2:109.774200,joint3:710.540955,joint4:0.000000,joint5:0.000000
time:257.462579791;plan:joint0:41.303001,joint1:66.914452,joint2:111.798668,joint3:710.540955,joint4:0.000000,joint5:0.000000
time:257.466576667;plan:joint0:41.303001,joint1:67.010300,joint2:113.765289,joint3:710.540955,joint4:0.000000,joint5:0.000000
time:257.470575218;plan:joint0:41.303001,joint1:67.107971,joint2:115.682518,joint3:710.540955,joint4:0.000000,joint5:0.000000
time:257.474573770;plan:joint0:41.303001,joint1:67.207047,joint2:117.558922,joint3:710.540955,joint4:0.000000,joint5:0.000000
time:257.478571484;plan:joint0:41.303001,joint1:67.307068,joint2:119.402954,joint3:710.540955,joint4:0.000000,joint5:0.000000
time:257.482568360;plan:joint0:41.303001,joint1:67.407593,joint2:121.223083,joint3:710.540955,joint4:0.000000,joint5:0.000000
time:257.486567749;plan:joint0:41.303001,joint1:67.508194,joint2:123.027733,joint3:710.540955,joint4:0.000000,joint5:0.000000
time:257.490563787;plan:joint0:41.303001,joint1:67.608437,joint2:124.825371,joint3:710.540955,joint4:0.000000,joint5:0.000000
time:257.494529653;plan:joint0:41.303001,joint1:67.707939,joint2:126.622948,joint3:710.540955,joint4:0.000000,joint5:0.000000
time:257.498524014;plan:joint0:41.303001,joint1:67.806641,joint2:128.421875,joint3:710.540955,joint4:0.000000,joint5:0.000000
time:257.502520052;plan:joint0:41.303001,joint1:67.904556,joint2:130.222122,joint3:710.540955,joint4:0.000000,joint5:0.000000
time:257.506518604;plan:joint0:41.303001,joint1:68.001694,joint2:132.023651,joint3:710.540955,joint4:0.000000,joint5:0.000000
time:257.510517156;plan:joint0:41.303001,joint1:68.098061,joint2:133.826477,joint3:710.540955,joint4:0.000000,joint5:0.000000
time:257.514514031;plan:joint0:41.303001,joint1:68.193657,joint2:135.630615,joint3:710.540955,joint4:0.000000,joint5:0.000000
time:257.518511745;plan:joint0:41.303001,joint1:68.288513,joint2:137.435944,joint3:710.540955,joint4:0.000000,joint5:0.000000
time:257.522510297;plan:joint0:41.303001,joint1:68.382614,joint2:139.242554,joint3:710.540955,joint4:0.000000,joint5:0.000000
time:257.526508849;plan:joint0:41.303001,joint1:68.475975,joint2:141.050400,joint3:710.540955,joint4:0.000000,joint5:0.000000
time:257.530505724;plan:joint0:41.303001,joint1:68.568611,joint2:142.859436,joint3:710.540955,joint4:0.000000,joint5:0.000000
time:257.534503438;plan:joint0:41.303001,joint1:68.660515,joint2:144.669678,joint3:710.540955,joint4:0.000000,joint5:0.000000
time:257.538501990;plan:joint0:41.303001,joint1:68.751717,joint2:146.481110,joint3:710.540955,joint4:0.000000,joint5:0.000000
time:257.542501380;plan:joint0:41.303001,joint1:68.842216,joint2:148.293732,joint3:710.540955,joint4:0.000000,joint5:0.000000
time:257.546498255;plan:joint0:41.303001,joint1:68.932014,joint2:150.107483,joint3:710.540955,joint4:0.000000,joint5:0.000000
time:257.550495130;plan:joint0:41.303001,joint1:69.021111,joint2:151.922379,joint3:710.540955,joint4:0.000000,joint5:0.000000
time:257.554495358;plan:joint0:41.303001,joint1:69.109535,joint2:153.738464,joint3:710.540955,joint4:0.000000,joint5:0.000000
time:257.558492233;plan:joint0:41.303001,joint1:69.197281,joint2:155.555634,joint3:710.540955,joint4:0.000000,joint5:0.000000
time:257.562488271;plan:joint0:41.303001,joint1:69.284363,joint2:157.373901,joint3:710.540955,joint4:0.000000,joint5:0.000000
time:257.566486823;plan:joint0:41.303001,joint1:69.370773,joint2:159.193253,joint3:710.540955,joint4:0.000000,joint5:0.000000
time:257.570483698;plan:joint0:41.303001,joint1:69.456543,joint2:161.013702,joint3:710.540955,joint4:0.000000,joint5:0.000000
time:257.574483088;plan:joint0:41.303001,joint1:69.541656,joint2:162.835236,joint3:710.540955,joint4:0.000000,joint5:0.000000
time:257.578479126;plan:joint0:41.303001,joint1:69.626129,joint2:164.657791,joint3:710.540955,joint4:0.000000,joint5:0.000000
time:257.582477678;plan:joint0:41.303001,joint1:69.709976,joint2:166.481415,joint3:710.540955,joint4:0.000000,joint5:0.000000
time:257.586477906;plan:joint0:41.303001,joint1:69.793190,joint2:168.306076,joint3:710.540955,joint4:0.000000,joint5:0.000000
time:257.590475619;plan:joint0:41.303001,joint1:69.875786,joint2:170.131729,joint3:710.540955,joint4:0.000000,joint5:0.000000
time:257.594473333;plan:joint0:41.303001,joint1:69.957771,joint2:171.958435,joint3:710.540955,joint4:0.000000,joint5:0.000000
time:257.598469371;plan:joint0:41.303001,joint1:70.039154,joint2:173.786133,joint3:710.540955,joint4:0.000000,joint5:0.000000
time:257.602468760;plan:joint0:41.303001,joint1:70.119926,joint2:175.614807,joint3:710.540955,joint4:0.000000,joint5:0.000000
time:257.606464798;plan:joint0:41.303001,joint1:70.200111,joint2:177.444458,joint3:710.540955,joint4:0.000000,joint5:0.000000
time:257.610463350;plan:joint0:41.303001,joint1:70.279701,joint2:179.275085,joint3:710.540955,joint4:0.000000,joint5:0.000000
time:257.614461064;plan:joint0:41.303001,joint1:70.358711,joint2:181.106659,joint3:710.540955,joint4:0.000000,joint5:0.000000
time:257.618457939;plan:joint0:41.303001,joint1:70.437149,joint2:182.939194,joint3:710.540955,joint4:0.000000,joint5:0.000000
time:257.622456491;plan:joint0:41.303001,joint1:70.515015,joint2:184.772644,joint3:710.540955,joint4:0.000000,joint5:0.000000
time:257.626453367;plan:joint0:41.303001,joint1:70.592323,joint2:186.607025,joint3:710.540955,joint4:0.000000,joint5:0.000000
time:257.630452756;plan:joint0:41.303001,joint1:70.669075,joint2:188.442352,joint3:710.540955,joint4:0.000000,joint5:0.000000
time:257.634449632;plan:joint0:41.303001,joint1:70.745262,joint2:190.278549,joint3:710.540955,joint4:0.000000,joint5:0.000000
time:257.638448184;plan:joint0:41.303001,joint1:70.820915,joint2:192.115662,joint3:710.540955,joint4:0.000000,joint5:0.000000
time:257.642445898;plan:joint0:41.303001,joint1:70.896019,joint2:193.953613,joint3:710.540955,joint4:0.000000,joint5:0.000000
time:257.646443611;plan:joint0:41.303001,joint1:70.970589,joint2:195.792542,joint3:710.540955,joint4:0.000000,joint5:0.000000
time:257.650441324;plan:joint0:41.303001,joint1:71.044632,joint2:197.632248,joint3:710.540955,joint4:0.000000,joint5:0.000000
time:257.654439038;plan:joint0:41.303001,joint1:71.118141,joint2:199.472824,joint3:710.540955,joint4:0.000000,joint5:0.000000
time:257.658436751;plan:joint0:41.303001,joint1:71.191147,joint2:201.314255,joint3:710.540955,joint4:0.000000,joint5:0.000000
time:257.662434465;plan:joint0:41.303001,joint1:71.263626,joint2:203.156555,joint3:710.540955,joint4:0.000000,joint5:0.000000
time:257.666433017;plan:joint0:41.303001,joint1:71.335602,joint2:204.999634,joint3:710.540955,joint4:0.000000,joint5:0.000000
time:257.670430731;plan:joint0:41.303001,joint1:71.407074,joint2:206.843628,joint3:710.540955,joint4:0.000000,joint5:0.000000
time:257.674429283;plan:joint0:41.303001,joint1:71.478043,joint2:208.688339,joint3:710.540955,joint4:0.000000,joint5:0.000000
time:257.678426158;plan:joint0:41.303001,joint1:71.548523,joint2:210.533859,joint3:710.540955,joint4:0.000000,joint5:0.000000
time:257.682424710;plan:joint0:41.303001,joint1:71.618507,joint2:212.380234,joint3:710.540955,joint4:0.000000,joint5:0.000000
time:257.686423262;plan:joint0:41.303001,joint1:71.688019,joint2:214.227417,joint3:710.540955,joint4:0.000000,joint5:0.000000
time:257.690420976;plan:joint0:41.303001,joint1:71.757042,joint2:216.075302,joint3:710.540955,joint4:0.000000,joint5:0.000000
time:257.694433775;plan:joint0:41.303001,joint1:71.825554,joint2:217.922791,joint3:710.540955,joint4:0.000000,joint5:0.000000
time:257.698428974;plan:joint0:41.303001,joint1:71.893318,joint2:219.763855,joint3:710.540955,joint4:0.000000,joint5:0.000000
time:257.702427526;plan:joint0:41.303001,joint1:71.960114,joint2:221.591187,joint3:710.540955,joint4:0.000000,joint5:0.000000
time:257.706426078;plan:joint0:41.303001,joint1:72.025665,joint2:223.397522,joint3:710.540955,joint4:0.000000,joint5:0.000000
time:257.710423792;plan:joint0:41.303001,joint1:72.089745,joint2:225.175659,joint3:710.540955,joint4:0.000000,joint5:0.000000
time:257.714421505;plan:joint0:41.303001,joint1:72.152115,joint2:226.918259,joint3:710.540955,joint4:0.000000,joint5:0.000000
time:257.718419219;plan:joint0:41.303001,joint1:72.212547,joint2:228.618088,joint3:710.540955,joint4:0.000000,joint5:0.000000
time:257.722416933;plan:joint0:41.303001,joint1:72.270828,joint2:230.267807,joint3:710.540955,joint4:0.000000,joint5:0.000000
time:257.726416323;plan:joint0:41.303001,joint1:72.326729,joint2:231.860153,joint3:710.540955,joint4:0.000000,joint5:0.000000
time:257.730411522;plan:joint0:41.303001,joint1:72.380043,joint2:233.387817,joint3:710.540955,joint4:0.000000,joint5:0.000000
time:257.734410912;plan:joint0:41.303001,joint1:72.430542,joint2:234.843430,joint3:710.540955,joint4:0.000000,joint5:0.000000
time:257.738408626;plan:joint0:41.303001,joint1:72.478050,joint2:236.219727,joint3:710.540955,joint4:0.000000,joint5:0.000000
time:257.742406340;plan:joint0:41.303001,joint1:72.522324,joint2:237.509338,joint3:710.540955,joint4:0.000000,joint5:0.000000
time:257.746405729;plan:joint0:41.303001,joint1:72.563194,joint2:238.705017,joint3:710.540955,joint4:0.000000,joint5:0.000000
time:257.750401767;plan:joint0:41.303001,joint1:72.600433,joint2:239.799362,joint3:710.540955,joint4:0.000000,joint5:0.000000
time:257.754402832;plan:joint0:41.303001,joint1:72.633842,joint2:240.785095,joint3:710.540955,joint4:0.000000,joint5:0.000000
time:257.758398031;plan:joint0:41.303001,joint1:72.663307,joint2:241.657303,joint3:710.540955,joint4:0.000000,joint5:0.000000
time:257.762393231;plan:joint0:41.303001,joint1:72.689011,joint2:242.420715,joint3:710.540955,joint4:0.000000,joint5:0.000000
time:257.766390945;plan:joint0:41.303001,joint1:72.711243,joint2:243.082657,joint3:710.540955,joint4:0.000000,joint5:0.000000
time:257.770388658;plan:joint0:41.303001,joint1:72.730263,joint2:243.650253,joint3:710.540955,joint4:0.000000,joint5:0.000000
time:257.774388048;plan:joint0:41.303001,joint1:72.746330,joint2:244.130722,joint3:710.540955,joint4:0.000000,joint5:0.000000
time:257.778384924;plan:joint0:41.303001,joint1:72.759712,joint2:244.531433,joint3:710.540955,joint4:0.000000,joint5:0.000000
time:257.782383476;plan:joint0:41.303001,joint1:72.770645,joint2:244.859406,joint3:710.540955,joint4:0.000000,joint5:0.000000
time:257.786380351;plan:joint0:41.303001,joint1:72.779396,joint2:245.122101,joint3:710.540955,joint4:0.000000,joint5:0.000000
time:257.790378903;plan:joint0:41.303001,joint1:72.786201,joint2:245.326691,joint3:710.540955,joint4:0.000000,joint5:0.000000
time:257.794376617;plan:joint0:41.303001,joint1:72.791313,joint2:245.480469,joint3:710.540955,joint4:0.000000,joint5:0.000000
time:257.798374331;plan:joint0:41.303001,joint1:72.794975,joint2:245.590683,joint3:710.540955,joint4:0.000000,joint5:0.000000
time:257.802372044;plan:joint0:41.303001,joint1:72.797424,joint2:245.664459,joint3:710.540955,joint4:0.000000,joint5:0.000000
time:257.806369758;plan:joint0:41.303001,joint1:72.798912,joint2:245.709274,joint3:710.540955,joint4:0.000000,joint5:0.000000
time:257.810367472;plan:joint0:41.303001,joint1:72.799683,joint2:245.732285,joint3:710.540955,joint4:0.000000,joint5:0.000000
time:257.814366023;plan:joint0:41.303001,joint1:72.799957,joint2:245.740799,joint3:710.540955,joint4:0.000000,joint5:0.000000
time:257.818362899;plan:joint0:41.303001,joint1:72.800003,joint2:245.742004,joint3:710.540955,joint4:0.000000,joint5:0.000000
time:257.822343851;plan:joint0:41.302849,joint1:72.800003,joint2:245.742004,joint3:710.541077,joint4:0.000000,joint5:0.000000
time:257.826336536;plan:joint0:41.301788,joint1:72.800003,joint2:245.742004,joint3:710.541077,joint4:0.000000,joint5:0.000000
time:257.830334250;plan:joint0:41.298904,joint1:72.800003,joint2:245.742004,joint3:710.541077,joint4:0.000000,joint5:0.000000
time:257.834337830;plan:joint0:41.293293,joint1:72.800003,joint2:245.742004,joint3:710.541077,joint4:0.000000,joint5:0.000000
time:257.838366553;plan:joint0:41.284035,joint1:72.800003,joint2:245.742004,joint3:710.541077,joint4:0.000000,joint5:0.000000
time:257.842357562;plan:joint0:41.270229,joint1:72.800003,joint2:245.742004,joint3:710.541077,joint4:0.000000,joint5:0.000000
time:257.846356952;plan:joint0:41.250961,joint1:72.800003,joint2:245.742004,joint3:710.541077,joint4:0.000000,joint5:0.000000
time:257.850368913;plan:joint0:41.225319,joint1:72.800003,joint2:245.742004,joint3:710.541077,joint4:0.000000,joint5:0.000000
time:257.854348188;plan:joint0:41.192394,joint1:72.800003,joint2:245.742004,joint3:710.541077,joint4:0.000000,joint5:0.000000
time:257.858345064;plan:joint0:41.151279,joint1:72.800003,joint2:245.742004,joint3:710.541077,joint4:0.000000,joint5:0.000000
time:257.862331882;plan:joint0:41.101059,joint1:72.800003,joint2:245.742004,joint3:710.541077,joint4:0.000000,joint5:0.000000
time:257.866337977;plan:joint0:41.040825,joint1:72.800003,joint2:245.742004,joint3:710.541077,joint4:0.000000,joint5:0.000000
time:257.870315576;plan:joint0:40.969669,joint1:72.800003,joint2:245.742004,joint3:710.541077,joint4:0.000000,joint5:0.000000
time:257.874314966;plan:joint0:40.886978,joint1:72.800003,joint2:245.742004,joint3:710.541077,joint4:0.000000,joint5:0.000000
time:257.878311842;plan:joint0:40.793365,joint1:72.800003,joint2:245.742004,joint3:710.541077,joint4:0.000000,joint5:0.000000
time:257.882308718;plan:joint0:40.689739,joint1:72.800003,joint2:245.742004,joint3:710.541077,joint4:0.000000,joint5:0.000000
time:257.886307269;plan:joint0:40.577011,joint1:72.800003,joint2:245.742004,joint3:710.541077,joint4:0.000000,joint5:0.000000
time:257.890304983;plan:joint0:40.456089,joint1:72.800003,joint2:245.742004,joint3:710.541077,joint4:0.000000,joint5:0.000000
time:257.894301021;plan:joint0:40.327885,joint1:72.800003,joint2:245.742004,joint3:710.541077,joint4:0.000000,joint5:0.000000
time:257.898300410;plan:joint0:40.193306,joint1:72.800003,joint2:245.742004,joint3:710.541077,joint4:0.000000,joint5:0.000000
time:257.902297286;plan:joint0:40.053268,joint1:72.800003,joint2:245.742004,joint3:710.541077,joint4:0.000000,joint5:0.000000
time:257.906295838;plan:joint0:39.908676,joint1:72.800003,joint2:245.742004,joint3:710.541077,joint4:0.000000,joint5:0.000000
time:257.910293552;plan:joint0:39.760445,joint1:72.800003,joint2:245.742004,joint3:710.541077,joint4:0.000000,joint5:0.000000
time:257.914291265;plan:joint0:39.609478,joint1:72.800003,joint2:245.742004,joint3:710.541077,joint4:0.000000,joint5:0.000000
time:257.918288141;plan:joint0:39.456696,joint1:72.800003,joint2:245.742004,joint3:710.541077,joint4:0.000000,joint5:0.000000
time:257.922286693;plan:joint0:39.303001,joint1:72.800003,joint2:245.742004,joint3:710.541077,joint4:0.000000,joint5:0.000000
time:257.926300330;plan:joint0:39.149307,joint1:72.800003,joint2:245.742004,joint3:710.541077,joint4:0.000000,joint5:0.000000
time:257.930297206;plan:joint0:38.996521,joint1:72.800003,joint2:245.742004,joint3:710.541077,joint4:0.000000,joint5:0.000000
time:257.934294082;plan:joint0:38.845558,joint1:72.800003,joint2:245.742004,joint3:710.541077,joint4:0.000000,joint5:0.000000
time:257.938290957;plan:joint0:38.697327,joint1:72.800003,joint2:245.742004,joint3:710.541077,joint4:0.000000,joint5:0.000000
time:257.942290347;plan:joint0:38.552734,joint1:72.800003,joint2:245.742004,joint3:710.541077,joint4:0.000000,joint5:0.000000
time:257.946287223;plan:joint0:38.412697,joint1:72.800003,joint2:245.742004,joint3:710.541077,joint4:0.000000,joint5:0.000000
time:257.950284098;plan:joint0:38.278118,joint1:72.800003,joint2:245.742004,joint3:710.541077,joint4:0.000000,joint5:0.000000
time:257.954287678;plan:joint0:38.149914,joint1:72.800003,joint2:245.742004,joint3:710.541077,joint4:0.000000,joint5:0.000000
time:257.958281201;plan:joint0:38.028992,joint1:72.800003,joint2:245.742004,joint3:710.541077,joint4:0.000000,joint5:0.000000
time:257.962278077;plan:joint0:37.916264,joint1:72.800003,joint2:245.742004,joint3:710.541077,joint4:0.000000,joint5:0.000000
time:257.966276628;plan:joint0:37.812637,joint1:72.800003,joint2:245.742004,joint3:710.541077,joint4:0.000000,joint5:0.000000
time:257.970274342;plan:joint0:37.719025,joint1:72.800003,joint2:245.742004,joint3:710.541077,joint4:0.000000,joint5:0.000000
time:257.974272894;plan:joint0:37.636333,joint1:72.800003,joint2:245.742004,joint3:710.541077,joint4:0.000000,joint5:0.000000
time:257.978263065;plan:joint0:37.565178,joint1:72.800003,joint2:245.742004,joint3:710.541077,joint4:0.000000,joint5:0.000000
time:257.982259940;plan:joint0:37.504944,joint1:72.800003,joint2:245.742004,joint3:710.541077,joint4:0.000000,joint5:0.000000
time:257.986256816;plan:joint0:37.454723,joint1:72.800003,joint2:245.742004,joint3:710.541077,joint4:0.000000,joint5:0.000000
time:257.990254530;plan:joint0:37.413605,joint1:72.800003,joint2:245.742004,joint3:710.541077,joint4:0.000000,joint5:0.000000
time:257.994253081;plan:joint0:37.380684,joint1:72.800003,joint2:245.742004,joint3:710.541077,joint4:0.000000,joint5:0.000000
time:257.998250795;plan:joint0:37.355042,joint1:72.800003,joint2:245.742004,joint3:710.541077,joint4:0.000000,joint5:0.000000
time:258.002248509;plan:joint0:37.335773,joint1:72.800003,joint2:245.742004,joint3:710.541077,joint4:0.000000,joint5:0.000000
time:258.006247061;plan:joint0:37.321968,joint1:72.800003,joint2:245.742004,joint3:710.541077,joint4:0.000000,joint5:0.000000
time:258.010244774;plan:joint0:37.312710,joint1:72.800003,joint2:245.742004,joint3:710.541077,joint4:0.000000,joint5:0.000000
time:258.014242488;plan:joint0:37.307098,joint1:72.800003,joint2:245.742004,joint3:710.541077,joint4:0.000000,joint5:0.000000
time:258.018240202;plan:joint0:37.304214,joint1:72.800003,joint2:245.742004,joint3:710.541077,joint4:0.000000,joint5:0.000000
time:258.022237077;plan:joint0:37.303154,joint1:72.800003,joint2:245.742004,joint3:710.541077,joint4:0.000000,joint5:0.000000
time:258.026235629;plan:joint0:37.303001,joint1:72.800003,joint2:245.742004,joint3:710.541077,joint4:0.000000,joint5:0.000000
time:258.030229991;plan:joint0:37.302856,joint1:72.800003,joint2:245.742004,joint3:710.540955,joint4:0.000000,joint5:0.000000
time:258.034224352;plan:joint0:37.301846,joint1:72.800003,joint2:245.742004,joint3:710.540955,joint4:0.000000,joint5:0.000000
time:258.038220389;plan:joint0:37.299095,joint1:72.800003,joint2:245.742004,joint3:710.540955,joint4:0.000000,joint5:0.000000
time:258.042218941;plan:joint0:37.293743,joint1:72.800003,joint2:245.742004,joint3:710.540955,joint4:0.000000,joint5:0.000000
time:258.046216655;plan:joint0:37.284916,joint1:72.800003,joint2:245.742004,joint3:710.540955,joint4:0.000000,joint5:0.000000
time:258.050213530;plan:joint0:37.271751,joint1:72.800003,joint2:245.742004,joint3:710.540955,joint4:0.000000,joint5:0.000000
time:258.054211243;plan:joint0:37.253376,joint1:72.800003,joint2:245.742004,joint3:710.540955,joint4:0.000000,joint5:0.000000
time:258.058209795;plan:joint0:37.228928,joint1:72.800003,joint2:245.742004,joint3:710.540955,joint4:0.000000,joint5:0.000000
time:258.062208347;plan:joint0:37.197533,joint1:72.800003,joint2:245.742004,joint3:710.540955,joint4:0.000000,joint5:0.000000
time:258.066205223;plan:joint0:37.158325,joint1:72.800003,joint2:245.742004,joint3:710.540955,joint4:0.000000,joint5:0.000000
time:258.070204612;plan:joint0:37.110439,joint1:72.800003,joint2:245.742004,joint3:710.540955,joint4:0.000000,joint5:0.000000
time:258.074201488;plan:joint0:37.053001,joint1:72.800003,joint2:245.742004,joint3:710.540955,joint4:0.000000,joint5:0.000000
time:258.078203392;plan:joint0:36.985439,joint1:72.800003,joint2:245.742004,joint3:710.540955,joint4:0.000000,joint5:0.000000
time:258.082199430;plan:joint0:36.908325,joint1:72.800003,joint2:245.742004,joint3:710.540955,joint4:0.000000,joint5:0.000000
time:258.086199658;plan:joint0:36.822533,joint1:72.800003,joint2:245.742004,joint3:710.540955,joint4:0.000000,joint5:0.000000
time:258.090196533;plan:joint0:36.728928,joint1:72.800003,joint2:245.742004,joint3:710.540955,joint4:0.000000,joint5:0.000000
time:258.094194247;plan:joint0:36.628376,joint1:72.800003,joint2:245.742004,joint3:710.540955,joint4:0.000000,joint5:0.000000
time:258.098191961;plan:joint0:36.521751,joint1:72.800003,joint2:245.742004,joint3:710.540955,joint4:0.000000,joint5:0.000000
time:258.102189675;plan:joint0:36.409916,joint1:72.800003,joint2:245.742004,joint3:710.540955,joint4:0.000000,joint5:0.000000
time:258.106187388;plan:joint0:36.293743,joint1:72.800003,joint2:245.742004,joint3:710.540955,joint4:0.000000,joint5:0.000000
time:258.110185102;plan:joint0:36.174095,joint1:72.800003,joint2:245.742004,joint3:710.540955,joint4:0.000000,joint5:0.000000
time:258.114182816;plan:joint0:36.051846,joint1:72.800003,joint2:245.742004,joint3:710.540955,joint4:0.000000,joint5:0.000000
time:258.118180529;plan:joint0:35.927856,joint1:72.800003,joint2:245.742004,joint3:710.540955,joint4:0.000000,joint5:0.000000
time:258.122179081;plan:joint0:35.803001,joint1:72.800003,joint2:245.742004,joint3:710.540955,joint4:0.000000,joint5:0.000000
time:258.126192719;plan:joint0:35.678146,joint1:72.800003,joint2:245.742004,joint3:710.540955,joint4:0.000000,joint5:0.000000
time:258.130188756;plan:joint0:35.554157,joint1:72.800003,joint2:245.742004,joint3:710.540955,joint4:0.000000,joint5:0.000000
time:258.134192337;plan:joint0:35.431908,joint1:72.800003,joint2:245.742004,joint3:710.540955,joint4:0.000000,joint5:0.000000
time:258.138190888;plan:joint0:35.312260,joint1:72.800003,joint2:245.742004,joint3:710.540955,joint4:0.000000,joint5:0.000000
time:258.142181059;plan:joint0:35.196087,joint1:72.800003,joint2:245.742004,joint3:710.540955,joint4:0.000000,joint5:0.000000
time:258.146179611;plan:joint0:35.084251,joint1:72.800003,joint2:245.742004,joint3:710.540955,joint4:0.000000,joint5:0.000000
time:258.150178163;plan:joint0:34.977627,joint1:72.800003,joint2:245.742004,joint3:710.540955,joint4:0.000000,joint5:0.000000
time:258.154177552;plan:joint0:34.877075,joint1:72.800003,joint2:245.742004,joint3:710.540955,joint4:0.000000,joint5:0.000000
time:258.158173589;plan:joint0:34.783470,joint1:72.800003,joint2:245.742004,joint3:710.540955,joint4:0.000000,joint5:0.000000
time:258.162171303;plan:joint0:34.697678,joint1:72.800003,joint2:245.742004,joint3:710.540955,joint4:0.000000,joint5:0.000000
time:258.166171531;plan:joint0:34.620564,joint1:72.800003,joint2:245.742004,joint3:710.540955,joint4:0.000000,joint5:0.000000
time:258.170170083;plan:joint0:34.553001,joint1:72.800003,joint2:245.742004,joint3:710.540955,joint4:0.000000,joint5:0.000000
time:258.174164444;plan:joint0:34.495564,joint1:72.800003,joint2:245.742004,joint3:710.540955,joint4:0.000000,joint5:0.000000
time:258.178154615;plan:joint0:34.447678,joint1:72.800003,joint2:245.742004,joint3:710.540955,joint4:0.000000,joint5:0.000000
time:258.182153167;plan:joint0:34.408470,joint1:72.800003,joint2:245.742004,joint3:710.540955,joint4:0.000000,joint5:0.000000
time:258.186149204;plan:joint0:34.377075,joint1:72.800003,joint2:245.742004,joint3:710.540955,joint4:0.000000,joint5:0.000000
time:258.190146080;plan:joint0:34.352627,joint1:72.800003,joint2:245.742004,joint3:710.540955,joint4:0.000000,joint5:0.000000
time:258.194152175;plan:joint0:34.334251,joint1:72.800003,joint2:245.742004,joint3:710.540955,joint4:0.000000,joint5:0.000000
time:258.198144022;plan:joint0:34.321087,joint1:72.800003,joint2:245.742004,joint3:710.540955,joint4:0.000000,joint5:0.000000
time:258.202141735;plan:joint0:34.312260,joint1:72.800003,joint2:245.742004,joint3:710.540955,joint4:0.000000,joint5:0.000000
time:258.206143640;plan:joint0:34.306908,joint1:72.800003,joint2:245.742004,joint3:710.540955,joint4:0.000000,joint5:0.000000
time:258.210139677;plan:joint0:34.304157,joint1:72.800003,joint2:245.742004,joint3:710.540955,joint4:0.000000,joint5:0.000000
time:258.214135715;plan:joint0:34.303146,joint1:72.800003,joint2:245.742004,joint3:710.540955,joint4:0.000000,joint5:0.000000
time:258.218134267;plan:joint0:34.303001,joint1:72.800003,joint2:245.742004,joint3:710.540955,joint4:0.000000,joint5:0.000000
time:262.219996512;plan:joint0:34.303001,joint1:72.799957,joint2:245.740799,joint3:710.540955,joint4:0.000000,joint5:0.000000
time:262.223985845;plan:joint0:34.303001,joint1:72.799683,joint2:245.732285,joint3:710.540955,joint4:0.000000,joint5:0.000000
time:262.227982720;plan:joint0:34.303001,joint1:72.798912,joint2:245.709274,joint3:710.540955,joint4:0.000000,joint5:0.000000
time:262.231980434;plan:joint0:34.303001,joint1:72.797424,joint2:245.664459,joint3:710.540955,joint4:0.000000,joint5:0.000000
time:262.235977310;plan:joint0:34.303001,joint1:72.794975,joint2:245.590683,joint3:710.540955,joint4:0.000000,joint5:0.000000
time:262.239975862;plan:joint0:34.303001,joint1:72.791313,joint2:245.480469,joint3:710.540955,joint4:0.000000,joint5:0.000000
time:262.243972737;plan:joint0:34.303001,joint1:72.786201,joint2:245.326691,joint3:710.540955,joint4:0.000000,joint5:0.000000
time:262.247972127;plan:joint0:34.303001,joint1:72.779396,joint2:245.122101,joint3:710.540955,joint4:0.000000,joint5:0.000000
time:262.251969003;plan:joint0:34.303001,joint1:72.770645,joint2:244.859406,joint3:710.540955,joint4:0.000000,joint5:0.000000
time:262.255968392;plan:joint0:34.303001,joint1:72.759712,joint2:244.531433,joint3:710.540955,joint4:0.000000,joint5:0.000000
time:262.259966943;plan:joint0:34.303001,joint1:72.746330,joint2:244.130722,joint3:710.540955,joint4:0.000000,joint5:0.000000
time:262.263962981;plan:joint0:34.303001,joint1:72.730263,joint2:243.650253,joint3:710.540955,joint4:0.000000,joint5:0.000000
time:262.267960695;plan:joint0:34.303001,joint1:72.711243,joint2:243.082657,joint3:710.540955,joint4:0.000000,joint5:0.000000
time:262.271958408;plan:joint0:34.303001,joint1:72.689011,joint2:242.420715,joint3:710.540955,joint4:0.000000,joint5:0.000000
time:262.275956960;plan:joint0:34.303001,joint1:72.663307,joint2:241.657303,joint3:710.540955,joint4:0.000000,joint5:0.000000
time:262.279953836;plan:joint0:34.303001,joint1:72.633842,joint2:240.785095,joint3:710.540955,joint4:0.000000,joint5:0.000000
time:262.283957416;plan:joint0:34.303001,joint1:72.600433,joint2:239.799362,joint3:710.540955,joint4:0.000000,joint5:0.000000
time:262.287954292;plan:joint0:34.303001,joint1:72.563194,joint2:238.705017,joint3:710.540955,joint4:0.000000,joint5:0.000000
time:262.291952005;plan:joint0:34.303001,joint1:72.522324,joint2:237.509338,joint3:710.540955,joint4:0.000000,joint5:0.000000
time:262.295950557;plan:joint0:34.303001,joint1:72.478050,joint2:236.219727,joint3:710.540955,joint4:0.000000,joint5:0.000000
time:262.299948271;plan:joint0:34.303001,joint1:72.430542,joint2:234.843430,joint3:710.540955,joint4:0.000000,joint5:0.000000
time:262.303945985;plan:joint0:34.303001,joint1:72.380043,joint2:233.387817,joint3:710.540955,joint4:0.000000,joint5:0.000000
time:262.307942860;plan:joint0:34.303001,joint1:72.326729,joint2:231.860153,joint3:710.540955,joint4:0.000000,joint5:0.000000
time:262.311941412;plan:joint0:34.303001,joint1:72.270828,joint2:230.267807,joint3:710.540955,joint4:0.000000,joint5:0.000000
time:262.315939126;plan:joint0:34.303001,joint1:72.212547,joint2:228.618088,joint3:710.540955,joint4:0.000000,joint5:0.000000
time:262.319936001;plan:joint0:34.303001,joint1:72.152115,joint2:226.918259,joint3:710.540955,joint4:0.000000,joint5:0.000000
time:262.323933715;plan:joint0:34.303001,joint1:72.089745,joint2:225.175659,joint3:710.540955,joint4:0.000000,joint5:0.000000
time:262.327933105;plan:joint0:34.303001,joint1:72.025665,joint2:223.397522,joint3:710.540955,joint4:0.000000,joint5:0.000000
time:262.331930819;plan:joint0:34.303001,joint1:71.960114,joint2:221.591187,joint3:710.540955,joint4:0.000000,joint5:0.000000
time:262.335938590;plan:joint0:34.303001,joint1:71.893318,joint2:219.763855,joint3:710.540955,joint4:0.000000,joint5:0.000000
time:262.339928761;plan:joint0:34.303001,joint1:71.825554,joint2:217.922791,joint3:710.540955,joint4:0.000000,joint5:0.000000
time:262.343925636;plan:joint0:34.303001,joint1:71.757042,joint2:216.075302,joint3:710.540955,joint4:0.000000,joint5:0.000000
time:262.347917483;plan:joint0:34.303001,joint1:71.688019,joint2:214.227417,joint3:710.540955,joint4:0.000000,joint5:0.000000
time:262.351913520;plan:joint0:34.303001,joint1:71.618507,joint2:212.380234,joint3:710.540955,joint4:0.000000,joint5:0.000000
time:262.355914586;plan:joint0:34.303001,joint1:71.548523,joint2:210.533859,joint3:710.540955,joint4:0.000000,joint5:0.000000
time:262.359908947;plan:joint0:34.303001,joint1:71.478043,joint2:208.688339,joint3:710.540955,joint4:0.000000,joint5:0.000000
time:262.363907499;plan:joint0:34.303001,joint1:71.407074,joint2:206.843628,joint3:710.540955,joint4:0.000000,joint5:0.000000
time:262.367904375;plan:joint0:34.303001,joint1:71.335602,joint2:204.999634,joint3:710.540955,joint4:0.000000,joint5:0.000000
time:262.371902088;plan:joint0:34.303001,joint1:71.263626,joint2:203.156555,joint3:710.540955,joint4:0.000000,joint5:0.000000
time:262.375898964;plan:joint0:34.303001,joint1:71.191147,joint2:201.314255,joint3:710.540955,joint4:0.000000,joint5:0.000000
time:262.379896678;plan:joint0:34.303001,joint1:71.118141,joint2:199.472824,joint3:710.540955,joint4:0.000000,joint5:0.000000
time:262.383894391;plan:joint0:34.303001,joint1:71.044632,joint2:197.632248,joint3:710.540955,joint4:0.000000,joint5:0.000000
time:262.387894619;plan:joint0:34.303001,joint1:70.970589,joint2:195.792542,joint3:710.540955,joint4:0.000000,joint5:0.000000
time:262.391892333;plan:joint0:34.303001,joint1:70.896019,joint2:193.953659,joint3:710.540955,joint4:0.000000,joint5:0.000000
time:262.395888371;plan:joint0:34.303001,joint1:70.820915,joint2:192.115662,joint3:710.540955,joint4:0.000000,joint5:0.000000
time:262.399886922;plan:joint0:34.303001,joint1:70.745262,joint2:190.278549,joint3:710.540955,joint4:0.000000,joint5:0.000000
time:262.403883798;plan:joint0:34.303001,joint1:70.669075,joint2:188.442352,joint3:710.540955,joint4:0.000000,joint5:0.000000
time:262.407883188;plan:joint0:34.303001,joint1:70.592323,joint2:186.607025,joint3:710.540955,joint4:0.000000,joint5:0.000000
time:262.411879225;plan:joint0:34.303001,joint1:70.515015,joint2:184.772644,joint3:710.540955,joint4:0.000000,joint5:0.000000
time:262.415878615;plan:joint0:34.303001,joint1:70.437149,joint2:182.939194,joint3:710.540955,joint4:0.000000,joint5:0.000000
time:262.419877167;plan:joint0:34.303001,joint1:70.358711,joint2:181.106659,joint3:710.540955,joint4:0.000000,joint5:0.000000
time:262.423873205;plan:joint0:34.303001,joint1:70.279701,joint2:179.275085,joint3:710.540955,joint4:0.000000,joint5:0.000000
time:262.427872595;plan:joint0:34.303001,joint1:70.200111,joint2:177.444458,joint3:710.540955,joint4:0.000000,joint5:0.000000
time:262.431868632;plan:joint0:34.303001,joint1:70.119926,joint2:175.614807,joint3:710.540955,joint4:0.000000,joint5:0.000000
time:262.435866346;plan:joint0:34.303001,joint1:70.039154,joint2:173.786133,joint3:710.540955,joint4:0.000000,joint5:0.000000
time:262.439864898;plan:joint0:34.303001,joint1:69.957771,joint2:171.958435,joint3:710.540955,joint4:0.000000,joint5:0.000000
time:262.443863449;plan:joint0:34.303001,joint1:69.875786,joint2:170.131775,joint3:710.540955,joint4:0.000000,joint5:0.000000
time:262.447861163;plan:joint0:34.303001,joint1:69.793190,joint2:168.306076,joint3:710.540955,joint4:0.000000,joint5:0.000000
time:262.451858877;plan:joint0:34.303001,joint1:69.709976,joint2:166.481415,joint3:710.540955,joint4:0.000000,joint5:0.000000
time:262.455857428;plan:joint0:34.303001,joint1:69.626129,joint2:164.657791,joint3:710.540955,joint4:0.000000,joint5:0.000000
time:262.459855141;plan:joint0:34.303001,joint1:69.541656,joint2:162.835236,joint3:710.540955,joint4:0.000000,joint5:0.000000
time:262.463852855;plan:joint0:34.303001,joint1:69.456543,joint2:161.013702,joint3:710.540955,joint4:0.000000,joint5:0.000000
time:262.467849731;plan:joint0:34.303001,joint1:69.370773,joint2:159.193253,joint3:710.540955,joint4:0.000000,joint5:0.000000
time:262.471847444;plan:joint0:34.303001,joint1:69.284363,joint2:157.373901,joint3:710.540955,joint4:0.000000,joint5:0.000000
time:262.475846834;plan:joint0:34.303001,joint1:69.197281,joint2:155.555634,joint3:710.540955,joint4:0.000000,joint5:0.000000
time:262.479844548;plan:joint0:34.303001,joint1:69.109535,joint2:153.738464,joint3:710.540955,joint4:0.000000,joint5:0.000000
time:262.483842262;plan:joint0:34.303001,joint1:69.021111,joint2:151.922379,joint3:710.540955,joint4:0.000000,joint5:0.000000
time:262.487839976;plan:joint0:34.303001,joint1:68.932014,joint2:150.107483,joint3:710.540955,joint4:0.000000,joint5:0.000000
time:262.491837689;plan:joint0:34.303001,joint1:68.842216,joint2:148.293732,joint3:710.540955,joint4:0.000000,joint5:0.000000
time:262.495834565;plan:joint0:34.303001,joint1:68.751724,joint2:146.481140,joint3:710.540955,joint4:0.000000,joint5:0.000000
time:262.499832279;plan:joint0:34.303001,joint1:68.660515,joint2:144.669678,joint3:710.540955,joint4:0.000000,joint5:0.000000
time:262.503829992;plan:joint0:34.303001,joint1:68.568611,joint2:142.859436,joint3:710.540955,joint4:0.000000,joint5:0.000000
time:262.507829382;plan:joint0:34.303001,joint1:68.475975,joint2:141.050400,joint3:710.540955,joint4:0.000000,joint5:0.000000
time:262.511826258;plan:joint0:34.303001,joint1:68.382614,joint2:139.242554,joint3:710.540955,joint4:0.000000,joint5:0.000000
time:262.515823972;plan:joint0:34.303001,joint1:68.288513,joint2:137.435944,joint3:710.540955,joint4:0.000000,joint5:0.000000
time:262.519821685;plan:joint0:34.303001,joint1:68.193657,joint2:135.630615,joint3:710.540955,joint4:0.000000,joint5:0.000000
time:262.523819399;plan:joint0:34.303001,joint1:68.098061,joint2:133.826477,joint3:710.540955,joint4:0.000000,joint5:0.000000
time:262.527817951;plan:joint0:34.303001,joint1:68.001694,joint2:132.023651,joint3:710.540955,joint4:0.000000,joint5:0.000000
time:262.531814826;plan:joint0:34.303001,joint1:67.904556,joint2:130.222122,joint3:710.540955,joint4:0.000000,joint5:0.000000
time:262.535815054;plan:joint0:34.303001,joint1:67.806641,joint2:128.421890,joint3:710.540955,joint4:0.000000,joint5:0.000000
time:262.539811092;plan:joint0:34.303001,joint1:67.707939,joint2:126.622948,joint3:710.540955,joint4:0.000000,joint5:0.000000
time:262.543809644;plan:joint0:34.303001,joint1:67.608437,joint2:124.825371,joint3:710.540955,joint4:0.000000,joint5:0.000000
time:262.547849262;plan:joint0:34.303001,joint1:67.508194,joint2:123.027771,joint3:710.540955,joint4:0.000000,joint5:0.000000
time:262.551837756;plan:joint0:34.303001,joint1:67.407593,joint2:121.223106,joint3:710.540955,joint4:0.000000,joint5:0.000000
time:262.555837146;plan:joint0:34.303001,joint1:67.307068,joint2:119.402985,joint3:710.540955,joint4:0.000000,joint5:0.000000
time:262.559830669;plan:joint0:34.303001,joint1:67.207047,joint2:117.558968,joint3:710.540955,joint4:0.000000,joint5:0.000000
time:262.563827545;plan:joint0:34.303001,joint1:67.107971,joint2:115.682549,joint3:710.540955,joint4:0.000000,joint5:0.000000
time:262.567825258;plan:joint0:34.303001,joint1:67.010300,joint2:113.765312,joint3:710.540955,joint4:0.000000,joint5:0.000000
time:262.571823810;plan:joint0:34.303001,joint1:66.914452,joint2:111.798668,joint3:710.540955,joint4:0.000000,joint5:0.000000
time:262.575820686;plan:joint0:34.303001,joint1:66.820877,joint2:109.774200,joint3:710.540955,joint4:0.000000,joint5:0.000000
time:262.579818399;plan:joint0:34.303001,joint1:66.730011,joint2:107.683258,joint3:710.540955,joint4:0.000000,joint5:0.000000
time:262.583817789;plan:joint0:34.303001,joint1:66.642311,joint2:105.517334,joint3:710.540955,joint4:0.000000,joint5:0.000000
time:262.587818855;plan:joint0:34.303001,joint1:66.558235,joint2:103.267815,joint3:710.540955,joint4:0.000000,joint5:0.000000
time:262.591813217;plan:joint0:34.303001,joint1:66.478226,joint2:100.926048,joint3:710.540955,joint4:0.000000,joint5:0.000000
time:262.595810092;plan:joint0:34.303001,joint1:66.402763,joint2:98.483574,joint3:710.540955,joint4:0.000000,joint5:0.000000
time:262.599808644;plan:joint0:34.303001,joint1:66.332329,joint2:95.931671,joint3:710.540955,joint4:0.000000,joint5:0.000000
time:262.603805520;plan:joint0:34.303001,joint1:66.267418,joint2:93.261688,joint3:710.540955,joint4:0.000000,joint5:0.000000
time:262.607803234;plan:joint0:34.303001,joint1:66.208534,joint2:90.465088,joint3:710.540955,joint4:0.000000,joint5:0.000000
time:262.611811004;plan:joint0:34.303001,joint1:66.156044,joint2:87.535973,joint3:710.540955,joint4:0.000000,joint5:0.000000
time:262.615807042;plan:joint0:34.303001,joint1:66.109749,joint2:84.479980,joint3:710.540955,joint4:0.000000,joint5:0.000000
time:262.619804756;plan:joint0:34.303001,joint1:66.069267,joint2:81.305412,joint3:710.540955,joint4:0.000000,joint5:0.000000
time:262.623802469;plan:joint0:34.303001,joint1:66.034225,joint2:78.020630,joint3:710.540955,joint4:0.000000,joint5:0.000000
time:262.627801859;plan:joint0:34.303001,joint1:66.004280,joint2:74.634155,joint3:710.540955,joint4:0.000000,joint5:0.000000
time:262.631843992;plan:joint0:34.303001,joint1:65.979042,joint2:71.154327,joint3:710.540955,joint4:0.000000,joint5:0.000000
time:262.635835001;plan:joint0:34.303001,joint1:65.958153,joint2:67.589661,joint3:710.540955,joint4:0.000000,joint5:0.000000
time:262.639841934;plan:joint0:34.303001,joint1:65.941231,joint2:63.948605,joint3:710.540955,joint4:0.000000,joint5:0.000000
time:262.643832105;plan:joint0:34.303001,joint1:65.927887,joint2:60.239624,joint3:710.540955,joint4:0.000000,joint5:0.000000
time:262.647839037;plan:joint0:34.303001,joint1:65.917740,joint2:56.471161,joint3:710.540955,joint4:0.000000,joint5:0.000000
time:262.651817474;plan:joint0:34.303001,joint1:65.910370,joint2:52.651703,joint3:710.540955,joint4:0.000000,joint5:0.000000
time:262.655821054;plan:joint0:34.303001,joint1:65.905365,joint2:48.789822,joint3:710.540955,joint4:0.000000,joint5:0.000000
time:262.659797816;plan:joint0:34.303001,joint1:65.902290,joint2:44.893917,joint3:710.540955,joint4:0.000000,joint5:0.000000
time:262.663813967;plan:joint0:34.303001,joint1:65.900681,joint2:40.972534,joint3:710.540955,joint4:0.000000,joint5:0.000000
time:262.667782348;plan:joint0:34.303001,joint1:65.900093,joint2:37.034145,joint3:710.540955,joint4:0.000000,joint5:0.000000
time:262.671779223;plan:joint0:34.303001,joint1:65.900002,joint2:33.087280,joint3:710.540955,joint4:0.000000,joint5:0.000000
time:262.675742575;plan:joint0:34.303001,joint1:65.900002,joint2:29.138975,joint3:710.540955,joint4:0.000000,joint5:0.000000
time:262.679737775;plan:joint0:34.303001,joint1:65.900002,joint2:25.190702,joint3:710.540955,joint4:0.000000,joint5:0.000000
time:262.683733812;plan:joint0:34.303001,joint1:65.900002,joint2:21.242430,joint3:710.540955,joint4:0.000000,joint5:0.000000
time:262.687733202;plan:joint0:34.303001,joint1:65.900002,joint2:17.294098,joint3:710.540955,joint4:0.000000,joint5:0.000000
time:262.691729240;plan:joint0:34.303001,joint1:65.900002,joint2:13.345825,joint3:710.540955,joint4:0.000000,joint5:0.000000
time:262.695727791;plan:joint0:34.303001,joint1:65.900002,joint2:9.397552,joint3:710.540955,joint4:0.000000,joint5:0.000000
time:262.699723829;plan:joint0:34.303001,joint1:65.900002,joint2:5.449219,joint3:710.540955,joint4:0.000000,joint5:0.000000
time:262.703721543;plan:joint0:34.303001,joint1:65.900002,joint2:1.500946,joint3:710.540955,joint4:0.000000,joint5:0.000000
time:262.707720094;plan:joint0:34.303001,joint1:65.900002,joint2:-2.447326,joint3:710.540955,joint4:0.000000,joint5:0.000000
time:262.711718646;plan:joint0:34.303001,joint1:65.900002,joint2:-6.395660,joint3:710.540955,joint4:0.000000,joint5:0.000000
time:262.715717198;plan:joint0:34.303001,joint1:65.900002,joint2:-10.343933,joint3:710.540955,joint4:0.000000,joint5:0.000000
time:262.719714074;plan:joint0:34.303001,joint1:65.900002,joint2:-14.292206,joint3:710.540955,joint4:0.000000,joint5:0.000000
time:262.723710949;plan:joint0:34.303001,joint1:65.900002,joint2:-18.240540,joint3:710.540955,joint4:0.000000,joint5:0.000000
time:262.727711177;plan:joint0:34.303001,joint1:65.900002,joint2:-22.188812,joint3:710.540955,joint4:0.000000,joint5:0.000000
time:262.731708891;plan:joint0:34.303001,joint1:65.900002,joint2:-26.137085,joint3:710.540955,joint4:0.000000,joint5:0.000000
time:262.735706605;plan:joint0:34.303001,joint1:65.900002,joint2:-30.085388,joint3:710.540955,joint4:0.000000,joint5:0.000000
time:262.739703480;plan:joint0:34.303001,joint1:65.900002,joint2:-34.033688,joint3:710.540955,joint4:0.000000,joint5:0.000000
time:262.743702032;plan:joint0:34.303001,joint1:65.900002,joint2:-37.981964,joint3:710.540955,joint4:0.000000,joint5:0.000000
time:262.747700584;plan:joint0:34.303001,joint1:65.900002,joint2:-41.930264,joint3:710.540955,joint4:0.000000,joint5:0.000000
time:262.751698298;plan:joint0:34.303001,joint1:65.900002,joint2:-45.878571,joint3:710.540955,joint4:0.000000,joint5:0.000000
time:262.755699363;plan:joint0:34.303001,joint1:65.900002,joint2:-49.826843,joint3:710.540955,joint4:0.000000,joint5:0.000000
time:262.759692886;plan:joint0:34.303001,joint1:65.900002,joint2:-53.775143,joint3:710.540955,joint4:0.000000,joint5:0.000000
time:262.763690600;plan:joint0:34.303001,joint1:65.900002,joint2:-57.723450,joint3:710.540955,joint4:0.000000,joint5:0.000000
time:262.767689152;plan:joint0:34.303001,joint1:65.900002,joint2:-61.671719,joint3:710.540955,joint4:0.000000,joint5:0.000000
time:262.771686865;plan:joint0:34.303001,joint1:65.900002,joint2:-65.620018,joint3:710.540955,joint4:0.000000,joint5:0.000000
time:262.775684579;plan:joint0:34.303001,joint1:65.900002,joint2:-69.568298,joint3:710.540955,joint4:0.000000,joint5:0.000000
time:262.779682293;plan:joint0:34.303001,joint1:65.900002,joint2:-73.516602,joint3:710.540955,joint4:0.000000,joint5:0.000000
time:262.783679168;plan:joint0:34.303001,joint1:65.900002,joint2:-77.464890,joint3:710.540955,joint4:0.000000,joint5:0.000000
time:262.787678558;plan:joint0:34.303001,joint1:65.900002,joint2:-81.413177,joint3:710.540955,joint4:0.000000,joint5:0.000000
time:262.791677110;plan:joint0:34.303001,joint1:65.900002,joint2:-85.361473,joint3:710.540955,joint4:0.000000,joint5:0.000000
time:262.795674824;plan:joint0:34.303001,joint1:65.900002,joint2:-89.309769,joint3:710.540955,joint4:0.000000,joint5:0.000000
time:262.799672538;plan:joint0:34.303001,joint1:65.900002,joint2:-93.258057,joint3:710.540955,joint4:0.000000,joint5:0.000000
time:262.803668575;plan:joint0:34.303001,joint1:65.900002,joint2:-97.206345,joint3:710.540955,joint4:0.000000,joint5:0.000000
time:262.807667965;plan:joint0:34.303001,joint1:65.900002,joint2:-101.154633,joint3:710.540955,joint4:0.000000,joint5:0.000000
time:262.811665679;plan:joint0:34.303001,joint1:65.900002,joint2:-105.102936,joint3:710.540955,joint4:0.000000,joint5:0.000000
time:262.815662554;plan:joint0:34.303001,joint1:65.900002,joint2:-109.051208,joint3:710.540955,joint4:0.000000,joint5:0.000000
time:262.819661106;plan:joint0:34.303001,joint1:65.900002,joint2:-112.999504,joint3:710.540955,joint4:0.000000,joint5:0.000000
time:262.823658820;plan:joint0:34.303001,joint1:65.900002,joint2:-116.947807,joint3:710.540955,joint4:0.000000,joint5:0.000000
time:262.827655695;plan:joint0:34.303001,joint1:65.900002,joint2:-120.896088,joint3:710.540955,joint4:0.000000,joint5:0.000000
time:262.831653409;plan:joint0:34.303001,joint1:65.900002,joint2:-124.844383,joint3:710.540955,joint4:0.000000,joint5:0.000000
time:262.835651961;plan:joint0:34.303001,joint1:65.900002,joint2:-128.792664,joint3:710.540955,joint4:0.000000,joint5:0.000000
time:262.839650513;plan:joint0:34.303001,joint1:65.900002,joint2:-132.740967,joint3:710.540955,joint4:0.000000,joint5:0.000000
time:262.843649065;plan:joint0:34.303001,joint1:65.900002,joint2:-136.689255,joint3:710.540955,joint4:0.000000,joint5:0.000000
time:262.847646778;plan:joint0:34.303001,joint1:65.900002,joint2:-140.637558,joint3:710.540955,joint4:0.000000,joint5:0.000000
time:262.851643653;plan:joint0:34.303001,joint1:65.900002,joint2:-144.585831,joint3:710.540955,joint4:0.000000,joint5:0.000000
time:262.855642205;plan:joint0:34.303001,joint1:65.900002,joint2:-148.534134,joint3:710.540955,joint4:0.000000,joint5:0.000000
time:262.859639918;plan:joint0:34.303001,joint1:65.900002,joint2:-152.482407,joint3:710.540955,joint4:0.000000,joint5:0.000000
time:262.863638470;plan:joint0:34.303001,joint1:65.900002,joint2:-156.430725,joint3:710.540955,joint4:0.000000,joint5:0.000000
time:262.867636184;plan:joint0:34.303001,joint1:65.900002,joint2:-160.379013,joint3:710.540955,joint4:0.000000,joint5:0.000000
time:262.871633898;plan:joint0:34.303001,joint1:65.900002,joint2:-164.327301,joint3:710.540955,joint4:0.000000,joint5:0.000000
time:262.875646697;plan:joint0:34.303001,joint1:65.900002,joint2:-168.273010,joint3:710.540955,joint4:0.000000,joint5:0.000000
time:262.879642735;plan:joint0:34.303001,joint1:65.900002,joint2:-172.203323,joint3:710.540955,joint4:0.000000,joint5:0.000000
