heyhilz/my_project-----/2024-09-18-14-50-44/plan_data.txt
time:55.968143162:joint0:34.002098083496094;joint1:65.32193756103516;joint2:-227.5;joint3:704.3082275390625;joint4:0.0;joint5:0.0;
time:55.972142552:joint0:34.012020111083984;joint1:65.34098815917969;joint2:-227.5;joint3:704.513671875;joint4:0.0;joint5:0.0;
time:55.976139426:joint0:34.0217170715332;joint1:65.359619140625;joint2:-227.5;joint3:704.714599609375;joint4:0.0;joint5:0.0;
time:55.980137140:joint0:34.03119659423828;joint1:65.37783813476562;joint2:-227.5;joint3:704.9109497070312;joint4:0.0;joint5:0.0;
time:55.984135692:joint0:34.040462493896484;joint1:65.39563751220703;joint2:-227.5;joint3:705.1028442382812;joint4:0.0;joint5:0.0;
time:55.988133405:joint0:34.04951477050781;joint1:65.41302490234375;joint2:-227.5;joint3:705.2903442382812;joint4:0.0;joint5:0.0;
time:55.992130281:joint0:34.05835723876953;joint1:65.43000793457031;joint2:-227.5;joint3:705.4735107421875;joint4:0.0;joint5:0.0;
time:55.996128833:joint0:34.06698989868164;joint1:65.44659423828125;joint2:-227.5;joint3:705.65234375;joint4:0.0;joint5:0.0;
time:56.125709:joint0:34.07542037963867;joint1:65.4627914428711;joint2:-227.5;joint3:705.826904296875;joint4:0.0;joint5:0.0;
time:56.4123422:joint0:34.08364486694336;joint1:65.47859191894531;joint2:-227.5;joint3:705.997314453125;joint4:0.0;joint5:0.0;
time:56.8122812:joint0:34.09166717529297;joint1:65.49400329589844;joint2:-227.5;joint3:706.1635131835938;joint4:0.0;joint5:0.0;
time:56.12118012:joint0:34.09949493408203;joint1:65.50904083251953;joint2:-227.5;joint3:706.3256225585938;joint4:0.0;joint5:0.0;
time:56.16117402:joint0:34.10712432861328;joint1:65.5237045288086;joint2:-227.5;joint3:706.4837036132812;joint4:0.0;joint5:0.0;
time:56.20115953:joint0:34.11456298828125;joint1:65.5379867553711;joint2:-227.5;joint3:706.6377563476562;joint4:0.0;joint5:0.0;
time:56.24111153:joint0:34.12181091308594;joint1:65.55191040039062;joint2:-227.5;joint3:706.787841796875;joint4:0.0;joint5:0.0;
time:56.28110543:joint0:34.128868103027344;joint1:65.56547546386719;joint2:-227.5;joint3:706.93408203125;joint4:0.0;joint5:0.0;
time:56.32108256:joint0:34.1357421875;joint1:65.57867431640625;joint2:-227.5;joint3:707.076416015625;joint4:0.0;joint5:0.0;
time:56.36105132:joint0:34.14242935180664;joint1:65.5915298461914;joint2:-227.5;joint3:707.2149658203125;joint4:0.0;joint5:0.0;
time:56.40103684:joint0:34.1489372253418;joint1:65.60403442382812;joint2:-227.5;joint3:707.3497924804688;joint4:0.0;joint5:0.0;
time:56.44100559:joint0:34.155269622802734;joint1:65.61619567871094;joint2:-227.5;joint3:707.48095703125;joint4:0.0;joint5:0.0;
time:56.48099111:joint0:34.16142272949219;joint1:65.62801361083984;joint2:-227.5;joint3:707.6083984375;joint4:0.0;joint5:0.0;
time:56.52097663:joint0:34.16740417480469;joint1:65.6395034790039;joint2:-227.5;joint3:707.7322998046875;joint4:0.0;joint5:0.0;
time:56.56096215:joint0:34.1732177734375;joint1:65.65066528320312;joint2:-227.5;joint3:707.8526611328125;joint4:0.0;joint5:0.0;
time:56.60093929:joint0:34.178855895996094;joint1:65.66150665283203;joint2:-227.5;joint3:707.9695434570312;joint4:0.0;joint5:0.0;
time:56.64089966:joint0:34.18433380126953;joint1:65.67202758789062;joint2:-227.5;joint3:708.0829467773438;joint4:0.0;joint5:0.0;
time:56.68090194:joint0:34.18964767456055;joint1:65.68223571777344;joint2:-227.5;joint3:708.1929931640625;joint4:0.0;joint5:0.0;
time:56.72087908:joint0:34.19479751586914;joint1:65.69213104248047;joint2:-227.5;joint3:708.2996826171875;joint4:0.0;joint5:0.0;
time:56.76085622:joint0:34.199790954589844;joint1:65.70172119140625;joint2:-227.5;joint3:708.4031372070312;joint4:0.0;joint5:0.0;
time:56.80082496:joint0:34.204627990722656;joint1:65.71101379394531;joint2:-227.5;joint3:708.5033569335938;joint4:0.0;joint5:0.0;
time:56.84082724:joint0:34.209312438964844;joint1:65.72001647949219;joint2:-227.5;joint3:708.600341796875;joint4:0.0;joint5:0.0;
time:56.88078762:joint0:34.213844299316406;joint1:65.72872161865234;joint2:-227.5;joint3:708.6942138671875;joint4:0.0;joint5:0.0;
time:56.92077313:joint0:34.21822738647461;joint1:65.73714447021484;joint2:-227.5;joint3:708.7850341796875;joint4:0.0;joint5:0.0;
time:56.96074189:joint0:34.22246551513672;joint1:65.74528503417969;joint2:-227.5;joint3:708.872802734375;joint4:0.0;joint5:0.0;
time:56.100071065:joint0:34.226558685302734;joint1:65.7531509399414;joint2:-227.5;joint3:708.9576416015625;joint4:0.0;joint5:0.0;
time:56.104071293:joint0:34.23051452636719;joint1:65.7607421875;joint2:-227.5;joint3:709.0394897460938;joint4:0.0;joint5:0.0;
time:56.108066492:joint0:34.23432922363281;joint1:65.76807403564453;joint2:-227.5;joint3:709.1185302734375;joint4:0.0;joint5:0.0;
time:56.112066720:joint0:34.238006591796875;joint1:65.77513885498047;joint2:-227.5;joint3:709.1947021484375;joint4:0.0;joint5:0.0;
time:56.116063596:joint0:34.24155044555664;joint1:65.78194427490234;joint2:-227.5;joint3:709.2681274414062;joint4:0.0;joint5:0.0;
time:56.120062148:joint0:34.244964599609375;joint1:65.78850555419922;joint2:-227.5;joint3:709.3388061523438;joint4:0.0;joint5:0.0;
time:56.124059023:joint0:34.24824905395508;joint1:65.79481506347656;joint2:-227.5;joint3:709.4068603515625;joint4:0.0;joint5:0.0;
time:56.128057575:joint0:34.25140380859375;joint1:65.8008804321289;joint2:-227.5;joint3:709.4722290039062;joint4:0.0;joint5:0.0;
time:56.132055289:joint0:34.25444030761719;joint1:65.80670928955078;joint2:-227.5;joint3:709.5350952148438;joint4:0.0;joint5:0.0;
time:56.136085688:joint0:34.25735092163086;joint1:65.81230163574219;joint2:-227.5;joint3:709.595458984375;joint4:0.0;joint5:0.0;
time:56.140080888:joint0:34.26014709472656;joint1:65.81767272949219;joint2:-227.5;joint3:709.6533203125;joint4:0.0;joint5:0.0;
time:56.144097877:joint0:34.26282501220703;joint1:65.82281494140625;joint2:-227.5;joint3:709.7088012695312;joint4:0.0;joint5:0.0;
time:56.148073801:joint0:34.26538848876953;joint1:65.82774353027344;joint2:-227.5;joint3:709.7619018554688;joint4:0.0;joint5:0.0;
time:56.152089114:joint0:34.26784133911133;joint1:65.83245086669922;joint2:-227.5;joint3:709.8126831054688;joint4:0.0;joint5:0.0;
time:56.156044085:joint0:34.27018356323242;joint1:65.83695220947266;joint2:-227.5;joint3:709.8612060546875;joint4:0.0;joint5:0.0;
time:56.160068618:joint0:34.27241897583008;joint1:65.84124755859375;joint2:-227.5;joint3:709.9075317382812;joint4:0.0;joint5:0.0;
time:56.164043703:joint0:34.27455139160156;joint1:65.84535217285156;joint2:-227.5;joint3:709.9517211914062;joint4:0.0;joint5:0.0;
time:56.168059017:joint0:34.27658462524414;joint1:65.84925079345703;joint2:-227.5;joint3:709.9937744140625;joint4:0.0;joint5:0.0;
time:56.172037454:joint0:34.27851486206055;joint1:65.85295867919922;joint2:-227.5;joint3:710.0338134765625;joint4:0.0;joint5:0.0;
time:56.176033491:joint0:34.28034973144531;joint1:65.85649108886719;joint2:-227.5;joint3:710.0718383789062;joint4:0.0;joint5:0.0;
time:56.180032881:joint0:34.2820930480957;joint1:65.85983276367188;joint2:-227.5;joint3:710.10791015625;joint4:0.0;joint5:0.0;
time:56.184031433:joint0:34.28374099731445;joint1:65.86300659179688;joint2:-227.5;joint3:710.14208984375;joint4:0.0;joint5:0.0;
time:56.188031661:joint0:34.285301208496094;joint1:65.86600494384766;joint2:-227.5;joint3:710.1743774414062;joint4:0.0;joint5:0.0;
time:56.192033565:joint0:34.28677749633789;joint1:65.86883544921875;joint2:-227.5;joint3:710.2049560546875;joint4:0.0;joint5:0.0;
time:56.196021221:joint0:34.28816604614258;joint1:65.87150573730469;joint2:-227.5;joint3:710.2337036132812;joint4:0.0;joint5:0.0;
time:56.200019773:joint0:34.28947448730469;joint1:65.87401580810547;joint2:-227.5;joint3:710.2608032226562;joint4:0.0;joint5:0.0;
time:56.204015811:joint0:34.29070281982422;joint1:65.87637329101562;joint2:-227.5;joint3:710.2862548828125;joint4:0.0;joint5:0.0;
time:56.208014363:joint0:34.29185485839844;joint1:65.87859344482422;joint2:-227.5;joint3:710.3101196289062;joint4:0.0;joint5:0.0;
time:56.212012914:joint0:34.29293441772461;joint1:65.88066101074219;joint2:-227.5;joint3:710.3324584960938;joint4:0.0;joint5:0.0;
time:56.216009790:joint0:34.29393768310547;joint1:65.8825912475586;joint2:-227.5;joint3:710.353271484375;joint4:0.0;joint5:0.0;
time:56.220008342:joint0:34.29487609863281;joint1:65.88439178466797;joint2:-227.5;joint3:710.3726806640625;joint4:0.0;joint5:0.0;
time:56.224007732:joint0:34.295745849609375;joint1:65.88606262207031;joint2:-227.5;joint3:710.3906860351562;joint4:0.0;joint5:0.0;
time:56.228003769:joint0:34.29655075073242;joint1:65.88761138916016;joint2:-227.5;joint3:710.4074096679688;joint4:0.0;joint5:0.0;
time:56.232002321:joint0:34.29729461669922;joint1:65.8890380859375;joint2:-227.5;joint3:710.4227905273438;joint4:0.0;joint5:0.0;
time:56.236000035:joint0:34.297977447509766;joint1:65.89035034179688;joint2:-227.5;joint3:710.4369506835938;joint4:0.0;joint5:0.0;
time:56.239996072:joint0:34.298606872558594;joint1:65.89155578613281;joint2:-227.5;joint3:710.449951171875;joint4:0.0;joint5:0.0;
time:56.243995462:joint0:34.29917907714844;joint1:65.89265441894531;joint2:-227.5;joint3:710.4617919921875;joint4:0.0;joint5:0.0;
time:56.247993176:joint0:34.29969787597656;joint1:65.8936538696289;joint2:-227.5;joint3:710.4725952148438;joint4:0.0;joint5:0.0;
time:56.251990052:joint0:34.3001708984375;joint1:65.89456176757812;joint2:-227.5;joint3:710.4822998046875;joint4:0.0;joint5:0.0;
time:56.255991118:joint0:34.300594329833984;joint1:65.89537811279297;joint2:-227.5;joint3:710.4910888671875;joint4:0.0;joint5:0.0;
time:56.259992184:joint0:34.30097198486328;joint1:65.89610290527344;joint2:-227.5;joint3:710.4989624023438;joint4:0.0;joint5:0.0;
time:56.263989897:joint0:34.301307678222656;joint1:65.8967514038086;joint2:-227.5;joint3:710.5059814453125;joint4:0.0;joint5:0.0;
time:56.267990964:joint0:34.301605224609375;joint1:65.89732360839844;joint2:-227.5;joint3:710.5121459960938;joint4:0.0;joint5:0.0;
time:56.271991192:joint0:34.3018684387207;joint1:65.8978271484375;joint2:-227.5;joint3:710.5175170898438;joint4:0.0;joint5:0.0;
time:56.275978848:joint0:34.302093505859375;joint1:65.89825439453125;joint2:-227.5;joint3:710.522216796875;joint4:0.0;joint5:0.0;
time:56.279977399:joint0:34.30228805541992;joint1:65.89862823486328;joint2:-227.5;joint3:710.5261840820312;joint4:0.0;joint5:0.0;
time:56.283972598:joint0:34.302452087402344;joint1:65.89894104003906;joint2:-227.5;joint3:710.5296020507812;joint4:0.0;joint5:0.0;
time:56.287977855:joint0:34.30258560180664;joint1:65.89920806884766;joint2:-227.5;joint3:710.5324096679688;joint4:0.0;joint5:0.0;
time:56.291975569:joint0:34.30270004272461;joint1:65.89942169189453;joint2:-227.5;joint3:710.5347290039062;joint4:0.0;joint5:0.0;
time:56.295974959:joint0:34.30278778076172;joint1:65.89959716796875;joint2:-227.5;joint3:710.53662109375;joint4:0.0;joint5:0.0;
time:56.299975187:joint0:34.302860260009766;joint1:65.89972686767578;joint2:-227.5;joint3:710.5380249023438;joint4:0.0;joint5:0.0;
time:56.303962005:joint0:34.30290985107422;joint1:65.89982604980469;joint2:-227.5;joint3:710.5391235351562;joint4:0.0;joint5:0.0;
time:56.307963071:joint0:34.302947998046875;joint1:65.89990234375;joint2:-227.5;joint3:710.5399169921875;joint4:0.0;joint5:0.0;
time:56.311960785:joint0:34.302974700927734;joint1:65.89994812011719;joint2:-227.5;joint3:710.5404052734375;joint4:0.0;joint5:0.0;
time:56.315959337:joint0:34.3029899597168;joint1:65.89997863769531;joint2:-227.5;joint3:710.540771484375;joint4:0.0;joint5:0.0;
time:56.319986384:joint0:34.30299758911133;joint1:65.89999389648438;joint2:-227.5;joint3:710.5408935546875;joint4:0.0;joint5:0.0;
time:56.323963983:joint0:34.303001403808594;joint1:65.9000015258789;joint2:-227.5;joint3:710.5409545898438;joint4:0.0;joint5:0.0;
time:56.327960859:joint0:34.303001403808594;joint1:65.9000015258789;joint2:-227.5;joint3:710.5409545898438;joint4:0.0;joint5:0.0;
time:56.331982039:joint0:34.303001403808594;joint1:65.9000015258789;joint2:-227.49740600585938;joint3:710.5409545898438;joint4:0.0;joint5:0.0;
time:56.335969696:joint0:34.303001403808594;joint1:65.9000015258789;joint2:-227.47943115234375;joint3:710.5409545898438;joint4:0.0;joint5:0.0;
time:56.339967409:joint0:34.303001403808594;joint1:65.9000015258789;joint2:-227.43060302734375;joint3:710.5409545898438;joint4:0.0;joint5:0.0;
time:56.343967637:joint0:34.303001403808594;joint1:65.9000015258789;joint2:-227.33546447753906;joint3:710.5409545898438;joint4:0.0;joint5:0.0;
time:56.347966189:joint0:34.303001403808594;joint1:65.9000015258789;joint2:-227.1786651611328;joint3:710.5409545898438;joint4:0.0;joint5:0.0;
time:56.351967255:joint0:34.303001403808594;joint1:65.9000015258789;joint2:-226.94476318359375;joint3:710.5409545898438;joint4:0.0;joint5:0.0;
time:56.355974188:joint0:34.303001403808594;joint1:65.9000015258789;joint2:-226.6182861328125;joint3:710.5409545898438;joint4:0.0;joint5:0.0;
time:56.359966873:joint0:34.303001403808594;joint1:65.9000015258789;joint2:-226.18389892578125;joint3:710.5409545898438;joint4:0.0;joint5:0.0;
time:56.363967939:joint0:34.303001403808594;joint1:65.9000015258789;joint2:-225.6260986328125;joint3:710.5409545898438;joint4:0.0;joint5:0.0;
time:56.367967329:joint0:34.303001403808594;joint1:65.9000015258789;joint2:-224.9294891357422;joint3:710.5409545898438;joint4:0.0;joint5:0.0;
time:56.371968395:joint0:34.303001403808594;joint1:65.9000015258789;joint2:-224.0786590576172;joint3:710.5409545898438;joint4:0.0;joint5:0.0;
time:56.375968622:joint0:34.303001403808594;joint1:65.9000015258789;joint2:-223.05816650390625;joint3:710.5409545898438;joint4:0.0;joint5:0.0;
time:56.379968012:joint0:34.303001403808594;joint1:65.9000015258789;joint2:-221.8525848388672;joint3:710.5409545898438;joint4:0.0;joint5:0.0;
time:56.383966564:joint0:34.303001403808594;joint1:65.9000015258789;joint2:-220.446533203125;joint3:710.5409545898438;joint4:0.0;joint5:0.0;
time:56.387965116:joint0:34.303001403808594;joint1:65.9000015258789;joint2:-218.82455444335938;joint3:710.5409545898438;joint4:0.0;joint5:0.0;
time:56.391961991:joint0:34.303001403808594;joint1:65.9000015258789;joint2:-216.97119140625;joint3:710.5409545898438;joint4:0.0;joint5:0.0;
time:56.395966410:joint0:34.303001403808594;joint1:65.9000015258789;joint2:-214.87625122070312;joint3:710.5409545898438;joint4:0.0;joint5:0.0;
time:56.399972505:joint0:34.303001403808594;joint1:65.9000015258789;joint2:-212.54994201660156;joint3:710.5409545898438;joint4:0.0;joint5:0.0;
time:56.403964352:joint0:34.303001403808594;joint1:65.9000015258789;joint2:-210.00772094726562;joint3:710.5409545898438;joint4:0.0;joint5:0.0;
time:56.407958713:joint0:34.303001403808594;joint1:65.9000015258789;joint2:-207.26499938964844;joint3:710.5409545898438;joint4:0.0;joint5:0.0;
time:56.411959779:joint0:34.303001403808594;joint1:65.9000015258789;joint2:-204.3372039794922;joint3:710.5409545898438;joint4:0.0;joint5:0.0;
time:56.415954978:joint0:34.303001403808594;joint1:65.9000015258789;joint2:-201.23974609375;joint3:710.5409545898438;joint4:0.0;joint5:0.0;
time:56.419952692:joint0:34.303001403808594;joint1:65.9000015258789;joint2:-197.98805236816406;joint3:710.5409545898438;joint4:0.0;joint5:0.0;
time:56.423947892:joint0:34.303001403808594;joint1:65.9000015258789;joint2:-194.59756469726562;joint3:710.5409545898438;joint4:0.0;joint5:0.0;
time:56.427952310:joint0:34.303001403808594;joint1:65.9000015258789;joint2:-191.0836944580078;joint3:710.5409545898438;joint4:0.0;joint5:0.0;
time:56.431960081:joint0:34.303001403808594;joint1:65.9000015258789;joint2:-187.46185302734375;joint3:710.5409545898438;joint4:0.0;joint5:0.0;
time:56.435946061:joint0:34.303001403808594;joint1:65.9000015258789;joint2:-183.74746704101562;joint3:710.5409545898438;joint4:0.0;joint5:0.0;
time:56.439943775:joint0:34.303001403808594;joint1:65.9000015258789;joint2:-179.95599365234375;joint3:710.5409545898438;joint4:0.0;joint5:0.0;
time:56.443941489:joint0:34.303001403808594;joint1:65.9000015258789;joint2:-176.10279846191406;joint3:710.5409545898438;joint4:0.0;joint5:0.0;
time:56.447939202:joint0:34.303001403808594;joint1:65.9000015258789;joint2:-172.20333862304688;joint3:710.5409545898438;joint4:0.0;joint5:0.0;
time:56.451940269:joint0:34.303001403808594;joint1:65.9000015258789;joint2:-168.27304077148438;joint3:710.5409545898438;joint4:0.0;joint5:0.0;
time:56.455935468:joint0:34.303001403808594;joint1:65.9000015258789;joint2:-164.3273162841797;joint3:710.5409545898438;joint4:0.0;joint5:0.0;
time:56.459925639:joint0:34.303001403808594;joint1:65.9000015258789;joint2:-160.3790283203125;joint3:710.5409545898438;joint4:0.0;joint5:0.0;
time:56.463923353:joint0:34.303001403808594;joint1:65.89999389648438;joint2:-156.4307403564453;joint3:710.5409545898438;joint4:0.0;joint5:0.0;
time:56.467927771:joint0:34.303001403808594;joint1:65.9000015258789;joint2:-152.48245239257812;joint3:710.5409545898438;joint4:0.0;joint5:0.0;
time:56.471920456:joint0:34.303001403808594;joint1:65.9000015258789;joint2:-148.53416442871094;joint3:710.5409545898438;joint4:0.0;joint5:0.0;
time:56.475916493:joint0:34.303001403808594;joint1:65.9000015258789;joint2:-144.5858612060547;joint3:710.5409545898438;joint4:0.0;joint5:0.0;
time:56.479915045:joint0:34.303001403808594;joint1:65.9000015258789;joint2:-140.6375732421875;joint3:710.5409545898438;joint4:0.0;joint5:0.0;
time:56.483916111:joint0:34.303001403808594;joint1:65.9000015258789;joint2:-136.68930053710938;joint3:710.5409545898438;joint4:0.0;joint5:0.0;
time:56.487914662:joint0:34.303001403808594;joint1:65.9000015258789;joint2:-132.74099731445312;joint3:710.5409545898438;joint4:0.0;joint5:0.0;
time:56.491909024:joint0:34.303001403808594;joint1:65.9000015258789;joint2:-128.79269409179688;joint3:710.5409545898438;joint4:0.0;joint5:0.0;
time:56.495907576:joint0:34.303001403808594;joint1:65.9000015258789;joint2:-124.84442901611328;joint3:710.5409545898438;joint4:0.0;joint5:0.0;
time:56.499906127:joint0:34.303001403808594;joint1:65.9000015258789;joint2:-120.89610290527344;joint3:710.5409545898438;joint4:0.0;joint5:0.0;
time:56.503900489:joint0:34.303001403808594;joint1:65.9000015258789;joint2:-116.94780731201172;joint3:710.5409545898438;joint4:0.0;joint5:0.0;
time:56.507899041:joint0:34.303001403808594;joint1:65.9000015258789;joint2:-112.9995346069336;joint3:710.5409545898438;joint4:0.0;joint5:0.0;
time:56.511896754:joint0:34.303001403808594;joint1:65.9000015258789;joint2:-109.05123138427734;joint3:710.5409545898438;joint4:0.0;joint5:0.0;
time:56.515894468:joint0:34.303001403808594;joint1:65.9000015258789;joint2:-105.10294342041016;joint3:710.5409545898438;joint4:0.0;joint5:0.0;
time:56.519892182:joint0:34.303001403808594;joint1:65.9000015258789;joint2:-101.1546630859375;joint3:710.5409545898438;joint4:0.0;joint5:0.0;
time:56.523890733:joint0:34.303001403808594;joint1:65.9000015258789;joint2:-97.20636749267578;joint3:710.5409545898438;joint4:0.0;joint5:0.0;
time:56.527888447:joint0:34.303001403808594;joint1:65.9000015258789;joint2:-93.25808715820312;joint3:710.5409545898438;joint4:0.0;joint5:0.0;
time:56.531888675:joint0:34.303001403808594;joint1:65.9000015258789;joint2:-89.30977630615234;joint3:710.5409545898438;joint4:0.0;joint5:0.0;
time:56.535883875:joint0:34.303001403808594;joint1:65.9000015258789;joint2:-85.36149597167969;joint3:710.5409545898438;joint4:0.0;joint5:0.0;
time:56.539881588:joint0:34.303001403808594;joint1:65.9000015258789;joint2:-81.4132080078125;joint3:710.5409545898438;joint4:0.0;joint5:0.0;
time:56.543881816:joint0:34.303001403808594;joint1:65.9000015258789;joint2:-77.46490478515625;joint3:710.5409545898438;joint4:0.0;joint5:0.0;
time:56.547882882:joint0:34.303001403808594;joint1:65.9000015258789;joint2:-73.51661682128906;joint3:710.5409545898438;joint4:0.0;joint5:0.0;
time:56.551876406:joint0:34.303001403808594;joint1:65.9000015258789;joint2:-69.56832885742188;joint3:710.5409545898438;joint4:0.0;joint5:0.0;
time:56.555872443:joint0:34.303001403808594;joint1:65.9000015258789;joint2:-65.6200180053711;joint3:710.5409545898438;joint4:0.0;joint5:0.0;
time:56.559871833:joint0:34.303001403808594;joint1:65.9000015258789;joint2:-61.6717529296875;joint3:710.5409545898438;joint4:0.0;joint5:0.0;
time:56.563871223:joint0:34.303001403808594;joint1:65.9000015258789;joint2:-57.72344970703125;joint3:710.5409545898438;joint4:0.0;joint5:0.0;
time:56.567867261:joint0:34.303001403808594;joint1:65.9000015258789;joint2:-53.775142669677734;joint3:710.5409545898438;joint4:0.0;joint5:0.0;
time:56.571864136:joint0:34.303001403808594;joint1:65.9000015258789;joint2:-49.82686996459961;joint3:710.5409545898438;joint4:0.0;joint5:0.0;
time:56.575861850:joint0:34.303001403808594;joint1:65.9000015258789;joint2:-45.878570556640625;joint3:710.5409545898438;joint4:0.0;joint5:0.0;
time:56.579858724:joint0:34.303001403808594;joint1:65.9000015258789;joint2:-41.93026351928711;joint3:710.5409545898438;joint4:0.0;joint5:0.0;
time:56.583856438:joint0:34.303001403808594;joint1:65.9000015258789;joint2:-37.98199462890625;joint3:710.5409545898438;joint4:0.0;joint5:0.0;
time:56.587854990:joint0:34.303001403808594;joint1:65.9000015258789;joint2:-34.03371810913086;joint3:710.5409545898438;joint4:0.0;joint5:0.0;
time:56.591854380:joint0:34.303001403808594;joint1:65.9000015258789;joint2:-30.08538818359375;joint3:710.5409545898438;joint4:0.0;joint5:0.0;
time:56.595854608:joint0:34.303001403808594;joint1:65.9000015258789;joint2:-26.137113571166992;joint3:710.5409545898438;joint4:0.0;joint5:0.0;
time:56.599848969:joint0:34.303001403808594;joint1:65.9000015258789;joint2:-22.1888427734375;joint3:710.5409545898438;joint4:0.0;joint5:0.0;
time:56.603845845:joint0:34.303001403808594;joint1:65.9000015258789;joint2:-18.24053955078125;joint3:710.5409545898438;joint4:0.0;joint5:0.0;
time:56.607844397:joint0:34.303001403808594;joint1:65.9000015258789;joint2:-14.292236328125;joint3:710.5409545898438;joint4:0.0;joint5:0.0;
time:56.611841272:joint0:34.303001403808594;joint1:65.9000015258789;joint2:-10.343963623046875;joint3:710.5409545898438;joint4:0.0;joint5:0.0;
time:56.615839824:joint0:34.303001403808594;joint1:65.9000015258789;joint2:-6.395660400390625;joint3:710.5409545898438;joint4:0.0;joint5:0.0;
time:56.619838376:joint0:34.303001403808594;joint1:65.9000015258789;joint2:-2.447357177734375;joint3:710.5409545898438;joint4:0.0;joint5:0.0;
time:56.623834413:joint0:34.303001403808594;joint1:65.9000015258789;joint2:1.5009154081344604;joint3:710.5409545898438;joint4:0.0;joint5:0.0;
time:56.627832965:joint0:34.303001403808594;joint1:65.9000015258789;joint2:5.44921875;joint3:710.5409545898438;joint4:0.0;joint5:0.0;
time:56.631829841:joint0:34.303001403808594;joint1:65.89999389648438;joint2:9.39752197265625;joint3:710.5409545898438;joint4:0.0;joint5:0.0;
time:56.635829231:joint0:34.303001403808594;joint1:65.9000015258789;joint2:13.345793724060059;joint3:710.5409545898438;joint4:0.0;joint5:0.0;
time:56.639826106:joint0:34.303001403808594;joint1:65.9000015258789;joint2:17.294097900390625;joint3:710.5409545898438;joint4:0.0;joint5:0.0;
time:56.643829687:joint0:34.303001403808594;joint1:65.9000015258789;joint2:21.242368698120117;joint3:710.5409545898438;joint4:0.0;joint5:0.0;
time:56.647824048:joint0:34.303001403808594;joint1:65.9000015258789;joint2:25.190673828125;joint3:710.5409545898438;joint4:0.0;joint5:0.0;
time:56.651830981:joint0:34.303001403808594;joint1:65.9000015258789;joint2:29.138975143432617;joint3:710.5409545898438;joint4:0.0;joint5:0.0;
time:56.655818637:joint0:34.303001403808594;joint1:65.89999389648438;joint2:33.0872802734375;joint3:710.5409545898438;joint4:0.0;joint5:0.0;
time:56.659854065:joint0:34.303001403808594;joint1:65.90008544921875;joint2:37.034114837646484;joint3:710.5409545898438;joint4:0.0;joint5:0.0;
time:56.663836693:joint0:34.303001403808594;joint1:65.90068054199219;joint2:40.972503662109375;joint3:710.5409545898438;joint4:0.0;joint5:0.0;
time:56.667833569:joint0:34.303001403808594;joint1:65.90228271484375;joint2:44.89388656616211;joint3:710.5409545898438;joint4:0.0;joint5:0.0;
time:56.671830445:joint0:34.303001403808594;joint1:65.90536499023438;joint2:48.789791107177734;joint3:710.5409545898438;joint4:0.0;joint5:0.0;
time:56.675826481:joint0:34.303001403808594;joint1:65.91036987304688;joint2:52.651702880859375;joint3:710.5409545898438;joint4:0.0;joint5:0.0;
time:56.679824195:joint0:34.303001403808594;joint1:65.91773986816406;joint2:56.471126556396484;joint3:710.5409545898438;joint4:0.0;joint5:0.0;
time:56.683829452:joint0:34.303001403808594;joint1:65.92788696289062;joint2:60.239559173583984;joint3:710.5409545898438;joint4:0.0;joint5:0.0;
time:56.687825489:joint0:34.303001403808594;joint1:65.94123077392578;joint2:63.948577880859375;joint3:710.5409545898438;joint4:0.0;joint5:0.0;
time:56.691822365:joint0:34.303001403808594;joint1:65.95814514160156;joint2:67.58966064453125;joint3:710.5409545898438;joint4:0.0;joint5:0.0;
time:56.695816726:joint0:34.303001403808594;joint1:65.97904205322266;joint2:71.15432739257812;joint3:710.5409545898438;joint4:0.0;joint5:0.0;
time:56.699814440:joint0:34.303001403808594;joint1:66.00428009033203;joint2:74.63412475585938;joint3:710.5409545898438;joint4:0.0;joint5:0.0;
time:56.703814668:joint0:34.303001403808594;joint1:66.03422546386719;joint2:78.0206298828125;joint3:710.5409545898438;joint4:0.0;joint5:0.0;
time:56.707810705:joint0:34.303001403808594;joint1:66.06926727294922;joint2:81.30535888671875;joint3:710.5409545898438;joint4:0.0;joint5:0.0;
time:56.711809257:joint0:34.303001403808594;joint1:66.10974884033203;joint2:84.47994995117188;joint3:710.5409545898438;joint4:0.0;joint5:0.0;
time:56.715803618:joint0:34.303001403808594;joint1:66.15604400634766;joint2:87.53594970703125;joint3:710.5409545898438;joint4:0.0;joint5:0.0;
time:56.719808037:joint0:34.303001403808594;joint1:66.20852661132812;joint2:90.46504974365234;joint3:710.5409545898438;joint4:0.0;joint5:0.0;
time:56.723811617:joint0:34.303001403808594;joint1:66.26741790771484;joint2:93.26165771484375;joint3:710.5409545898438;joint4:0.0;joint5:0.0;
time:56.727807655:joint0:34.303001403808594;joint1:66.33232879638672;joint2:95.93160247802734;joint3:710.5409545898438;joint4:0.0;joint5:0.0;
time:56.731805368:joint0:34.303001403808594;joint1:66.40276336669922;joint2:98.48355102539062;joint3:710.5409545898438;joint4:0.0;joint5:0.0;
time:56.735803920:joint0:34.303001403808594;joint1:66.47822570800781;joint2:100.9260482788086;joint3:710.5409545898438;joint4:0.0;joint5:0.0;
time:56.739804148:joint0:34.303001403808594;joint1:66.55823516845703;joint2:103.26775360107422;joint3:710.5409545898438;joint4:0.0;joint5:0.0;
time:56.743801024:joint0:34.303001403808594;joint1:66.6423110961914;joint2:105.51729583740234;joint3:710.5409545898438;joint4:0.0;joint5:0.0;
time:56.747800414:joint0:34.303001403808594;joint1:66.73001098632812;joint2:107.68325805664062;joint3:710.5409545898438;joint4:0.0;joint5:0.0;
time:56.751795613:joint0:34.303001403808594;joint1:66.82087707519531;joint2:109.77420043945312;joint3:710.5409545898438;joint4:0.0;joint5:0.0;
time:56.755791651:joint0:34.303001403808594;joint1:66.9144515991211;joint2:111.79866790771484;joint3:710.5409545898438;joint4:0.0;joint5:0.0;
time:56.759789364:joint0:34.303001403808594;joint1:67.01029968261719;joint2:113.76528930664062;joint3:710.5409545898438;joint4:0.0;joint5:0.0;
time:56.763786240:joint0:34.303001403808594;joint1:67.10797119140625;joint2:115.6825180053711;joint3:710.5409545898438;joint4:0.0;joint5:0.0;
time:56.767785630:joint0:34.303001403808594;joint1:67.20704650878906;joint2:117.55892181396484;joint3:710.5409545898438;joint4:0.0;joint5:0.0;
time:56.771782506:joint0:34.303001403808594;joint1:67.30706024169922;joint2:119.4029541015625;joint3:710.5409545898438;joint4:0.0;joint5:0.0;
time:56.775781057:joint0:34.303001403808594;joint1:67.4075927734375;joint2:121.22305297851562;joint3:710.5409545898438;joint4:0.0;joint5:0.0;
time:56.779777094:joint0:34.303001403808594;joint1:67.50819396972656;joint2:123.0277328491211;joint3:710.5409545898438;joint4:0.0;joint5:0.0;
time:56.783776484:joint0:34.303001403808594;joint1:67.60843658447266;joint2:124.82537078857422;joint3:710.5409545898438;joint4:0.0;joint5:0.0;
time:56.787744864:joint0:34.303001403808594;joint1:67.70793914794922;joint2:126.6229476928711;joint3:710.5409545898438;joint4:0.0;joint5:0.0;
time:56.791740064:joint0:34.303001403808594;joint1:67.806640625;joint2:128.421875;joint3:710.5409545898438;joint4:0.0;joint5:0.0;
time:56.795741130:joint0:34.303001403808594;joint1:67.90455627441406;joint2:130.2221221923828;joint3:710.5409545898438;joint4:0.0;joint5:0.0;
time:56.799743034:joint0:34.303001403808594;joint1:68.00169372558594;joint2:132.02365112304688;joint3:710.5409545898438;joint4:0.0;joint5:0.0;
time:56.803738233:joint0:34.303001403808594;joint1:68.09806060791016;joint2:133.82647705078125;joint3:710.5409545898438;joint4:0.0;joint5:0.0;
time:56.807688176:joint0:34.303001403808594;joint1:68.19365692138672;joint2:135.630615234375;joint3:710.5409545898438;joint4:0.0;joint5:0.0;
time:56.811685889:joint0:34.303001403808594;joint1:68.28851318359375;joint2:137.43594360351562;joint3:710.5409545898438;joint4:0.0;joint5:0.0;
time:56.815683603:joint0:34.303001403808594;joint1:68.38261413574219;joint2:139.2425537109375;joint3:710.5409545898438;joint4:0.0;joint5:0.0;
time:56.819682993:joint0:34.303001403808594;joint1:68.4759750366211;joint2:141.05039978027344;joint3:710.5409545898438;joint4:0.0;joint5:0.0;
time:56.823679869:joint0:34.303001403808594;joint1:68.56861114501953;joint2:142.85943603515625;joint3:710.5409545898438;joint4:0.0;joint5:0.0;
time:56.827677582:joint0:34.303001403808594;joint1:68.66051483154297;joint2:144.669677734375;joint3:710.5409545898438;joint4:0.0;joint5:0.0;
time:56.831676134:joint0:34.303001403808594;joint1:68.75171661376953;joint2:146.48110961914062;joint3:710.5409545898438;joint4:0.0;joint5:0.0;
time:56.835675524:joint0:34.303001403808594;joint1:68.84221649169922;joint2:148.29373168945312;joint3:710.5409545898438;joint4:0.0;joint5:0.0;
time:56.839673238:joint0:34.303001403808594;joint1:68.93201446533203;joint2:150.10748291015625;joint3:710.5409545898438;joint4:0.0;joint5:0.0;
time:56.843668437:joint0:34.303001403808594;joint1:69.02111053466797;joint2:151.92237854003906;joint3:710.5409545898438;joint4:0.0;joint5:0.0;
time:56.847666151:joint0:34.303001403808594;joint1:69.10953521728516;joint2:153.73846435546875;joint3:710.5409545898438;joint4:0.0;joint5:0.0;
time:56.851663865:joint0:34.303001403808594;joint1:69.19728088378906;joint2:155.55563354492188;joint3:710.5409545898438;joint4:0.0;joint5:0.0;
time:56.855661578:joint0:34.303001403808594;joint1:69.28436279296875;joint2:157.3739013671875;joint3:710.5409545898438;joint4:0.0;joint5:0.0;
time:56.859660130:joint0:34.303001403808594;joint1:69.37077331542969;joint2:159.19325256347656;joint3:710.5409545898438;joint4:0.0;joint5:0.0;
time:56.863658682:joint0:34.303001403808594;joint1:69.45654296875;joint2:161.01370239257812;joint3:710.5409545898438;joint4:0.0;joint5:0.0;
time:56.867656396:joint0:34.303001403808594;joint1:69.54165649414062;joint2:162.83523559570312;joint3:710.5409545898438;joint4:0.0;joint5:0.0;
time:56.871653271:joint0:34.303001403808594;joint1:69.62612915039062;joint2:164.6577911376953;joint3:710.5409545898438;joint4:0.0;joint5:0.0;
time:56.875650985:joint0:34.303001403808594;joint1:69.70997619628906;joint2:166.48141479492188;joint3:710.5409545898438;joint4:0.0;joint5:0.0;
time:56.879651212:joint0:34.303001403808594;joint1:69.7931900024414;joint2:168.3060760498047;joint3:710.5409545898438;joint4:0.0;joint5:0.0;
time:56.883648088:joint0:34.303001403808594;joint1:69.87578582763672;joint2:170.13172912597656;joint3:710.5409545898438;joint4:0.0;joint5:0.0;
time:56.887649992:joint0:34.303001403808594;joint1:69.95777130126953;joint2:171.95843505859375;joint3:710.5409545898438;joint4:0.0;joint5:0.0;
time:56.891644353:joint0:34.303001403808594;joint1:70.03915405273438;joint2:173.7861328125;joint3:710.5409545898438;joint4:0.0;joint5:0.0;
time:56.895640391:joint0:34.303001403808594;joint1:70.11992645263672;joint2:175.61480712890625;joint3:710.5409545898438;joint4:0.0;joint5:0.0;
time:56.899640619:joint0:34.303001403808594;joint1:70.20011138916016;joint2:177.4444580078125;joint3:710.5409545898438;joint4:0.0;joint5:0.0;
time:56.903636656:joint0:34.303001403808594;joint1:70.27970123291016;joint2:179.27508544921875;joint3:710.5409545898438;joint4:0.0;joint5:0.0;
time:56.907635208:joint0:34.303001403808594;joint1:70.35871124267578;joint2:181.10665893554688;joint3:710.5409545898438;joint4:0.0;joint5:0.0;
time:56.911632084:joint0:34.303001403808594;joint1:70.43714904785156;joint2:182.93919372558594;joint3:710.5409545898438;joint4:0.0;joint5:0.0;
time:56.915630635:joint0:34.303001403808594;joint1:70.5150146484375;joint2:184.77264404296875;joint3:710.5409545898438;joint4:0.0;joint5:0.0;
time:56.919627511:joint0:34.303001403808594;joint1:70.59232330322266;joint2:186.60702514648438;joint3:710.5409545898438;joint4:0.0;joint5:0.0;
time:56.923630253:joint0:34.303001403808594;joint1:70.66907501220703;joint2:188.44235229492188;joint3:710.5409545898438;joint4:0.0;joint5:0.0;
time:56.927623777:joint0:34.303001403808594;joint1:70.7452621459961;joint2:190.27854919433594;joint3:710.5409545898438;joint4:0.0;joint5:0.0;
time:56.931624843:joint0:34.303001403808594;joint1:70.82091522216797;joint2:192.11566162109375;joint3:710.5409545898438;joint4:0.0;joint5:0.0;
time:56.935683737:joint0:34.303001403808594;joint1:70.8960189819336;joint2:193.95361328125;joint3:710.5409545898438;joint4:0.0;joint5:0.0;
time:56.939663013:joint0:34.303001403808594;joint1:70.97058868408203;joint2:195.79254150390625;joint3:710.5409545898438;joint4:0.0;joint5:0.0;
time:56.943675812:joint0:34.303001403808594;joint1:71.04463195800781;joint2:197.6322479248047;joint3:710.5409545898438;joint4:0.0;joint5:0.0;
time:56.947676878:joint0:34.303001403808594;joint1:71.1181411743164;joint2:199.4728240966797;joint3:710.5409545898438;joint4:0.0;joint5:0.0;
time:56.951670402:joint0:34.303001403808594;joint1:71.19114685058594;joint2:201.3142547607422;joint3:710.5409545898438;joint4:0.0;joint5:0.0;
time:56.955646325:joint0:34.303001403808594;joint1:71.26362609863281;joint2:203.15655517578125;joint3:710.5409545898438;joint4:0.0;joint5:0.0;
time:56.959642362:joint0:34.303001403808594;joint1:71.33560180664062;joint2:204.9996337890625;joint3:710.5409545898438;joint4:0.0;joint5:0.0;
time:56.963639238:joint0:34.303001403808594;joint1:71.40707397460938;joint2:206.8436279296875;joint3:710.5409545898438;joint4:0.0;joint5:0.0;
time:56.967610971:joint0:34.303001403808594;joint1:71.47804260253906;joint2:208.68833923339844;joint3:710.5409545898438;joint4:0.0;joint5:0.0;
time:56.971601142:joint0:34.303001403808594;joint1:71.54852294921875;joint2:210.5338592529297;joint3:710.5409545898438;joint4:0.0;joint5:0.0;
time:56.975601370:joint0:34.303001403808594;joint1:71.6185073852539;joint2:212.38023376464844;joint3:710.5409545898438;joint4:0.0;joint5:0.0;
time:56.979595731:joint0:34.303001403808594;joint1:71.68801879882812;joint2:214.2274169921875;joint3:710.5409545898438;joint4:0.0;joint5:0.0;
time:56.983594282:joint0:34.303001403808594;joint1:71.75704193115234;joint2:216.07530212402344;joint3:710.5409545898438;joint4:0.0;joint5:0.0;
time:56.987607919:joint0:34.303001403808594;joint1:71.82555389404297;joint2:217.92279052734375;joint3:710.5409545898438;joint4:0.0;joint5:0.0;
time:56.991603957:joint0:34.303001403808594;joint1:71.89331817626953;joint2:219.76385498046875;joint3:710.5409545898438;joint4:0.0;joint5:0.0;
time:56.995601671:joint0:34.303001403808594;joint1:71.96011352539062;joint2:221.5911865234375;joint3:710.5409545898438;joint4:0.0;joint5:0.0;
time:56.999598546:joint0:34.303001403808594;joint1:72.02566528320312;joint2:223.39752197265625;joint3:710.5409545898438;joint4:0.0;joint5:0.0;
time:57.3597098:joint0:34.303001403808594;joint1:72.0897445678711;joint2:225.1756591796875;joint3:710.5409545898438;joint4:0.0;joint5:0.0;
time:57.7594812:joint0:34.303001403808594;joint1:72.15211486816406;joint2:226.9182586669922;joint3:710.5409545898438;joint4:0.0;joint5:0.0;
time:57.11596716:joint0:34.303001403808594;joint1:72.2125473022461;joint2:228.6180877685547;joint3:710.5409545898438;joint4:0.0;joint5:0.0;
time:57.15590239:joint0:34.303001403808594;joint1:72.27082824707031;joint2:230.26780700683594;joint3:710.5409545898438;joint4:0.0;joint5:0.0;
time:57.19588791:joint0:34.303001403808594;joint1:72.32672882080078;joint2:231.8601531982422;joint3:710.5409545898438;joint4:0.0;joint5:0.0;
time:57.23585667:joint0:34.303001403808594;joint1:72.38004302978516;joint2:233.3878173828125;joint3:710.5409545898438;joint4:0.0;joint5:0.0;
time:57.27584218:joint0:34.303001403808594;joint1:72.4305419921875;joint2:234.8434295654297;joint3:710.5409545898438;joint4:0.0;joint5:0.0;
time:57.31581094:joint0:34.303001403808594;joint1:72.4780502319336;joint2:236.2197265625;joint3:710.5409545898438;joint4:0.0;joint5:0.0;
time:57.35579646:joint0:34.303001403808594;joint1:72.52232360839844;joint2:237.50933837890625;joint3:710.5409545898438;joint4:0.0;joint5:0.0;
time:57.39576521:joint0:34.303001403808594;joint1:72.56319427490234;joint2:238.70501708984375;joint3:710.5409545898438;joint4:0.0;joint5:0.0;
time:57.43574235:joint0:34.303001403808594;joint1:72.60043334960938;joint2:239.7993621826172;joint3:710.5409545898438;joint4:0.0;joint5:0.0;
time:57.47571111:joint0:34.303001403808594;joint1:72.63384246826172;joint2:240.78509521484375;joint3:710.5409545898438;joint4:0.0;joint5:0.0;
time:57.51569663:joint0:34.303001403808594;joint1:72.6633071899414;joint2:241.6573028564453;joint3:710.5409545898438;joint4:0.0;joint5:0.0;
time:57.55570729:joint0:34.303001403808594;joint1:72.68901062011719;joint2:242.42071533203125;joint3:710.5409545898438;joint4:0.0;joint5:0.0;
time:57.59565928:joint0:34.303001403808594;joint1:72.71124267578125;joint2:243.08265686035156;joint3:710.5409545898438;joint4:0.0;joint5:0.0;
time:57.63563642:joint0:34.303001403808594;joint1:72.73026275634766;joint2:243.65025329589844;joint3:710.5409545898438;joint4:0.0;joint5:0.0;
time:57.67560517:joint0:34.303001403808594;joint1:72.74633026123047;joint2:244.13072204589844;joint3:710.5409545898438;joint4:0.0;joint5:0.0;
time:57.71558231:joint0:34.303001403808594;joint1:72.75971221923828;joint2:244.53143310546875;joint3:710.5409545898438;joint4:0.0;joint5:0.0;
time:57.75555945:joint0:34.303001403808594;joint1:72.77064514160156;joint2:244.85940551757812;joint3:710.5409545898438;joint4:0.0;joint5:0.0;
time:57.79554496:joint0:34.303001403808594;joint1:72.7793960571289;joint2:245.12210083007812;joint3:710.5409545898438;joint4:0.0;joint5:0.0;
time:57.83551371:joint0:34.303001403808594;joint1:72.78620147705078;joint2:245.32669067382812;joint3:710.5409545898438;joint4:0.0;joint5:0.0;
time:57.87552437:joint0:34.303001403808594;joint1:72.79131317138672;joint2:245.48046875;joint3:710.5409545898438;joint4:0.0;joint5:0.0;
time:57.91548475:joint0:34.303001403808594;joint1:72.79497528076172;joint2:245.59068298339844;joint3:710.5409545898438;joint4:0.0;joint5:0.0;
time:57.95544512:joint0:34.303001403808594;joint1:72.79742431640625;joint2:245.66445922851562;joint3:710.5409545898438;joint4:0.0;joint5:0.0;
time:57.99544740:joint0:34.303001403808594;joint1:72.79891204833984;joint2:245.7092742919922;joint3:710.5409545898438;joint4:0.0;joint5:0.0;
time:57.103539940:joint0:34.303001403808594;joint1:72.7996826171875;joint2:245.73228454589844;joint3:710.5409545898438;joint4:0.0;joint5:0.0;
time:57.107538492:joint0:34.303001403808594;joint1:72.79995727539062;joint2:245.7407989501953;joint3:710.5409545898438;joint4:0.0;joint5:0.0;
time:57.111537882:joint0:34.303001403808594;joint1:72.80000305175781;joint2:245.74200439453125;joint3:710.5409545898438;joint4:0.0;joint5:0.0;
time:57.115515481:joint0:34.30314636230469;joint1:72.80000305175781;joint2:245.74200439453125;joint3:710.5410766601562;joint4:0.0;joint5:0.0;
time:57.119507328:joint0:34.30415725708008;joint1:72.80000305175781;joint2:245.74200439453125;joint3:710.5410766601562;joint4:0.0;joint5:0.0;
time:57.123506718:joint0:34.306907653808594;joint1:72.80000305175781;joint2:245.74200439453125;joint3:710.5410766601562;joint4:0.0;joint5:0.0;
time:57.127504432:joint0:34.312259674072266;joint1:72.80000305175781;joint2:245.74200439453125;joint3:710.5410766601562;joint4:0.0;joint5:0.0;
time:57.131501307:joint0:34.32108688354492;joint1:72.80000305175781;joint2:245.74200439453125;joint3:710.5410766601562;joint4:0.0;joint5:0.0;
time:57.135509078:joint0:34.334251403808594;joint1:72.80000305175781;joint2:245.74200439453125;joint3:710.5410766601562;joint4:0.0;joint5:0.0;
time:57.139498411:joint0:34.35262680053711;joint1:72.80000305175781;joint2:245.74200439453125;joint3:710.5410766601562;joint4:0.0;joint5:0.0;
time:57.143496963:joint0:34.3770751953125;joint1:72.80000305175781;joint2:245.74200439453125;joint3:710.5410766601562;joint4:0.0;joint5:0.0;
time:57.147493000:joint0:34.408470153808594;joint1:72.80000305175781;joint2:245.74200439453125;joint3:710.5410766601562;joint4:0.0;joint5:0.0;
time:57.151490714:joint0:34.44767761230469;joint1:72.80000305175781;joint2:245.74200439453125;joint3:710.5410766601562;joint4:0.0;joint5:0.0;
time:57.155490104:joint0:34.49556350708008;joint1:72.80000305175781;joint2:245.74200439453125;joint3:710.5410766601562;joint4:0.0;joint5:0.0;
time:57.159487818:joint0:34.553001403808594;joint1:72.80000305175781;joint2:245.74200439453125;joint3:710.5410766601562;joint4:0.0;joint5:0.0;
time:57.163488884:joint0:34.62056350708008;joint1:72.80000305175781;joint2:245.74200439453125;joint3:710.5410766601562;joint4:0.0;joint5:0.0;
time:57.167484921:joint0:34.69767761230469;joint1:72.80000305175781;joint2:245.74200439453125;joint3:710.5410766601562;joint4:0.0;joint5:0.0;
time:57.171484311:joint0:34.783470153808594;joint1:72.80000305175781;joint2:245.74200439453125;joint3:710.5410766601562;joint4:0.0;joint5:0.0;
time:57.175481187:joint0:34.8770751953125;joint1:72.80000305175781;joint2:245.74200439453125;joint3:710.5410766601562;joint4:0.0;joint5:0.0;
time:57.179478061:joint0:34.97762680053711;joint1:72.80000305175781;joint2:245.74200439453125;joint3:710.5410766601562;joint4:0.0;joint5:0.0;
time:57.183476613:joint0:35.084251403808594;joint1:72.80000305175781;joint2:245.74200439453125;joint3:710.5410766601562;joint4:0.0;joint5:0.0;
time:57.187476841:joint0:35.19608688354492;joint1:72.80000305175781;joint2:245.74200439453125;joint3:710.5410766601562;joint4:0.0;joint5:0.0;
time:57.191472879:joint0:35.312259674072266;joint1:72.80000305175781;joint2:245.74200439453125;joint3:710.5410766601562;joint4:0.0;joint5:0.0;
time:57.195470592:joint0:35.431907653808594;joint1:72.80000305175781;joint2:245.74200439453125;joint3:710.5410766601562;joint4:0.0;joint5:0.0;
time:57.199469144:joint0:35.55415725708008;joint1:72.80000305175781;joint2:245.74200439453125;joint3:710.5410766601562;joint4:0.0;joint5:0.0;
time:57.203465182:joint0:35.67814636230469;joint1:72.80000305175781;joint2:245.74200439453125;joint3:710.5410766601562;joint4:0.0;joint5:0.0;
time:57.207462895:joint0:35.803001403808594;joint1:72.80000305175781;joint2:245.74200439453125;joint3:710.5410766601562;joint4:0.0;joint5:0.0;
time:57.211476533:joint0:35.9278564453125;joint1:72.80000305175781;joint2:245.74200439453125;joint3:710.5410766601562;joint4:0.0;joint5:0.0;
time:57.215472571:joint0:36.05184555053711;joint1:72.80000305175781;joint2:245.74200439453125;joint3:710.5410766601562;joint4:0.0;joint5:0.0;
time:57.219470284:joint0:36.174095153808594;joint1:72.80000305175781;joint2:245.74200439453125;joint3:710.5410766601562;joint4:0.0;joint5:0.0;
time:57.223468836:joint0:36.29374313354492;joint1:72.80000305175781;joint2:245.74200439453125;joint3:710.5410766601562;joint4:0.0;joint5:0.0;
time:57.227466550:joint0:36.409915924072266;joint1:72.80000305175781;joint2:245.74200439453125;joint3:710.5410766601562;joint4:0.0;joint5:0.0;
time:57.231466778:joint0:36.521751403808594;joint1:72.80000305175781;joint2:245.74200439453125;joint3:710.5410766601562;joint4:0.0;joint5:0.0;
time:57.235462815:joint0:36.62837600708008;joint1:72.80000305175781;joint2:245.74200439453125;joint3:710.5410766601562;joint4:0.0;joint5:0.0;
time:57.239460529:joint0:36.72892761230469;joint1:72.80000305175781;joint2:245.74200439453125;joint3:710.5410766601562;joint4:0.0;joint5:0.0;
time:57.243458243:joint0:36.822532653808594;joint1:72.80000305175781;joint2:245.74200439453125;joint3:710.5410766601562;joint4:0.0;joint5:0.0;
time:57.247455118:joint0:36.9083251953125;joint1:72.80000305175781;joint2:245.74200439453125;joint3:710.5410766601562;joint4:0.0;joint5:0.0;
time:57.251453670:joint0:36.98543930053711;joint1:72.80000305175781;joint2:245.74200439453125;joint3:710.5410766601562;joint4:0.0;joint5:0.0;
time:57.255451384:joint0:37.053001403808594;joint1:72.80000305175781;joint2:245.74200439453125;joint3:710.5410766601562;joint4:0.0;joint5:0.0;
time:57.259440717:joint0:37.11043930053711;joint1:72.80000305175781;joint2:245.74200439453125;joint3:710.5410766601562;joint4:0.0;joint5:0.0;
time:57.263438430:joint0:37.1583251953125;joint1:72.80000305175781;joint2:245.74200439453125;joint3:710.5410766601562;joint4:0.0;joint5:0.0;
time:57.267461287:joint0:37.197532653808594;joint1:72.80000305175781;joint2:245.74200439453125;joint3:710.5410766601562;joint4:0.0;joint5:0.0;
time:57.271434696:joint0:37.22892761230469;joint1:72.80000305175781;joint2:245.74200439453125;joint3:710.5410766601562;joint4:0.0;joint5:0.0;
time:57.275433248:joint0:37.25337600708008;joint1:72.80000305175781;joint2:245.74200439453125;joint3:710.5410766601562;joint4:0.0;joint5:0.0;
time:57.279429285:joint0:37.271751403808594;joint1:72.80000305175781;joint2:245.74200439453125;joint3:710.5410766601562;joint4:0.0;joint5:0.0;
time:57.283427836:joint0:37.284915924072266;joint1:72.80000305175781;joint2:245.74200439453125;joint3:710.5410766601562;joint4:0.0;joint5:0.0;
time:57.287427226:joint0:37.29374313354492;joint1:72.80000305175781;joint2:245.74200439453125;joint3:710.5410766601562;joint4:0.0;joint5:0.0;
time:57.291424940:joint0:37.299095153808594;joint1:72.80000305175781;joint2:245.74200439453125;joint3:710.5410766601562;joint4:0.0;joint5:0.0;
time:57.295420139:joint0:37.30184555053711;joint1:72.80000305175781;joint2:245.74200439453125;joint3:710.5410766601562;joint4:0.0;joint5:0.0;
time:57.299418691:joint0:37.3028564453125;joint1:72.80000305175781;joint2:245.74200439453125;joint3:710.5410766601562;joint4:0.0;joint5:0.0;
time:57.303415566:joint0:37.303001403808594;joint1:72.80000305175781;joint2:245.74200439453125;joint3:710.5410766601562;joint4:0.0;joint5:0.0;
time:57.307409928:joint0:37.30315399169922;joint1:72.80000305175781;joint2:245.74200439453125;joint3:710.5409545898438;joint4:0.0;joint5:0.0;
time:57.311405127:joint0:37.30421447753906;joint1:72.80000305175781;joint2:245.74200439453125;joint3:710.5409545898438;joint4:0.0;joint5:0.0;
time:57.315402003:joint0:37.307098388671875;joint1:72.80000305175781;joint2:245.74200439453125;joint3:710.5409545898438;joint4:0.0;joint5:0.0;
time:57.319421507:joint0:37.31270980834961;joint1:72.80000305175781;joint2:245.74200439453125;joint3:710.5409545898438;joint4:0.0;joint5:0.0;
time:57.323408326:joint0:37.32196807861328;joint1:72.80000305175781;joint2:245.74200439453125;joint3:710.5409545898438;joint4:0.0;joint5:0.0;
time:57.327398496:joint0:37.33577346801758;joint1:72.80000305175781;joint2:245.74200439453125;joint3:710.5409545898438;joint4:0.0;joint5:0.0;
time:57.331393696:joint0:37.35504150390625;joint1:72.80000305175781;joint2:245.74200439453125;joint3:710.5409545898438;joint4:0.0;joint5:0.0;
time:57.335393924:joint0:37.38068389892578;joint1:72.80000305175781;joint2:245.74200439453125;joint3:710.5409545898438;joint4:0.0;joint5:0.0;
time:57.339389961:joint0:37.41360855102539;joint1:72.80000305175781;joint2:245.74200439453125;joint3:710.5409545898438;joint4:0.0;joint5:0.0;
time:57.343387675:joint0:37.4547233581543;joint1:72.80000305175781;joint2:245.74200439453125;joint3:710.5409545898438;joint4:0.0;joint5:0.0;
time:57.347386227:joint0:37.50494384765625;joint1:72.80000305175781;joint2:245.74200439453125;joint3:710.5409545898438;joint4:0.0;joint5:0.0;
time:57.351383941:joint0:37.56517791748047;joint1:72.80000305175781;joint2:245.74200439453125;joint3:710.5409545898438;joint4:0.0;joint5:0.0;
time:57.355381654:joint0:37.63633346557617;joint1:72.80000305175781;joint2:245.74200439453125;joint3:710.5409545898438;joint4:0.0;joint5:0.0;
time:57.359382720:joint0:37.719024658203125;joint1:72.80000305175781;joint2:245.74200439453125;joint3:710.5409545898438;joint4:0.0;joint5:0.0;
time:57.363380434:joint0:37.81263732910156;joint1:72.80000305175781;joint2:245.74200439453125;joint3:710.5409545898438;joint4:0.0;joint5:0.0;
time:57.367381500:joint0:37.916263580322266;joint1:72.80000305175781;joint2:245.74200439453125;joint3:710.5409545898438;joint4:0.0;joint5:0.0;
time:57.371377538:joint0:38.02899169921875;joint1:72.80000305175781;joint2:245.74200439453125;joint3:710.5409545898438;joint4:0.0;joint5:0.0;
time:57.375374413:joint0:38.1499137878418;joint1:72.80000305175781;joint2:245.74200439453125;joint3:710.5409545898438;joint4:0.0;joint5:0.0;
time:57.379371288:joint0:38.27811813354492;joint1:72.80000305175781;joint2:245.74200439453125;joint3:710.5409545898438;joint4:0.0;joint5:0.0;
time:57.383368164:joint0:38.412696838378906;joint1:72.80000305175781;joint2:245.74200439453125;joint3:710.5409545898438;joint4:0.0;joint5:0.0;
time:57.387366715:joint0:38.552734375;joint1:72.80000305175781;joint2:245.74200439453125;joint3:710.5409545898438;joint4:0.0;joint5:0.0;
time:57.391363591:joint0:38.69732666015625;joint1:72.80000305175781;joint2:245.74200439453125;joint3:710.5409545898438;joint4:0.0;joint5:0.0;
time:57.395362981:joint0:38.845558166503906;joint1:72.80000305175781;joint2:245.74200439453125;joint3:710.5409545898438;joint4:0.0;joint5:0.0;
time:57.399360695:joint0:38.996524810791016;joint1:72.80000305175781;joint2:245.74200439453125;joint3:710.5409545898438;joint4:0.0;joint5:0.0;
time:57.403357570:joint0:39.14930725097656;joint1:72.80000305175781;joint2:245.74200439453125;joint3:710.5409545898438;joint4:0.0;joint5:0.0;
time:57.407356122:joint0:39.303001403808594;joint1:72.80000305175781;joint2:245.74200439453125;joint3:710.5409545898438;joint4:0.0;joint5:0.0;
time:57.411371436:joint0:39.456695556640625;joint1:72.80000305175781;joint2:245.74200439453125;joint3:710.5409545898438;joint4:0.0;joint5:0.0;
time:57.415366635:joint0:39.60948181152344;joint1:72.80000305175781;joint2:245.74200439453125;joint3:710.5409545898438;joint4:0.0;joint5:0.0;
time:57.419363511:joint0:39.76044464111328;joint1:72.80000305175781;joint2:245.74200439453125;joint3:710.5409545898438;joint4:0.0;joint5:0.0;
time:57.423360386:joint0:39.90867614746094;joint1:72.80000305175781;joint2:245.74200439453125;joint3:710.5409545898438;joint4:0.0;joint5:0.0;
time:57.427359776:joint0:40.05326843261719;joint1:72.80000305175781;joint2:245.74200439453125;joint3:710.5409545898438;joint4:0.0;joint5:0.0;
time:57.431355814:joint0:40.19330596923828;joint1:72.80000305175781;joint2:245.74200439453125;joint3:710.5409545898438;joint4:0.0;joint5:0.0;
time:57.435355204:joint0:40.327884674072266;joint1:72.80000305175781;joint2:245.74200439453125;joint3:710.5409545898438;joint4:0.0;joint5:0.0;
time:57.439352079:joint0:40.45608901977539;joint1:72.80000305175781;joint2:245.74200439453125;joint3:710.5409545898438;joint4:0.0;joint5:0.0;
time:57.443349793:joint0:40.57701110839844;joint1:72.80000305175781;joint2:245.74200439453125;joint3:710.5409545898438;joint4:0.0;joint5:0.0;
time:57.447347507:joint0:40.68973922729492;joint1:72.80000305175781;joint2:245.74200439453125;joint3:710.5409545898438;joint4:0.0;joint5:0.0;
time:57.451345221:joint0:40.793365478515625;joint1:72.80000305175781;joint2:245.74200439453125;joint3:710.5409545898438;joint4:0.0;joint5:0.0;
time:57.455345449:joint0:40.88697814941406;joint1:72.80000305175781;joint2:245.74200439453125;joint3:710.5409545898438;joint4:0.0;joint5:0.0;
time:57.459343162:joint0:40.969669342041016;joint1:72.80000305175781;joint2:245.74200439453125;joint3:710.5409545898438;joint4:0.0;joint5:0.0;
time:57.463331657:joint0:41.04082489013672;joint1:72.80000305175781;joint2:245.74200439453125;joint3:710.5409545898438;joint4:0.0;joint5:0.0;
time:57.467328533:joint0:41.10105895996094;joint1:72.80000305175781;joint2:245.74200439453125;joint3:710.5409545898438;joint4:0.0;joint5:0.0;
time:57.471326246:joint0:41.15127944946289;joint1:72.80000305175781;joint2:245.74200439453125;joint3:710.5409545898438;joint4:0.0;joint5:0.0;
time:57.475323960:joint0:41.19239807128906;joint1:72.80000305175781;joint2:245.74200439453125;joint3:710.5409545898438;joint4:0.0;joint5:0.0;
time:57.479322512:joint0:41.225318908691406;joint1:72.80000305175781;joint2:245.74200439453125;joint3:710.5409545898438;joint4:0.0;joint5:0.0;
time:57.483319386:joint0:41.25096130371094;joint1:72.80000305175781;joint2:245.74200439453125;joint3:710.5409545898438;joint4:0.0;joint5:0.0;
time:57.487320453:joint0:41.27022933959961;joint1:72.80000305175781;joint2:245.74200439453125;joint3:710.5409545898438;joint4:0.0;joint5:0.0;
time:57.491315652:joint0:41.284034729003906;joint1:72.80000305175781;joint2:245.74200439453125;joint3:710.5409545898438;joint4:0.0;joint5:0.0;
time:57.495313366:joint0:41.29329299926758;joint1:72.80000305175781;joint2:245.74200439453125;joint3:710.5409545898438;joint4:0.0;joint5:0.0;
time:57.499319460:joint0:41.29890441894531;joint1:72.80000305175781;joint2:245.74200439453125;joint3:710.5409545898438;joint4:0.0;joint5:0.0;
time:57.503316336:joint0:41.301788330078125;joint1:72.80000305175781;joint2:245.74200439453125;joint3:710.5409545898438;joint4:0.0;joint5:0.0;
time:57.507314050:joint0:41.30284881591797;joint1:72.80000305175781;joint2:245.74200439453125;joint3:710.5409545898438;joint4:0.0;joint5:0.0;
time:57.511313440:joint0:41.303001403808594;joint1:72.80000305175781;joint2:245.74200439453125;joint3:710.5409545898438;joint4:0.0;joint5:0.0;
time:57.515328753:joint0:41.303001403808594;joint1:72.79995727539062;joint2:245.7407989501953;joint3:710.5409545898438;joint4:0.0;joint5:0.0;
time:57.519318086:joint0:41.303001403808594;joint1:72.7996826171875;joint2:245.73228454589844;joint3:710.5409545898438;joint4:0.0;joint5:0.0;
time:57.523313285:joint0:41.303001403808594;joint1:72.79891204833984;joint2:245.7092742919922;joint3:710.5409545898438;joint4:0.0;joint5:0.0;
time:57.527311837:joint0:41.303001403808594;joint1:72.79742431640625;joint2:245.66445922851562;joint3:710.5409545898438;joint4:0.0;joint5:0.0;
time:57.531308713:joint0:41.303001403808594;joint1:72.79497528076172;joint2:245.59068298339844;joint3:710.5409545898438;joint4:0.0;joint5:0.0;
time:57.535307265:joint0:41.303001403808594;joint1:72.79131317138672;joint2:245.48046875;joint3:710.5409545898438;joint4:0.0;joint5:0.0;
time:57.539305817:joint0:41.303001403808594;joint1:72.78620147705078;joint2:245.32669067382812;joint3:710.5409545898438;joint4:0.0;joint5:0.0;
time:57.543303530:joint0:41.303001403808594;joint1:72.7793960571289;joint2:245.12210083007812;joint3:710.5409545898438;joint4:0.0;joint5:0.0;
time:57.547300406:joint0:41.303001403808594;joint1:72.77064514160156;joint2:244.85940551757812;joint3:710.5409545898438;joint4:0.0;joint5:0.0;
time:57.551298958:joint0:41.303001403808594;joint1:72.75971221923828;joint2:244.53143310546875;joint3:710.5409545898438;joint4:0.0;joint5:0.0;
time:57.555298348:joint0:41.303001403808594;joint1:72.74633026123047;joint2:244.13072204589844;joint3:710.5409545898438;joint4:0.0;joint5:0.0;
time:57.559295223:joint0:41.303001403808594;joint1:72.73026275634766;joint2:243.65025329589844;joint3:710.5409545898438;joint4:0.0;joint5:0.0;
time:57.563291261:joint0:41.303001403808594;joint1:72.71124267578125;joint2:243.08265686035156;joint3:710.5409545898438;joint4:0.0;joint5:0.0;
time:57.567289813:joint0:41.303001403808594;joint1:72.68901062011719;joint2:242.42071533203125;joint3:710.5409545898438;joint4:0.0;joint5:0.0;
time:57.571289202:joint0:41.303001403808594;joint1:72.6633071899414;joint2:241.6573028564453;joint3:710.5409545898438;joint4:0.0;joint5:0.0;
time:57.575285240:joint0:41.303001403808594;joint1:72.63384246826172;joint2:240.78509521484375;joint3:710.5409545898438;joint4:0.0;joint5:0.0;
time:57.579288819:joint0:41.303001403808594;joint1:72.60043334960938;joint2:239.7993621826172;joint3:710.5409545898438;joint4:0.0;joint5:0.0;
time:57.583284857:joint0:41.303001403808594;joint1:72.56319427490234;joint2:238.70501708984375;joint3:710.5409545898438;joint4:0.0;joint5:0.0;
time:57.587283409:joint0:41.303001403808594;joint1:72.52232360839844;joint2:237.50933837890625;joint3:710.5409545898438;joint4:0.0;joint5:0.0;
time:57.591280284:joint0:41.303001403808594;joint1:72.4780502319336;joint2:236.2197265625;joint3:710.5409545898438;joint4:0.0;joint5:0.0;
time:57.595278836:joint0:41.303001403808594;joint1:72.4305419921875;joint2:234.8434295654297;joint3:710.5409545898438;joint4:0.0;joint5:0.0;
time:57.599275712:joint0:41.303001403808594;joint1:72.38004302978516;joint2:233.3878173828125;joint3:710.5409545898438;joint4:0.0;joint5:0.0;
time:57.603273425:joint0:41.303001403808594;joint1:72.32672882080078;joint2:231.8601531982422;joint3:710.5409545898438;joint4:0.0;joint5:0.0;
time:57.607271977:joint0:41.303001403808594;joint1:72.27082824707031;joint2:230.26780700683594;joint3:710.5409545898438;joint4:0.0;joint5:0.0;
time:57.611270529:joint0:41.303001403808594;joint1:72.2125473022461;joint2:228.6180877685547;joint3:710.5409545898438;joint4:0.0;joint5:0.0;
time:57.615265728:joint0:41.303001403808594;joint1:72.15211486816406;joint2:226.9182586669922;joint3:710.5409545898438;joint4:0.0;joint5:0.0;
time:57.619265118:joint0:41.303001403808594;joint1:72.0897445678711;joint2:225.1756591796875;joint3:710.5409545898438;joint4:0.0;joint5:0.0;
time:57.623262832:joint0:41.303001403808594;joint1:72.02566528320312;joint2:223.39752197265625;joint3:710.5409545898438;joint4:0.0;joint5:0.0;
time:57.627262222:joint0:41.303001403808594;joint1:71.96011352539062;joint2:221.5911865234375;joint3:710.5409545898438;joint4:0.0;joint5:0.0;
time:57.631259098:joint0:41.303001403808594;joint1:71.89331817626953;joint2:219.76385498046875;joint3:710.5409545898438;joint4:0.0;joint5:0.0;
time:57.635256811:joint0:41.303001403808594;joint1:71.82555389404297;joint2:217.92279052734375;joint3:710.5409545898438;joint4:0.0;joint5:0.0;
time:57.639253687:joint0:41.303001403808594;joint1:71.75704193115234;joint2:216.07530212402344;joint3:710.5409545898438;joint4:0.0;joint5:0.0;
time:57.643246372:joint0:41.303001403808594;joint1:71.68801879882812;joint2:214.2274169921875;joint3:710.5409545898438;joint4:0.0;joint5:0.0;
time:57.647243248:joint0:41.303001403808594;joint1:71.6185073852539;joint2:212.38023376464844;joint3:710.5409545898438;joint4:0.0;joint5:0.0;
time:57.651241800:joint0:41.303001403808594;joint1:71.54852294921875;joint2:210.5338592529297;joint3:710.5409545898438;joint4:0.0;joint5:0.0;
time:57.655237837:joint0:41.303001403808594;joint1:71.47804260253906;joint2:208.68833923339844;joint3:710.5409545898438;joint4:0.0;joint5:0.0;
time:57.659238065:joint0:41.303001403808594;joint1:71.40707397460938;joint2:206.8436279296875;joint3:710.5409545898438;joint4:0.0;joint5:0.0;
time:57.663235779:joint0:41.303001403808594;joint1:71.33560180664062;joint2:204.9996337890625;joint3:710.5409545898438;joint4:0.0;joint5:0.0;
time:57.667233492:joint0:41.303001403808594;joint1:71.26362609863281;joint2:203.15655517578125;joint3:710.5409545898438;joint4:0.0;joint5:0.0;
time:57.671230368:joint0:41.303001403808594;joint1:71.19114685058594;joint2:201.3142547607422;joint3:710.5409545898438;joint4:0.0;joint5:0.0;
time:57.675228082:joint0:41.303001403808594;joint1:71.1181411743164;joint2:199.4728240966797;joint3:710.5409545898438;joint4:0.0;joint5:0.0;
time:57.679225796:joint0:41.303001403808594;joint1:71.04463195800781;joint2:197.6322479248047;joint3:710.5409545898438;joint4:0.0;joint5:0.0;
time:57.683222670:joint0:41.303001403808594;joint1:70.97058868408203;joint2:195.79254150390625;joint3:710.5409545898438;joint4:0.0;joint5:0.0;
time:57.687225412:joint0:41.303001403808594;joint1:70.8960189819336;joint2:193.9536590576172;joint3:710.5409545898438;joint4:0.0;joint5:0.0;
time:57.691220612:joint0:41.303001403808594;joint1:70.82091522216797;joint2:192.11566162109375;joint3:710.5409545898438;joint4:0.0;joint5:0.0;
time:57.695217487:joint0:41.303001403808594;joint1:70.7452621459961;joint2:190.27854919433594;joint3:710.5409545898438;joint4:0.0;joint5:0.0;
time:57.699216039:joint0:41.303001403808594;joint1:70.66907501220703;joint2:188.44235229492188;joint3:710.5409545898438;joint4:0.0;joint5:0.0;
time:57.703212915:joint0:41.303001403808594;joint1:70.59232330322266;joint2:186.60702514648438;joint3:710.5409545898438;joint4:0.0;joint5:0.0;
time:57.707210629:joint0:41.303001403808594;joint1:70.5150146484375;joint2:184.77264404296875;joint3:710.5409545898438;joint4:0.0;joint5:0.0;
time:57.711207504:joint0:41.303001403808594;joint1:70.43714904785156;joint2:182.93919372558594;joint3:710.5409545898438;joint4:0.0;joint5:0.0;
time:57.715206894:joint0:41.303001403808594;joint1:70.35871124267578;joint2:181.10665893554688;joint3:710.5409545898438;joint4:0.0;joint5:0.0;
time:57.719203770:joint0:41.303001403808594;joint1:70.27970123291016;joint2:179.27508544921875;joint3:710.5409545898438;joint4:0.0;joint5:0.0;
time:57.723202322:joint0:41.303001403808594;joint1:70.20011138916016;joint2:177.4444580078125;joint3:710.5409545898438;joint4:0.0;joint5:0.0;
time:57.727198359:joint0:41.303001403808594;joint1:70.11992645263672;joint2:175.61480712890625;joint3:710.5409545898438;joint4:0.0;joint5:0.0;
time:57.731256416:joint0:41.303001403808594;joint1:70.03915405273438;joint2:173.7861328125;joint3:710.5409545898438;joint4:0.0;joint5:0.0;
time:57.735234853:joint0:41.303001403808594;joint1:69.95777130126953;joint2:171.95843505859375;joint3:710.5409545898438;joint4:0.0;joint5:0.0;
time:57.739241786:joint0:41.303001403808594;joint1:69.87578582763672;joint2:170.13177490234375;joint3:710.5409545898438;joint4:0.0;joint5:0.0;
time:57.743231957:joint0:41.303001403808594;joint1:69.7931900024414;joint2:168.3060760498047;joint3:710.5409545898438;joint4:0.0;joint5:0.0;
time:57.747243918:joint0:41.303001403808594;joint1:69.70997619628906;joint2:166.48141479492188;joint3:710.5409545898438;joint4:0.0;joint5:0.0;
time:57.751198889:joint0:41.303001403808594;joint1:69.62612915039062;joint2:164.6577911376953;joint3:710.5409545898438;joint4:0.0;joint5:0.0;
time:57.755224260:joint0:41.303001403808594;joint1:69.54165649414062;joint2:162.83523559570312;joint3:710.5409545898438;joint4:0.0;joint5:0.0;
time:57.759192640:joint0:41.303001403808594;joint1:69.45654296875;joint2:161.01370239257812;joint3:710.5409545898438;joint4:0.0;joint5:0.0;
time:57.763196221:joint0:41.303001403808594;joint1:69.37077331542969;joint2:159.19325256347656;joint3:710.5409545898438;joint4:0.0;joint5:0.0;
time:57.767182201:joint0:41.303001403808594;joint1:69.28436279296875;joint2:157.3739013671875;joint3:710.5409545898438;joint4:0.0;joint5:0.0;
time:57.771178239:joint0:41.303001403808594;joint1:69.19728088378906;joint2:155.55563354492188;joint3:710.5409545898438;joint4:0.0;joint5:0.0;
time:57.775175952:joint0:41.303001403808594;joint1:69.10953521728516;joint2:153.73846435546875;joint3:710.5409545898438;joint4:0.0;joint5:0.0;
time:57.779171151:joint0:41.303001403808594;joint1:69.02111053466797;joint2:151.92237854003906;joint3:710.5409545898438;joint4:0.0;joint5:0.0;
time:57.783171379:joint0:41.303001403808594;joint1:68.93201446533203;joint2:150.10748291015625;joint3:710.5409545898438;joint4:0.0;joint5:0.0;
time:57.787168254:joint0:41.303001403808594;joint1:68.84221649169922;joint2:148.29373168945312;joint3:710.5409545898438;joint4:0.0;joint5:0.0;
time:57.791165968:joint0:41.303001403808594;joint1:68.75172424316406;joint2:146.48114013671875;joint3:710.5409545898438;joint4:0.0;joint5:0.0;
time:57.795163682:joint0:41.303001403808594;joint1:68.66051483154297;joint2:144.669677734375;joint3:710.5409545898438;joint4:0.0;joint5:0.0;
time:57.799161395:joint0:41.303001403808594;joint1:68.56861114501953;joint2:142.85943603515625;joint3:710.5409545898438;joint4:0.0;joint5:0.0;
time:57.803159109:joint0:41.303001403808594;joint1:68.4759750366211;joint2:141.05039978027344;joint3:710.5409545898438;joint4:0.0;joint5:0.0;
time:57.807155985:joint0:41.303001403808594;joint1:68.38261413574219;joint2:139.2425537109375;joint3:710.5409545898438;joint4:0.0;joint5:0.0;
time:57.811154537:joint0:41.303001403808594;joint1:68.28851318359375;joint2:137.43594360351562;joint3:710.5409545898438;joint4:0.0;joint5:0.0;
time:57.815153088:joint0:41.303001403808594;joint1:68.19365692138672;joint2:135.630615234375;joint3:710.5409545898438;joint4:0.0;joint5:0.0;
time:57.819149964:joint0:41.303001403808594;joint1:68.09806060791016;joint2:133.82647705078125;joint3:710.5409545898438;joint4:0.0;joint5:0.0;
time:57.823147678:joint0:41.303001403808594;joint1:68.00169372558594;joint2:132.02365112304688;joint3:710.5409545898438;joint4:0.0;joint5:0.0;
time:57.827145391:joint0:41.303001403808594;joint1:67.90455627441406;joint2:130.2221221923828;joint3:710.5409545898438;joint4:0.0;joint5:0.0;
time:57.831143105:joint0:41.303001403808594;joint1:67.806640625;joint2:128.42189025878906;joint3:710.5409545898438;joint4:0.0;joint5:0.0;
time:57.835141657:joint0:41.303001403808594;joint1:67.70793914794922;joint2:126.6229476928711;joint3:710.5409545898438;joint4:0.0;joint5:0.0;
time:57.839139371:joint0:41.303001403808594;joint1:67.60843658447266;joint2:124.82537078857422;joint3:710.5409545898438;joint4:0.0;joint5:0.0;
time:57.843178989:joint0:41.303001403808594;joint1:67.50819396972656;joint2:123.02777099609375;joint3:710.5409545898438;joint4:0.0;joint5:0.0;
time:57.847165808:joint0:41.303001403808594;joint1:67.4075927734375;joint2:121.22310638427734;joint3:710.5409545898438;joint4:0.0;joint5:0.0;
time:57.851162683:joint0:41.303001403808594;joint1:67.30706787109375;joint2:119.40298461914062;joint3:710.5409545898438;joint4:0.0;joint5:0.0;
time:57.855162073:joint0:41.303001403808594;joint1:67.20704650878906;joint2:117.55896759033203;joint3:710.5409545898438;joint4:0.0;joint5:0.0;
time:57.859159787:joint0:41.303001403808594;joint1:67.10797119140625;joint2:115.68254852294922;joint3:710.5409545898438;joint4:0.0;joint5:0.0;
time:57.863156662:joint0:41.303001403808594;joint1:67.01029968261719;joint2:113.76531219482422;joint3:710.5409545898438;joint4:0.0;joint5:0.0;
time:57.867155214:joint0:41.303001403808594;joint1:66.9144515991211;joint2:111.79866790771484;joint3:710.5409545898438;joint4:0.0;joint5:0.0;
time:57.871152090:joint0:41.303001403808594;joint1:66.82087707519531;joint2:109.77420043945312;joint3:710.5409545898438;joint4:0.0;joint5:0.0;
time:57.875149804:joint0:41.303001403808594;joint1:66.73001098632812;joint2:107.68325805664062;joint3:710.5409545898438;joint4:0.0;joint5:0.0;
time:57.879146678:joint0:41.303001403808594;joint1:66.6423110961914;joint2:105.517333984375;joint3:710.5409545898438;joint4:0.0;joint5:0.0;
time:57.883145230:joint0:41.303001403808594;joint1:66.55823516845703;joint2:103.26781463623047;joint3:710.5409545898438;joint4:0.0;joint5:0.0;
time:57.887147972:joint0:41.303001403808594;joint1:66.47822570800781;joint2:100.9260482788086;joint3:710.5409545898438;joint4:0.0;joint5:0.0;
time:57.891142334:joint0:41.303001403808594;joint1:66.40276336669922;joint2:98.48357391357422;joint3:710.5409545898438;joint4:0.0;joint5:0.0;
time:57.895139209:joint0:41.303001403808594;joint1:66.33232879638672;joint2:95.93167114257812;joint3:710.5409545898438;joint4:0.0;joint5:0.0;
time:57.899136085:joint0:41.303001403808594;joint1:66.26741790771484;joint2:93.26168823242188;joint3:710.5409545898438;joint4:0.0;joint5:0.0;
time:57.903133799:joint0:41.303001403808594;joint1:66.20853424072266;joint2:90.465087890625;joint3:710.5409545898438;joint4:0.0;joint5:0.0;
time:57.907141569:joint0:41.303001403808594;joint1:66.15604400634766;joint2:87.53597259521484;joint3:710.5409545898438;joint4:0.0;joint5:0.0;
time:57.911138445:joint0:41.303001403808594;joint1:66.10974884033203;joint2:84.47998046875;joint3:710.5409545898438;joint4:0.0;joint5:0.0;
time:57.915136997:joint0:41.303001403808594;joint1:66.06926727294922;joint2:81.30541229248047;joint3:710.5409545898438;joint4:0.0;joint5:0.0;
time:57.919133873:joint0:41.303001403808594;joint1:66.03422546386719;joint2:78.0206298828125;joint3:710.5409545898438;joint4:0.0;joint5:0.0;
time:57.923132424:joint0:41.303001403808594;joint1:66.00428009033203;joint2:74.6341552734375;joint3:710.5409545898438;joint4:0.0;joint5:0.0;
time:57.927129300:joint0:41.303001403808594;joint1:65.97904205322266;joint2:71.15432739257812;joint3:710.5409545898438;joint4:0.0;joint5:0.0;
time:57.931127852:joint0:41.303001403808594;joint1:65.9581527709961;joint2:67.58966064453125;joint3:710.5409545898438;joint4:0.0;joint5:0.0;
time:57.935124727:joint0:41.303001403808594;joint1:65.94123077392578;joint2:63.948604583740234;joint3:710.5409545898438;joint4:0.0;joint5:0.0;
time:57.939124117:joint0:41.303001403808594;joint1:65.92788696289062;joint2:60.2396240234375;joint3:710.5409545898438;joint4:0.0;joint5:0.0;
time:57.943121831:joint0:41.303001403808594;joint1:65.91773986816406;joint2:56.471160888671875;joint3:710.5409545898438;joint4:0.0;joint5:0.0;
time:57.947117869:joint0:41.303001403808594;joint1:65.91036987304688;joint2:52.651702880859375;joint3:710.5409545898438;joint4:0.0;joint5:0.0;
time:57.951117258:joint0:41.303001403808594;joint1:65.90536499023438;joint2:48.78982162475586;joint3:710.5409545898438;joint4:0.0;joint5:0.0;
time:57.955115810:joint0:41.303001403808594;joint1:65.90229034423828;joint2:44.893917083740234;joint3:710.5409545898438;joint4:0.0;joint5:0.0;
time:57.959114362:joint0:41.303001403808594;joint1:65.90068054199219;joint2:40.9725341796875;joint3:710.5409545898438;joint4:0.0;joint5:0.0;
time:57.963111238:joint0:41.303001403808594;joint1:65.90009307861328;joint2:37.03414535522461;joint3:710.5409545898438;joint4:0.0;joint5:0.0;
time:57.967108951:joint0:41.303001403808594;joint1:65.9000015258789;joint2:33.0872802734375;joint3:710.5409545898438;joint4:0.0;joint5:0.0;
time:57.971072303:joint0:41.303001403808594;joint1:65.9000015258789;joint2:29.138975143432617;joint3:710.5409545898438;joint4:0.0;joint5:0.0;
time:57.975066665:joint0:41.303001403808594;joint1:65.9000015258789;joint2:25.190702438354492;joint3:710.5409545898438;joint4:0.0;joint5:0.0;
time:57.979064378:joint0:41.303001403808594;joint1:65.9000015258789;joint2:21.242429733276367;joint3:710.5409545898438;joint4:0.0;joint5:0.0;
time:57.983063767:joint0:41.303001403808594;joint1:65.9000015258789;joint2:17.294097900390625;joint3:710.5409545898438;joint4:0.0;joint5:0.0;
time:57.987058128:joint0:41.303001403808594;joint1:65.9000015258789;joint2:13.3458251953125;joint3:710.5409545898438;joint4:0.0;joint5:0.0;
time:57.991058356:joint0:41.303001403808594;joint1:65.9000015258789;joint2:9.397552490234375;joint3:710.5409545898438;joint4:0.0;joint5:0.0;
time:57.995055232:joint0:41.303001403808594;joint1:65.9000015258789;joint2:5.44921875;joint3:710.5409545898438;joint4:0.0;joint5:0.0;
time:57.999054622:joint0:41.303001403808594;joint1:65.9000015258789;joint2:1.500946044921875;joint3:710.5409545898438;joint4:0.0;joint5:0.0;
time:58.3049821:joint0:41.303001403808594;joint1:65.9000015258789;joint2:-2.447326421737671;joint3:710.5409545898438;joint4:0.0;joint5:0.0;
time:58.7049211:joint0:41.303001403808594;joint1:65.9000015258789;joint2:-6.395660400390625;joint3:710.5409545898438;joint4:0.0;joint5:0.0;
time:58.11045249:joint0:41.303001403808594;joint1:65.9000015258789;joint2:-10.34393310546875;joint3:710.5409545898438;joint4:0.0;joint5:0.0;
time:58.15045477:joint0:41.303001403808594;joint1:65.9000015258789;joint2:-14.292205810546875;joint3:710.5409545898438;joint4:0.0;joint5:0.0;
time:58.19041514:joint0:41.303001403808594;joint1:65.9000015258789;joint2:-18.24053955078125;joint3:710.5409545898438;joint4:0.0;joint5:0.0;
time:58.23040066:joint0:41.303001403808594;joint1:65.9000015258789;joint2:-22.188812255859375;joint3:710.5409545898438;joint4:0.0;joint5:0.0;
time:58.27038618:joint0:41.303001403808594;joint1:65.9000015258789;joint2:-26.1370849609375;joint3:710.5409545898438;joint4:0.0;joint5:0.0;
time:58.31036332:joint0:41.303001403808594;joint1:65.9000015258789;joint2:-30.08538818359375;joint3:710.5409545898438;joint4:0.0;joint5:0.0;
time:58.35033207:joint0:41.303001403808594;joint1:65.9000015258789;joint2:-34.033687591552734;joint3:710.5409545898438;joint4:0.0;joint5:0.0;
time:58.39032597:joint0:41.303001403808594;joint1:65.9000015258789;joint2:-37.981964111328125;joint3:710.5409545898438;joint4:0.0;joint5:0.0;
time:58.43029473:joint0:41.303001403808594;joint1:65.9000015258789;joint2:-41.93026351928711;joint3:710.5409545898438;joint4:0.0;joint5:0.0;
time:58.47028863:joint0:41.303001403808594;joint1:65.9000015258789;joint2:-45.878570556640625;joint3:710.5409545898438;joint4:0.0;joint5:0.0;
time:58.51027415:joint0:41.303001403808594;joint1:65.9000015258789;joint2:-49.82684326171875;joint3:710.5409545898438;joint4:0.0;joint5:0.0;
time:58.55023452:joint0:41.303001403808594;joint1:65.9000015258789;joint2:-53.775142669677734;joint3:710.5409545898438;joint4:0.0;joint5:0.0;
time:58.59021166:joint0:41.303001403808594;joint1:65.9000015258789;joint2:-57.72344970703125;joint3:710.5409545898438;joint4:0.0;joint5:0.0;
time:58.63018041:joint0:41.303001403808594;joint1:65.9000015258789;joint2:-61.67171859741211;joint3:710.5409545898438;joint4:0.0;joint5:0.0;
time:58.67015755:joint0:41.303001403808594;joint1:65.9000015258789;joint2:-65.6200180053711;joint3:710.5409545898438;joint4:0.0;joint5:0.0;
time:58.71014307:joint0:41.303001403808594;joint1:65.9000015258789;joint2:-69.56829833984375;joint3:710.5409545898438;joint4:0.0;joint5:0.0;
time:58.75012859:joint0:41.303001403808594;joint1:65.9000015258789;joint2:-73.5166015625;joint3:710.5409545898438;joint4:0.0;joint5:0.0;
time:58.79011410:joint0:41.303001403808594;joint1:65.9000015258789;joint2:-77.46488952636719;joint3:710.5409545898438;joint4:0.0;joint5:0.0;
time:58.83007447:joint0:41.303001403808594;joint1:65.9000015258789;joint2:-81.41317749023438;joint3:710.5409545898438;joint4:0.0;joint5:0.0;
time:58.87010189:joint0:41.303001403808594;joint1:65.9000015258789;joint2:-85.3614730834961;joint3:710.5409545898438;joint4:0.0;joint5:0.0;
time:58.91005389:joint0:41.303001403808594;joint1:65.9000015258789;joint2:-89.30976867675781;joint3:710.5409545898438;joint4:0.0;joint5:0.0;
time:58.95002264:joint0:41.303001403808594;joint1:65.9000015258789;joint2:-93.258056640625;joint3:710.5409545898438;joint4:0.0;joint5:0.0;
time:58.98999978:joint0:41.303001403808594;joint1:65.9000015258789;joint2:-97.20634460449219;joint3:710.5409545898438;joint4:0.0;joint5:0.0;
time:58.102997692:joint0:41.303001403808594;joint1:65.9000015258789;joint2:-101.15463256835938;joint3:710.5409545898438;joint4:0.0;joint5:0.0;
time:58.106995406:joint0:41.303001403808594;joint1:65.9000015258789;joint2:-105.10293579101562;joint3:710.5409545898438;joint4:0.0;joint5:0.0;
time:58.110993957:joint0:41.303001403808594;joint1:65.9000015258789;joint2:-109.05120849609375;joint3:710.5409545898438;joint4:0.0;joint5:0.0;
time:58.114990833:joint0:41.303001403808594;joint1:65.9000015258789;joint2:-112.99950408935547;joint3:710.5409545898438;joint4:0.0;joint5:0.0;
time:58.118987709:joint0:41.303001403808594;joint1:65.9000015258789;joint2:-116.94780731201172;joint3:710.5409545898438;joint4:0.0;joint5:0.0;
time:58.122987099:joint0:41.303001403808594;joint1:65.9000015258789;joint2:-120.89608764648438;joint3:710.5409545898438;joint4:0.0;joint5:0.0;
time:58.126984812:joint0:41.303001403808594;joint1:65.9000015258789;joint2:-124.8443832397461;joint3:710.5409545898438;joint4:0.0;joint5:0.0;
time:58.130982526:joint0:41.303001403808594;joint1:65.9000015258789;joint2:-128.79266357421875;joint3:710.5409545898438;joint4:0.0;joint5:0.0;
time:58.134980240:joint0:41.303001403808594;joint1:65.9000015258789;joint2:-132.740966796875;joint3:710.5409545898438;joint4:0.0;joint5:0.0;
time:58.138977115:joint0:41.303001403808594;joint1:65.9000015258789;joint2:-136.6892547607422;joint3:710.5409545898438;joint4:0.0;joint5:0.0;
time:58.142976505:joint0:41.303001403808594;joint1:65.9000015258789;joint2:-140.63755798339844;joint3:710.5409545898438;joint4:0.0;joint5:0.0;
time:58.146975895:joint0:41.303001403808594;joint1:65.9000015258789;joint2:-144.58583068847656;joint3:710.5409545898438;joint4:0.0;joint5:0.0;
time:58.150971933:joint0:41.303001403808594;joint1:65.9000015258789;joint2:-148.5341339111328;joint3:710.5409545898438;joint4:0.0;joint5:0.0;
time:58.154970484:joint0:41.303001403808594;joint1:65.9000015258789;joint2:-152.48240661621094;joint3:710.5409545898438;joint4:0.0;joint5:0.0;
time:58.158967360:joint0:41.303001403808594;joint1:65.9000015258789;joint2:-156.43072509765625;joint3:710.5409545898438;joint4:0.0;joint5:0.0;
time:58.162965074:joint0:41.303001403808594;joint1:65.9000015258789;joint2:-160.37901306152344;joint3:710.5409545898438;joint4:0.0;joint5:0.0;
time:58.166963626:joint0:41.303001403808594;joint1:65.9000015258789;joint2:-164.32730102539062;joint3:710.5409545898438;joint4:0.0;joint5:0.0;
time:58.170976425:joint0:41.303001403808594;joint1:65.9000015258789;joint2:-168.27301025390625;joint3:710.5409545898438;joint4:0.0;joint5:0.0;
time:58.174972463:joint0:41.303001403808594;joint1:65.9000015258789;joint2:-172.2033233642578;joint3:710.5409545898438;joint4:0.0;joint5:0.0;
time:58.178971852:joint0:41.303001403808594;joint1:65.9000015258789;joint2:-176.10275268554688;joint3:710.5409545898438;joint4:0.0;joint5:0.0;
time:58.182969565:joint0:41.303001403808594;joint1:65.9000015258789;joint2:-179.95594787597656;joint3:710.5409545898438;joint4:0.0;joint5:0.0;
time:58.186967279:joint0:41.303001403808594;joint1:65.9000015258789;joint2:-183.74745178222656;joint3:710.5409545898438;joint4:0.0;joint5:0.0;
time:58.190963316:joint0:41.303001403808594;joint1:65.9000015258789;joint2:-187.46180725097656;joint3:710.5409545898438;joint4:0.0;joint5:0.0;
time:58.194962706:joint0:41.303001403808594;joint1:65.90000915527344;joint2:-191.08364868164062;joint3:710.5409545898438;joint4:0.0;joint5:0.0;
time:58.198959582:joint0:41.303001403808594;joint1:65.90000915527344;joint2:-194.5975341796875;joint3:710.5409545898438;joint4:0.0;joint5:0.0;
time:58.202958134:joint0:41.303001403808594;joint1:65.90000915527344;joint2:-197.98802185058594;joint3:710.5409545898438;joint4:0.0;joint5:0.0;
time:58.206956686:joint0:41.303001403808594;joint1:65.90000915527344;joint2:-201.2397003173828;joint3:710.5409545898438;joint4:0.0;joint5:0.0;
time:58.210953561:joint0:41.303001403808594;joint1:65.90000915527344;joint2:-204.337158203125;joint3:710.5409545898438;joint4:0.0;joint5:0.0;
time:58.214949599:joint0:41.303001403808594;joint1:65.90000915527344;joint2:-207.2649688720703;joint3:710.5409545898438;joint4:0.0;joint5:0.0;
time:58.218948989:joint0:41.303001403808594;joint1:65.90000915527344;joint2:-210.0076904296875;joint3:710.5409545898438;joint4:0.0;joint5:0.0;
time:58.222947540:joint0:41.303001403808594;joint1:65.90000915527344;joint2:-212.5499267578125;joint3:710.5409545898438;joint4:0.0;joint5:0.0;
time:58.226943578:joint0:41.303001403808594;joint1:65.90000915527344;joint2:-214.876220703125;joint3:710.5409545898438;joint4:0.0;joint5:0.0;
time:58.230942968:joint0:41.303001403808594;joint1:65.90000915527344;joint2:-216.97119140625;joint3:710.5409545898438;joint4:0.0;joint5:0.0;
time:58.234941520:joint0:41.303001403808594;joint1:65.90000915527344;joint2:-218.82452392578125;joint3:710.5409545898438;joint4:0.0;joint5:0.0;
time:58.238936719:joint0:41.303001403808594;joint1:65.90000915527344;joint2:-220.44650268554688;joint3:710.5409545898438;joint4:0.0;joint5:0.0;
time:58.242934433:joint0:41.303001403808594;joint1:65.90000915527344;joint2:-221.85256958007812;joint3:710.5409545898438;joint4:0.0;joint5:0.0;
time:58.246932985:joint0:41.303001403808594;joint1:65.90000915527344;joint2:-223.0581512451172;joint3:710.5409545898438;joint4:0.0;joint5:0.0;
time:58.250929860:joint0:41.303001403808594;joint1:65.90000915527344;joint2:-224.07861328125;joint3:710.5409545898438;joint4:0.0;joint5:0.0;
time:58.254929250:joint0:41.303001403808594;joint1:65.90000915527344;joint2:-224.92945861816406;joint3:710.5409545898438;joint4:0.0;joint5:0.0;
time:58.258926964:joint0:41.303001403808594;joint1:65.90000915527344;joint2:-225.62606811523438;joint3:710.5409545898438;joint4:0.0;joint5:0.0;
time:58.262923839:joint0:41.303001403808594;joint1:65.90000915527344;joint2:-226.18386840820312;joint3:710.5409545898438;joint4:0.0;joint5:0.0;
time:58.266920715:joint0:41.303001403808594;joint1:65.90000915527344;joint2:-226.6182861328125;joint3:710.5409545898438;joint4:0.0;joint5:0.0;
time:58.270919267:joint0:41.303001403808594;joint1:65.90000915527344;joint2:-226.9447479248047;joint3:710.5409545898438;joint4:0.0;joint5:0.0;
time:58.274916981:joint0:41.303001403808594;joint1:65.90000915527344;joint2:-227.17864990234375;joint3:710.5409545898438;joint4:0.0;joint5:0.0;
time:58.278915531:joint0:41.303001403808594;joint1:65.90000915527344;joint2:-227.33544921875;joint3:710.5409545898438;joint4:0.0;joint5:0.0;
time:58.282912407:joint0:41.303001403808594;joint1:65.90000915527344;joint2:-227.43055725097656;joint3:710.5409545898438;joint4:0.0;joint5:0.0;
time:58.286913473:joint0:41.303001403808594;joint1:65.90000915527344;joint2:-227.47940063476562;joint3:710.5409545898438;joint4:0.0;joint5:0.0;
time:58.290910349:joint0:41.303001403808594;joint1:65.90000915527344;joint2:-227.4973907470703;joint3:710.5409545898438;joint4:0.0;joint5:0.0;
time:58.294906386:joint0:41.303001403808594;joint1:65.90000915527344;joint2:-227.4999542236328;joint3:710.5409545898438;joint4:0.0;joint5:0.0;
time:54.301030349:joint0:12.794092178344727;joint1:24.57891845703125;joint2:-227.5;joint3:265.0125732421875;joint4:0.0;joint5:0.0;
time:54.305028063:joint0:12.855899810791016;joint1:24.69765853881836;joint2:-227.5;joint3:266.2928466796875;joint4:0.0;joint5:0.0;
time:54.309026615:joint0:12.917706489562988;joint1:24.816396713256836;joint2:-227.5;joint3:267.5730895996094;joint4:0.0;joint5:0.0;
time:54.313024328:joint0:12.979514122009277;joint1:24.935134887695312;joint2:-227.5;joint3:268.85333251953125;joint4:0.0;joint5:0.0;
time:54.317022042:joint0:13.04132080078125;joint1:25.05387306213379;joint2:-227.5;joint3:270.13360595703125;joint4:0.0;joint5:0.0;
time:54.321022270:joint0:13.103128433227539;joint1:25.172611236572266;joint2:-227.5;joint3:271.4138488769531;joint4:0.0;joint5:0.0;
time:54.325019984:joint0:13.164935111999512;joint1:25.291351318359375;joint2:-227.5;joint3:272.694091796875;joint4:0.0;joint5:0.0;
time:54.329017698:joint0:13.2267427444458;joint1:25.41008949279785;joint2:-227.5;joint3:273.974365234375;joint4:0.0;joint5:0.0;
time:54.333013735:joint0:13.288549423217773;joint1:25.528827667236328;joint2:-227.5;joint3:275.2546081542969;joint4:0.0;joint5:0.0;
time:54.337011449:joint0:13.350357055664062;joint1:25.647567749023438;joint2:-227.5;joint3:276.5348815917969;joint4:0.0;joint5:0.0;
time:54.341012515:joint0:13.412163734436035;joint1:25.766305923461914;joint2:-227.5;joint3:277.81512451171875;joint4:0.0;joint5:0.0;
time:54.345006038:joint0:13.473971366882324;joint1:25.88504409790039;joint2:-227.5;joint3:279.0953674316406;joint4:0.0;joint5:0.0;
time:54.349005428:joint0:13.535778999328613;joint1:26.0037841796875;joint2:-227.5;joint3:280.3756408691406;joint4:0.0;joint5:0.0;
time:54.353002304:joint0:13.597585678100586;joint1:26.122522354125977;joint2:-227.5;joint3:281.6558837890625;joint4:0.0;joint5:0.0;
time:54.357000855:joint0:13.659393310546875;joint1:26.241260528564453;joint2:-227.5;joint3:282.9361267089844;joint4:0.0;joint5:0.0;
time:54.360997731:joint0:13.721199989318848;joint1:26.360000610351562;joint2:-227.5;joint3:284.2164001464844;joint4:0.0;joint5:0.0;
time:54.364997121:joint0:13.783007621765137;joint1:26.47873878479004;joint2:-227.5;joint3:285.49664306640625;joint4:0.0;joint5:0.0;
time:54.368993997:joint0:13.84481430053711;joint1:26.597476959228516;joint2:-227.5;joint3:286.7768859863281;joint4:0.0;joint5:0.0;
time:54.372994225:joint0:13.906621932983398;joint1:26.716217041015625;joint2:-227.5;joint3:288.0571594238281;joint4:0.0;joint5:0.0;
time:54.376990262:joint0:13.968428611755371;joint1:26.8349552154541;joint2:-227.5;joint3:289.33740234375;joint4:0.0;joint5:0.0;
time:54.380987137:joint0:14.03023624420166;joint1:26.953693389892578;joint2:-227.5;joint3:290.61767578125;joint4:0.0;joint5:0.0;
time:54.384987365:joint0:14.092042922973633;joint1:27.072433471679688;joint2:-227.5;joint3:291.8979187011719;joint4:0.0;joint5:0.0;
time:54.388984240:joint0:14.153850555419922;joint1:27.19116973876953;joint2:-227.5;joint3:293.17816162109375;joint4:0.0;joint5:0.0;
time:54.392981116:joint0:14.215658187866211;joint1:27.30990982055664;joint2:-227.5;joint3:294.45843505859375;joint4:0.0;joint5:0.0;
time:54.396978830:joint0:14.277464866638184;joint1:27.428647994995117;joint2:-227.5;joint3:295.7386779785156;joint4:0.0;joint5:0.0;
time:54.400979058:joint0:14.339272499084473;joint1:27.547386169433594;joint2:-227.5;joint3:297.0189208984375;joint4:0.0;joint5:0.0;
time:54.404976771:joint0:14.401079177856445;joint1:27.666126251220703;joint2:-227.5;joint3:298.2991943359375;joint4:0.0;joint5:0.0;
time:54.408973647:joint0:14.462886810302734;joint1:27.78486442565918;joint2:-227.5;joint3:299.5794372558594;joint4:0.0;joint5:0.0;
time:54.412972199:joint0:14.524693489074707;joint1:27.903602600097656;joint2:-227.5;joint3:300.85968017578125;joint4:0.0;joint5:0.0;
time:54.416967398:joint0:14.586501121520996;joint1:28.022342681884766;joint2:-227.5;joint3:302.13995361328125;joint4:0.0;joint5:0.0;
time:54.420965950:joint0:14.648307800292969;joint1:28.141080856323242;joint2:-227.5;joint3:303.4201965332031;joint4:0.0;joint5:0.0;
time:54.424965340:joint0:14.710115432739258;joint1:28.25981903076172;joint2:-227.5;joint3:304.7004699707031;joint4:0.0;joint5:0.0;
time:54.428972273:joint0:14.771923065185547;joint1:28.378559112548828;joint2:-227.5;joint3:305.980712890625;joint4:0.0;joint5:0.0;
time:54.432963282:joint0:14.83372974395752;joint1:28.497297286987305;joint2:-227.5;joint3:307.2609558105469;joint4:0.0;joint5:0.0;
time:54.436960157:joint0:14.895537376403809;joint1:28.61603546142578;joint2:-227.5;joint3:308.5412292480469;joint4:0.0;joint5:0.0;
time:54.440957033:joint0:14.957344055175781;joint1:28.73477554321289;joint2:-227.5;joint3:309.82147216796875;joint4:0.0;joint5:0.0;
time:54.444955585:joint0:15.01915168762207;joint1:28.853513717651367;joint2:-227.5;joint3:311.1017150878906;joint4:0.0;joint5:0.0;
time:54.448954975:joint0:15.080958366394043;joint1:28.972251892089844;joint2:-227.5;joint3:312.3819885253906;joint4:0.0;joint5:0.0;
time:54.452951012:joint0:15.142765998840332;joint1:29.090991973876953;joint2:-227.5;joint3:313.6622314453125;joint4:0.0;joint5:0.0;
time:54.456947888:joint0:15.204572677612305;joint1:29.209728240966797;joint2:-227.5;joint3:314.9424743652344;joint4:0.0;joint5:0.0;
time:54.460945602:joint0:15.266380310058594;joint1:29.328468322753906;joint2:-227.5;joint3:316.2227478027344;joint4:0.0;joint5:0.0;
time:54.464942477:joint0:15.328187942504883;joint1:29.447206497192383;joint2:-227.5;joint3:317.50299072265625;joint4:0.0;joint5:0.0;
time:54.468941029:joint0:15.389994621276855;joint1:29.56594467163086;joint2:-227.5;joint3:318.78326416015625;joint4:0.0;joint5:0.0;
time:54.472938743:joint0:15.451802253723145;joint1:29.68468475341797;joint2:-227.5;joint3:320.0635070800781;joint4:0.0;joint5:0.0;
time:54.476940646:joint0:15.513608932495117;joint1:29.803422927856445;joint2:-227.5;joint3:321.34375;joint4:0.0;joint5:0.0;
time:54.480935007:joint0:15.575416564941406;joint1:29.922161102294922;joint2:-227.5;joint3:322.6240234375;joint4:0.0;joint5:0.0;
time:54.484937750:joint0:15.637223243713379;joint1:30.04090118408203;joint2:-227.5;joint3:323.9042663574219;joint4:0.0;joint5:0.0;
time:54.488931273:joint0:15.699030876159668;joint1:30.159639358520508;joint2:-227.5;joint3:325.18450927734375;joint4:0.0;joint5:0.0;
time:54.492928986:joint0:15.76083755493164;joint1:30.278377532958984;joint2:-227.5;joint3:326.46478271484375;joint4:0.0;joint5:0.0;
time:54.496927538:joint0:15.82264518737793;joint1:30.397117614746094;joint2:-227.5;joint3:327.7450256347656;joint4:0.0;joint5:0.0;
time:54.500924414:joint0:15.884452819824219;joint1:30.51585578918457;joint2:-227.5;joint3:329.0252685546875;joint4:0.0;joint5:0.0;
time:54.504922128:joint0:15.946259498596191;joint1:30.634593963623047;joint2:-227.5;joint3:330.3055419921875;joint4:0.0;joint5:0.0;
time:54.508919003:joint0:16.008066177368164;joint1:30.753334045410156;joint2:-227.5;joint3:331.5857849121094;joint4:0.0;joint5:0.0;
time:54.512921746:joint0:16.069873809814453;joint1:30.872072219848633;joint2:-227.5;joint3:332.86602783203125;joint4:0.0;joint5:0.0;
time:54.516916107:joint0:16.131681442260742;joint1:30.99081039428711;joint2:-227.5;joint3:334.14630126953125;joint4:0.0;joint5:0.0;
time:54.520913821:joint0:16.19348907470703;joint1:31.10955047607422;joint2:-227.5;joint3:335.4265441894531;joint4:0.0;joint5:0.0;
time:54.524909858:joint0:16.255294799804688;joint1:31.228286743164062;joint2:-227.5;joint3:336.7068176269531;joint4:0.0;joint5:0.0;
time:54.528916791:joint0:16.317102432250977;joint1:31.347026824951172;joint2:-227.5;joint3:337.987060546875;joint4:0.0;joint5:0.0;
time:54.532939647:joint0:16.378910064697266;joint1:31.46576499938965;joint2:-227.5;joint3:339.2673034667969;joint4:0.0;joint5:0.0;
time:54.536938199:joint0:16.440717697143555;joint1:31.584503173828125;joint2:-227.5;joint3:340.5475769042969;joint4:0.0;joint5:0.0;
time:54.540935913:joint0:16.502525329589844;joint1:31.703243255615234;joint2:-227.5;joint3:341.82781982421875;joint4:0.0;joint5:0.0;
time:54.544931950:joint0:16.5643310546875;joint1:31.82198143005371;joint2:-227.5;joint3:343.1080627441406;joint4:0.0;joint5:0.0;
time:54.548928826:joint0:16.62613868713379;joint1:31.940719604492188;joint2:-227.5;joint3:344.3883361816406;joint4:0.0;joint5:0.0;
time:54.552915645:joint0:16.687946319580078;joint1:32.0594596862793;joint2:-227.5;joint3:345.6685791015625;joint4:0.0;joint5:0.0;
time:54.556902463:joint0:16.749753952026367;joint1:32.178199768066406;joint2:-227.5;joint3:346.9488220214844;joint4:0.0;joint5:0.0;
time:54.560910234:joint0:16.811559677124023;joint1:32.29693603515625;joint2:-227.5;joint3:348.2290954589844;joint4:0.0;joint5:0.0;
time:54.564907110:joint0:16.873367309570312;joint1:32.41567611694336;joint2:-227.5;joint3:349.50933837890625;joint4:0.0;joint5:0.0;
time:54.568888061:joint0:16.9351749420166;joint1:32.53441619873047;joint2:-227.5;joint3:350.78961181640625;joint4:0.0;joint5:0.0;
time:54.572884937:joint0:16.99698257446289;joint1:32.65315246582031;joint2:-227.5;joint3:352.0698547363281;joint4:0.0;joint5:0.0;
time:54.576885165:joint0:17.05879020690918;joint1:32.77189254760742;joint2:-227.5;joint3:353.35009765625;joint4:0.0;joint5:0.0;
time:54.580882040:joint0:17.120595932006836;joint1:32.89063262939453;joint2:-227.5;joint3:354.63037109375;joint4:0.0;joint5:0.0;
time:54.584878915:joint0:17.182403564453125;joint1:33.009368896484375;joint2:-227.5;joint3:355.9106140136719;joint4:0.0;joint5:0.0;
time:54.588874953:joint0:17.244211196899414;joint1:33.128108978271484;joint2:-227.5;joint3:357.19085693359375;joint4:0.0;joint5:0.0;
time:54.592875181:joint0:17.306018829345703;joint1:33.24684524536133;joint2:-227.5;joint3:358.47113037109375;joint4:0.0;joint5:0.0;
time:54.596871218:joint0:17.36782455444336;joint1:33.36558532714844;joint2:-227.5;joint3:359.7513732910156;joint4:0.0;joint5:0.0;
time:54.600879827:joint0:17.42963218688965;joint1:33.48432540893555;joint2:-227.5;joint3:361.0316162109375;joint4:0.0;joint5:0.0;
time:54.604869160:joint0:17.491439819335938;joint1:33.60306167602539;joint2:-227.5;joint3:362.3118896484375;joint4:0.0;joint5:0.0;
time:54.608867712:joint0:17.553247451782227;joint1:33.7218017578125;joint2:-227.5;joint3:363.5921325683594;joint4:0.0;joint5:0.0;
time:54.612864587:joint0:17.615055084228516;joint1:33.840538024902344;joint2:-227.5;joint3:364.8724060058594;joint4:0.0;joint5:0.0;
time:54.616863139:joint0:17.676860809326172;joint1:33.95927810668945;joint2:-227.5;joint3:366.15264892578125;joint4:0.0;joint5:0.0;
time:54.620858339:joint0:17.73866844177246;joint1:34.07801818847656;joint2:-227.5;joint3:367.4328918457031;joint4:0.0;joint5:0.0;
time:54.624866109:joint0:17.80047607421875;joint1:34.196754455566406;joint2:-227.5;joint3:368.7131652832031;joint4:0.0;joint5:0.0;
time:54.628856280:joint0:17.86228370666504;joint1:34.315494537353516;joint2:-227.5;joint3:369.993408203125;joint4:0.0;joint5:0.0;
time:54.632853156:joint0:17.924091339111328;joint1:34.434234619140625;joint2:-227.5;joint3:371.2736511230469;joint4:0.0;joint5:0.0;
time:54.636850032:joint0:17.985897064208984;joint1:34.55297088623047;joint2:-227.5;joint3:372.5539245605469;joint4:0.0;joint5:0.0;
time:54.640851098:joint0:18.047704696655273;joint1:34.67171096801758;joint2:-227.5;joint3:373.83416748046875;joint4:0.0;joint5:0.0;
time:54.644846297:joint0:18.109512329101562;joint1:34.79045104980469;joint2:-227.5;joint3:375.1144104003906;joint4:0.0;joint5:0.0;
time:54.648844849:joint0:18.17131996154785;joint1:34.90918731689453;joint2:-227.5;joint3:376.3946838378906;joint4:0.0;joint5:0.0;
time:54.652843401:joint0:18.233125686645508;joint1:35.02792739868164;joint2:-227.5;joint3:377.6749267578125;joint4:0.0;joint5:0.0;
time:54.656838600:joint0:18.294933319091797;joint1:35.14666748046875;joint2:-227.5;joint3:378.9552001953125;joint4:0.0;joint5:0.0;
time:54.660839666:joint0:18.356740951538086;joint1:35.265403747558594;joint2:-227.5;joint3:380.2354431152344;joint4:0.0;joint5:0.0;
time:54.664837380:joint0:18.418548583984375;joint1:35.3841438293457;joint2:-227.5;joint3:381.51568603515625;joint4:0.0;joint5:0.0;
time:54.668831741:joint0:18.480356216430664;joint1:35.50288391113281;joint2:-227.5;joint3:382.79595947265625;joint4:0.0;joint5:0.0;
time:54.672832807:joint0:18.54216194152832;joint1:35.621620178222656;joint2:-227.5;joint3:384.0762023925781;joint4:0.0;joint5:0.0;
time:54.676829682:joint0:18.60396957397461;joint1:35.740360260009766;joint2:-227.5;joint3:385.3564453125;joint4:0.0;joint5:0.0;
time:54.680828234:joint0:18.6657772064209;joint1:35.859100341796875;joint2:-227.5;joint3:386.63671875;joint4:0.0;joint5:0.0;
time:54.684827624:joint0:18.727584838867188;joint1:35.97783660888672;joint2:-227.5;joint3:387.9169616699219;joint4:0.0;joint5:0.0;
time:54.688826176:joint0:18.789390563964844;joint1:36.09657669067383;joint2:-227.5;joint3:389.19720458984375;joint4:0.0;joint5:0.0;
time:54.692820537:joint0:18.851198196411133;joint1:36.21531677246094;joint2:-227.5;joint3:390.47747802734375;joint4:0.0;joint5:0.0;
time:54.696819089:joint0:18.913005828857422;joint1:36.33405303955078;joint2:-227.5;joint3:391.7577209472656;joint4:0.0;joint5:0.0;
time:54.700817640:joint0:18.97481346130371;joint1:36.45279312133789;joint2:-227.5;joint3:393.0379943847656;joint4:0.0;joint5:0.0;
time:54.704814516:joint0:19.036619186401367;joint1:36.571533203125;joint2:-227.5;joint3:394.3182373046875;joint4:0.0;joint5:0.0;
time:54.708811392:joint0:19.098426818847656;joint1:36.690269470214844;joint2:-227.5;joint3:395.5984802246094;joint4:0.0;joint5:0.0;
time:54.712812458:joint0:19.160234451293945;joint1:36.80900955200195;joint2:-227.5;joint3:396.8787536621094;joint4:0.0;joint5:0.0;
time:54.716806819:joint0:19.222042083740234;joint1:36.92774963378906;joint2:-227.5;joint3:398.15899658203125;joint4:0.0;joint5:0.0;
time:54.720806209:joint0:19.283849716186523;joint1:37.046485900878906;joint2:-227.5;joint3:399.4392395019531;joint4:0.0;joint5:0.0;
time:54.724804761:joint0:19.34565544128418;joint1:37.16522216796875;joint2:-227.5;joint3:400.7195129394531;joint4:0.0;joint5:0.0;
time:54.728799122:joint0:19.40746307373047;joint1:37.283966064453125;joint2:-227.5;joint3:401.999755859375;joint4:0.0;joint5:0.0;
time:54.732800188:joint0:19.469270706176758;joint1:37.40270233154297;joint2:-227.5;joint3:403.2799987792969;joint4:0.0;joint5:0.0;
time:54.736797902:joint0:19.531078338623047;joint1:37.52143859863281;joint2:-227.5;joint3:404.5602722167969;joint4:0.0;joint5:0.0;
time:54.740793940:joint0:19.592884063720703;joint1:37.64018249511719;joint2:-227.5;joint3:405.84051513671875;joint4:0.0;joint5:0.0;
time:54.744791653:joint0:19.654691696166992;joint1:37.75891876220703;joint2:-227.5;joint3:407.1207580566406;joint4:0.0;joint5:0.0;
time:54.748792719:joint0:19.71649932861328;joint1:37.877655029296875;joint2:-227.5;joint3:408.4010314941406;joint4:0.0;joint5:0.0;
time:54.752787081:joint0:19.77830696105957;joint1:37.996395111083984;joint2:-227.5;joint3:409.6812744140625;joint4:0.0;joint5:0.0;
time:54.756786471:joint0:19.84011459350586;joint1:38.115135192871094;joint2:-227.5;joint3:410.9615478515625;joint4:0.0;joint5:0.0;
time:54.760785022:joint0:19.901920318603516;joint1:38.23387145996094;joint2:-227.5;joint3:412.2417907714844;joint4:0.0;joint5:0.0;
time:54.764781060:joint0:19.963727951049805;joint1:38.35261154174805;joint2:-227.5;joint3:413.52203369140625;joint4:0.0;joint5:0.0;
time:54.768779612:joint0:20.025535583496094;joint1:38.471351623535156;joint2:-227.5;joint3:414.80230712890625;joint4:0.0;joint5:0.0;
time:54.772779002:joint0:20.087343215942383;joint1:38.590087890625;joint2:-227.5;joint3:416.0825500488281;joint4:0.0;joint5:0.0;
time:54.776772524:joint0:20.14914894104004;joint1:38.70882797241211;joint2:-227.5;joint3:417.36279296875;joint4:0.0;joint5:0.0;
time:54.780774428:joint0:20.210956573486328;joint1:38.82756805419922;joint2:-227.5;joint3:418.64306640625;joint4:0.0;joint5:0.0;
time:54.784773818:joint0:20.272764205932617;joint1:38.94630432128906;joint2:-227.5;joint3:419.9233093261719;joint4:0.0;joint5:0.0;
time:54.788767341:joint0:20.334571838378906;joint1:39.06504440307617;joint2:-227.5;joint3:421.20355224609375;joint4:0.0;joint5:0.0;
time:54.792768407:joint0:20.396379470825195;joint1:39.18378448486328;joint2:-227.5;joint3:422.48382568359375;joint4:0.0;joint5:0.0;
time:54.796766959:joint0:20.45818519592285;joint1:39.302520751953125;joint2:-227.5;joint3:423.7640686035156;joint4:0.0;joint5:0.0;
time:54.800761320:joint0:20.51999282836914;joint1:39.421260833740234;joint2:-227.5;joint3:425.0443420410156;joint4:0.0;joint5:0.0;
time:54.804760710:joint0:20.58180046081543;joint1:39.540000915527344;joint2:-227.5;joint3:426.3245849609375;joint4:0.0;joint5:0.0;
time:54.808760100:joint0:20.64360809326172;joint1:39.65873718261719;joint2:-227.5;joint3:427.6048278808594;joint4:0.0;joint5:0.0;
time:54.812755300:joint0:20.705413818359375;joint1:39.7774772644043;joint2:-227.5;joint3:428.8851013183594;joint4:0.0;joint5:0.0;
time:54.816753851:joint0:20.767221450805664;joint1:39.896217346191406;joint2:-227.5;joint3:430.16534423828125;joint4:0.0;joint5:0.0;
time:54.820754079:joint0:20.829029083251953;joint1:40.01495361328125;joint2:-227.5;joint3:431.4455871582031;joint4:0.0;joint5:0.0;
time:54.824749279:joint0:20.890836715698242;joint1:40.13369369506836;joint2:-227.5;joint3:432.7258605957031;joint4:0.0;joint5:0.0;
time:54.828757888:joint0:20.95264434814453;joint1:40.25243377685547;joint2:-227.5;joint3:434.006103515625;joint4:0.0;joint5:0.0;
time:54.832746383:joint0:21.014450073242188;joint1:40.37117004394531;joint2:-227.5;joint3:435.2863464355469;joint4:0.0;joint5:0.0;
time:54.836740744:joint0:21.076257705688477;joint1:40.48991012573242;joint2:-227.5;joint3:436.5666198730469;joint4:0.0;joint5:0.0;
time:54.840740972:joint0:21.138065338134766;joint1:40.60865020751953;joint2:-227.5;joint3:437.84686279296875;joint4:0.0;joint5:0.0;
time:54.844739524:joint0:21.199872970581055;joint1:40.727386474609375;joint2:-227.5;joint3:439.12713623046875;joint4:0.0;joint5:0.0;
time:54.848735561:joint0:21.26167869567871;joint1:40.846126556396484;joint2:-227.5;joint3:440.4073791503906;joint4:0.0;joint5:0.0;
time:54.852734951:joint0:21.323486328125;joint1:40.964866638183594;joint2:-227.5;joint3:441.6876220703125;joint4:0.0;joint5:0.0;
