heyhilz/my_project-----/2024-07-31-16-33-25/in_data.txt
time:65.076171103;enci0:4991310,joint0:317.338928,roll00,enci1:-2685650,joint1:-90.054420,roll10,enci2:-641335,joint2:-179.978500,roll20,enci3:641289,joint3:-179.967255,roll30,enci4:-7,joint4:-0.007055,roll40,enci5:0,joint5:0.000000,roll50
time:65.079355864;enci0:4991310,joint0:317.338928,roll00,enci1:-2685650,joint1:-90.054420,roll10,enci2:-641335,joint2:-179.978500,roll20,enci3:641289,joint3:-179.967255,roll30,enci4:-7,joint4:-0.007055,roll40,enci5:0,joint5:0.000000,roll50
time:65.080173845;enci0:4991310,joint0:317.338928,roll00,enci1:-2685650,joint1:-90.054420,roll10,enci2:-641335,joint2:-179.978500,roll20,enci3:641290,joint3:-179.967499,roll30,enci4:-7,joint4:-0.007055,roll40,enci5:0,joint5:0.000000,roll50
time:65.083354416;enci0:4991310,joint0:317.338928,roll00,enci1:-2685650,joint1:-90.054420,roll10,enci2:-641335,joint2:-179.978500,roll20,enci3:641290,joint3:-179.967499,roll30,enci4:-7,joint4:-0.007055,roll40,enci5:0,joint5:0.000000,roll50
time:65.084173235;enci0:4991310,joint0:317.338928,roll00,enci1:-2685650,joint1:-90.054420,roll10,enci2:-641335,joint2:-179.978500,roll20,enci3:641290,joint3:-179.967499,roll30,enci4:-7,joint4:-0.007055,roll40,enci5:0,joint5:0.000000,roll50
time:65.087355482;enci0:4991310,joint0:317.338928,roll00,enci1:-2685650,joint1:-90.054420,roll10,enci2:-641335,joint2:-179.978500,roll20,enci3:641290,joint3:-179.967499,roll30,enci4:-7,joint4:-0.007055,roll40,enci5:0,joint5:0.000000,roll50
time:65.088172625;enci0:4991310,joint0:317.338928,roll00,enci1:-2685650,joint1:-90.054420,roll10,enci2:-641335,joint2:-179.978500,roll20,enci3:641290,joint3:-179.967499,roll30,enci4:-7,joint4:-0.007055,roll40,enci5:0,joint5:0.000000,roll50
time:65.091354872;enci0:4991310,joint0:317.338928,roll00,enci1:-2685650,joint1:-90.054420,roll10,enci2:-641335,joint2:-179.978500,roll20,enci3:641290,joint3:-179.967499,roll30,enci4:-7,joint4:-0.007055,roll40,enci5:0,joint5:0.000000,roll50
time:65.092173691;enci0:4991310,joint0:317.338928,roll00,enci1:-2685650,joint1:-90.054420,roll10,enci2:-641335,joint2:-179.978500,roll20,enci3:641290,joint3:-179.967499,roll30,enci4:-7,joint4:-0.007055,roll40,enci5:0,joint5:0.000000,roll50
time:65.095354262;enci0:4991310,joint0:317.338928,roll00,enci1:-2685650,joint1:-90.054420,roll10,enci2:-641335,joint2:-179.978500,roll20,enci3:641290,joint3:-179.967499,roll30,enci4:-7,joint4:-0.007055,roll40,enci5:0,joint5:0.000000,roll50
time:65.096170567;enci0:4991310,joint0:317.338928,roll00,enci1:-2685650,joint1:-90.054420,roll10,enci2:-641335,joint2:-179.978500,roll20,enci3:641290,joint3:-179.967499,roll30,enci4:-7,joint4:-0.007055,roll40,enci5:0,joint5:0.000000,roll50
time:65.099355328;enci0:4991310,joint0:317.338928,roll00,enci1:-2685650,joint1:-90.054420,roll10,enci2:-641335,joint2:-179.978500,roll20,enci3:641290,joint3:-179.967499,roll30,enci4:-7,joint4:-0.007055,roll40,enci5:0,joint5:0.000000,roll50
time:65.100174147;enci0:4991310,joint0:317.338928,roll00,enci1:-2685650,joint1:-90.054420,roll10,enci2:-641335,joint2:-179.978500,roll20,enci3:641290,joint3:-179.967499,roll30,enci4:-7,joint4:-0.007055,roll40,enci5:0,joint5:0.000000,roll50
time:65.103353879;enci0:4991310,joint0:317.338928,roll00,enci1:-2685650,joint1:-90.054420,roll10,enci2:-641335,joint2:-179.978500,roll20,enci3:641290,joint3:-179.967499,roll30,enci4:-7,joint4:-0.007055,roll40,enci5:0,joint5:0.000000,roll50
time:65.104171022;enci0:4991310,joint0:317.338928,roll00,enci1:-2685650,joint1:-90.054420,roll10,enci2:-641335,joint2:-179.978500,roll20,enci3:641290,joint3:-179.967499,roll30,enci4:-7,joint4:-0.007055,roll40,enci5:0,joint5:0.000000,roll50
time:65.107354107;enci0:4991310,joint0:317.338928,roll00,enci1:-2685650,joint1:-90.054420,roll10,enci2:-641335,joint2:-179.978500,roll20,enci3:641290,joint3:-179.967499,roll30,enci4:-7,joint4:-0.007055,roll40,enci5:0,joint5:0.000000,roll50
time:65.108170412;enci0:4991310,joint0:317.338928,roll00,enci1:-2685650,joint1:-90.054420,roll10,enci2:-641335,joint2:-179.978500,roll20,enci3:641290,joint3:-179.967499,roll30,enci4:-7,joint4:-0.007055,roll40,enci5:0,joint5:0.000000,roll50
time:65.111352659;enci0:4991310,joint0:317.338928,roll00,enci1:-2685650,joint1:-90.054420,roll10,enci2:-641335,joint2:-179.978500,roll20,enci3:641290,joint3:-179.967499,roll30,enci4:-7,joint4:-0.007055,roll40,enci5:0,joint5:0.000000,roll50
time:65.112168125;enci0:4991310,joint0:317.338928,roll00,enci1:-2685650,joint1:-90.054420,roll10,enci2:-641335,joint2:-179.978500,roll20,enci3:641289,joint3:-179.967255,roll30,enci4:-7,joint4:-0.007055,roll40,enci5:0,joint5:0.000000,roll50
time:65.115353725;enci0:4991310,joint0:317.338928,roll00,enci1:-2685650,joint1:-90.054420,roll10,enci2:-641335,joint2:-179.978500,roll20,enci3:641289,joint3:-179.967255,roll30,enci4:-7,joint4:-0.007055,roll40,enci5:0,joint5:0.000000,roll50
time:65.116170030;enci0:4991310,joint0:317.338928,roll00,enci1:-2685650,joint1:-90.054420,roll10,enci2:-641335,joint2:-179.978500,roll20,enci3:641290,joint3:-179.967499,roll30,enci4:-7,joint4:-0.007055,roll40,enci5:0,joint5:0.000000,roll50
time:65.119353115;enci0:4991310,joint0:317.338928,roll00,enci1:-2685650,joint1:-90.054420,roll10,enci2:-641335,joint2:-179.978500,roll20,enci3:641290,joint3:-179.967499,roll30,enci4:-7,joint4:-0.007055,roll40,enci5:0,joint5:0.000000,roll50
time:65.120170258;enci0:4991310,joint0:317.338928,roll00,enci1:-2685650,joint1:-90.054420,roll10,enci2:-641335,joint2:-179.978500,roll20,enci3:641290,joint3:-179.967499,roll30,enci4:-7,joint4:-0.007055,roll40,enci5:0,joint5:0.000000,roll50
time:65.123354181;enci0:4991310,joint0:317.338928,roll00,enci1:-2685650,joint1:-90.054420,roll10,enci2:-641335,joint2:-179.978500,roll20,enci3:641290,joint3:-179.967499,roll30,enci4:-7,joint4:-0.007055,roll40,enci5:0,joint5:0.000000,roll50
time:65.124173838;enci0:4991310,joint0:317.338928,roll00,enci1:-2685650,joint1:-90.054420,roll10,enci2:-641335,joint2:-179.978500,roll20,enci3:641289,joint3:-179.967255,roll30,enci4:-7,joint4:-0.007055,roll40,enci5:0,joint5:0.000000,roll50
time:65.127351895;enci0:4991310,joint0:317.338928,roll00,enci1:-2685650,joint1:-90.054420,roll10,enci2:-641335,joint2:-179.978500,roll20,enci3:641289,joint3:-179.967255,roll30,enci4:-7,joint4:-0.007055,roll40,enci5:0,joint5:0.000000,roll50
time:65.128164847;enci0:4991310,joint0:317.338928,roll00,enci1:-2685650,joint1:-90.054420,roll10,enci2:-641335,joint2:-179.978500,roll20,enci3:641290,joint3:-179.967499,roll30,enci4:-7,joint4:-0.007055,roll40,enci5:0,joint5:0.000000,roll50
time:65.131352961;enci0:4991310,joint0:317.338928,roll00,enci1:-2685650,joint1:-90.054420,roll10,enci2:-641335,joint2:-179.978500,roll20,enci3:641290,joint3:-179.967499,roll30,enci4:-7,joint4:-0.007055,roll40,enci5:0,joint5:0.000000,roll50
time:65.132170942;enci0:4991310,joint0:317.338928,roll00,enci1:-2685650,joint1:-90.054420,roll10,enci2:-641335,joint2:-179.978500,roll20,enci3:641290,joint3:-179.967499,roll30,enci4:-7,joint4:-0.007055,roll40,enci5:0,joint5:0.000000,roll50
time:65.135353189;enci0:4991310,joint0:317.338928,roll00,enci1:-2685650,joint1:-90.054420,roll10,enci2:-641335,joint2:-179.978500,roll20,enci3:641290,joint3:-179.967499,roll30,enci4:-7,joint4:-0.007055,roll40,enci5:0,joint5:0.000000,roll50
time:65.136169493;enci0:4991310,joint0:317.338928,roll00,enci1:-2685650,joint1:-90.054420,roll10,enci2:-641335,joint2:-179.978500,roll20,enci3:641289,joint3:-179.967255,roll30,enci4:-7,joint4:-0.007055,roll40,enci5:0,joint5:0.000000,roll50
time:65.139352579;enci0:4991310,joint0:317.338928,roll00,enci1:-2685650,joint1:-90.054420,roll10,enci2:-641335,joint2:-179.978500,roll20,enci3:641289,joint3:-179.967255,roll30,enci4:-7,joint4:-0.007055,roll40,enci5:0,joint5:0.000000,roll50
time:65.140170559;enci0:4991310,joint0:317.338928,roll00,enci1:-2685650,joint1:-90.054420,roll10,enci2:-641335,joint2:-179.978500,roll20,enci3:641290,joint3:-179.967499,roll30,enci4:-7,joint4:-0.007055,roll40,enci5:0,joint5:0.000000,roll50
time:65.143351130;enci0:4991310,joint0:317.338928,roll00,enci1:-2685650,joint1:-90.054420,roll10,enci2:-641335,joint2:-179.978500,roll20,enci3:641290,joint3:-179.967499,roll30,enci4:-7,joint4:-0.007055,roll40,enci5:0,joint5:0.000000,roll50
time:65.144169111;enci0:4991310,joint0:317.338928,roll00,enci1:-2685650,joint1:-90.054420,roll10,enci2:-641335,joint2:-179.978500,roll20,enci3:641290,joint3:-179.967499,roll30,enci4:-7,joint4:-0.007055,roll40,enci5:0,joint5:0.000000,roll50
time:65.147350520;enci0:4991310,joint0:317.338928,roll00,enci1:-2685650,joint1:-90.054420,roll10,enci2:-641335,joint2:-179.978500,roll20,enci3:641290,joint3:-179.967499,roll30,enci4:-7,joint4:-0.007055,roll40,enci5:0,joint5:0.000000,roll50
time:65.148175206;enci0:4991310,joint0:317.338928,roll00,enci1:-2685650,joint1:-90.054420,roll10,enci2:-641335,joint2:-179.978500,roll20,enci3:641289,joint3:-179.967255,roll30,enci4:-7,joint4:-0.007055,roll40,enci5:0,joint5:0.000000,roll50
time:65.151351586;enci0:4991310,joint0:317.338928,roll00,enci1:-2685650,joint1:-90.054420,roll10,enci2:-641335,joint2:-179.978500,roll20,enci3:641289,joint3:-179.967255,roll30,enci4:-7,joint4:-0.007055,roll40,enci5:0,joint5:0.000000,roll50
time:65.152168729;enci0:4991310,joint0:317.338928,roll00,enci1:-2685650,joint1:-90.054420,roll10,enci2:-641335,joint2:-179.978500,roll20,enci3:641290,joint3:-179.967499,roll30,enci4:-7,joint4:-0.007055,roll40,enci5:0,joint5:0.000000,roll50
time:65.155353491;enci0:4991310,joint0:317.338928,roll00,enci1:-2685650,joint1:-90.054420,roll10,enci2:-641335,joint2:-179.978500,roll20,enci3:641290,joint3:-179.967499,roll30,enci4:-7,joint4:-0.007055,roll40,enci5:0,joint5:0.000000,roll50
time:65.156171471;enci0:4991310,joint0:317.338928,roll00,enci1:-2685650,joint1:-90.054420,roll10,enci2:-641335,joint2:-179.978500,roll20,enci3:641290,joint3:-179.967499,roll30,enci4:-7,joint4:-0.007055,roll40,enci5:0,joint5:0.000000,roll50
time:65.159351204;enci0:4991310,joint0:317.338928,roll00,enci1:-2685650,joint1:-90.054420,roll10,enci2:-641335,joint2:-179.978500,roll20,enci3:641290,joint3:-179.967499,roll30,enci4:-7,joint4:-0.007055,roll40,enci5:0,joint5:0.000000,roll50
time:65.160175052;enci0:4991310,joint0:317.338928,roll00,enci1:-2685650,joint1:-90.054420,roll10,enci2:-641335,joint2:-179.978500,roll20,enci3:641289,joint3:-179.967255,roll30,enci4:-7,joint4:-0.007055,roll40,enci5:0,joint5:0.000000,roll50
time:65.163352270;enci0:4991310,joint0:317.338928,roll00,enci1:-2685650,joint1:-90.054420,roll10,enci2:-641335,joint2:-179.978500,roll20,enci3:641289,joint3:-179.967255,roll30,enci4:-7,joint4:-0.007055,roll40,enci5:0,joint5:0.000000,roll50
time:65.164169413;enci0:4991310,joint0:317.338928,roll00,enci1:-2685650,joint1:-90.054420,roll10,enci2:-641335,joint2:-179.978500,roll20,enci3:641290,joint3:-179.967499,roll30,enci4:-7,joint4:-0.007055,roll40,enci5:0,joint5:0.000000,roll50
time:65.167350822;enci0:4991310,joint0:317.338928,roll00,enci1:-2685650,joint1:-90.054420,roll10,enci2:-641335,joint2:-179.978500,roll20,enci3:641290,joint3:-179.967499,roll30,enci4:-7,joint4:-0.007055,roll40,enci5:0,joint5:0.000000,roll50
time:65.168168803;enci0:4991310,joint0:317.338928,roll00,enci1:-2685650,joint1:-90.054420,roll10,enci2:-641335,joint2:-179.978500,roll20,enci3:641290,joint3:-179.967499,roll30,enci4:-7,joint4:-0.007055,roll40,enci5:0,joint5:0.000000,roll50
time:65.171351050;enci0:4991310,joint0:317.338928,roll00,enci1:-2685650,joint1:-90.054420,roll10,enci2:-641335,joint2:-179.978500,roll20,enci3:641290,joint3:-179.967499,roll30,enci4:-7,joint4:-0.007055,roll40,enci5:0,joint5:0.000000,roll50
time:65.172166517;enci0:4991310,joint0:317.338928,roll00,enci1:-2685650,joint1:-90.054420,roll10,enci2:-641335,joint2:-179.978500,roll20,enci3:641290,joint3:-179.967499,roll30,enci4:-7,joint4:-0.007055,roll40,enci5:0,joint5:0.000000,roll50
time:65.175350440;enci0:4991310,joint0:317.338928,roll00,enci1:-2685650,joint1:-90.054420,roll10,enci2:-641335,joint2:-179.978500,roll20,enci3:641290,joint3:-179.967499,roll30,enci4:-7,joint4:-0.007055,roll40,enci5:0,joint5:0.000000,roll50
time:65.176165907;enci0:4991310,joint0:317.338928,roll00,enci1:-2685650,joint1:-90.054420,roll10,enci2:-641335,joint2:-179.978500,roll20,enci3:641290,joint3:-179.967499,roll30,enci4:-7,joint4:-0.007055,roll40,enci5:0,joint5:0.000000,roll50
time:65.179351506;enci0:4991310,joint0:317.338928,roll00,enci1:-2685650,joint1:-90.054420,roll10,enci2:-641335,joint2:-179.978500,roll20,enci3:641290,joint3:-179.967499,roll30,enci4:-7,joint4:-0.007055,roll40,enci5:0,joint5:0.000000,roll50
time:65.180175354;enci0:4991310,joint0:317.338928,roll00,enci1:-2685650,joint1:-90.054420,roll10,enci2:-641335,joint2:-179.978500,roll20,enci3:641290,joint3:-179.967499,roll30,enci4:-7,joint4:-0.007055,roll40,enci5:0,joint5:0.000000,roll50
time:65.183350058;enci0:4991310,joint0:317.338928,roll00,enci1:-2685650,joint1:-90.054420,roll10,enci2:-641335,joint2:-179.978500,roll20,enci3:641290,joint3:-179.967499,roll30,enci4:-7,joint4:-0.007055,roll40,enci5:0,joint5:0.000000,roll50
time:65.184167201;enci0:4991310,joint0:317.338928,roll00,enci1:-2685650,joint1:-90.054420,roll10,enci2:-641335,joint2:-179.978500,roll20,enci3:641290,joint3:-179.967499,roll30,enci4:-7,joint4:-0.007055,roll40,enci5:0,joint5:0.000000,roll50
time:65.187351124;enci0:4991310,joint0:317.338928,roll00,enci1:-2685650,joint1:-90.054420,roll10,enci2:-641335,joint2:-179.978500,roll20,enci3:641290,joint3:-179.967499,roll30,enci4:-7,joint4:-0.007055,roll40,enci5:0,joint5:0.000000,roll50
time:65.188169943;enci0:4991310,joint0:317.338928,roll00,enci1:-2685650,joint1:-90.054420,roll10,enci2:-641335,joint2:-179.978500,roll20,enci3:641290,joint3:-179.967499,roll30,enci4:-7,joint4:-0.007055,roll40,enci5:0,joint5:0.000000,roll50
time:65.191348838;enci0:4991310,joint0:317.338928,roll00,enci1:-2685650,joint1:-90.054420,roll10,enci2:-641335,joint2:-179.978500,roll20,enci3:641290,joint3:-179.967499,roll30,enci4:-7,joint4:-0.007055,roll40,enci5:0,joint5:0.000000,roll50
time:65.192165981;enci0:4991310,joint0:317.338928,roll00,enci1:-2685650,joint1:-90.054420,roll10,enci2:-641335,joint2:-179.978500,roll20,enci3:641289,joint3:-179.967255,roll30,enci4:-7,joint4:-0.007055,roll40,enci5:0,joint5:0.000000,roll50
time:65.195349066;enci0:4991310,joint0:317.338928,roll00,enci1:-2685650,joint1:-90.054420,roll10,enci2:-641335,joint2:-179.978500,roll20,enci3:641289,joint3:-179.967255,roll30,enci4:-7,joint4:-0.007055,roll40,enci5:0,joint5:0.000000,roll50
time:65.196165371;enci0:4991310,joint0:317.338928,roll00,enci1:-2685650,joint1:-90.054420,roll10,enci2:-641335,joint2:-179.978500,roll20,enci3:641289,joint3:-179.967255,roll30,enci4:-7,joint4:-0.007055,roll40,enci5:0,joint5:0.000000,roll50
time:65.199357674;enci0:4991310,joint0:317.338928,roll00,enci1:-2685650,joint1:-90.054420,roll10,enci2:-641335,joint2:-179.978500,roll20,enci3:641289,joint3:-179.967255,roll30,enci4:-7,joint4:-0.007055,roll40,enci5:0,joint5:0.000000,roll50
time:65.200173978;enci0:4991310,joint0:317.338928,roll00,enci1:-2685650,joint1:-90.054420,roll10,enci2:-641335,joint2:-179.978500,roll20,enci3:641290,joint3:-179.967499,roll30,enci4:-7,joint4:-0.007055,roll40,enci5:0,joint5:0.000000,roll50
time:65.203349521;enci0:4991310,joint0:317.338928,roll00,enci1:-2685650,joint1:-90.054420,roll10,enci2:-641335,joint2:-179.978500,roll20,enci3:641290,joint3:-179.967499,roll30,enci4:-7,joint4:-0.007055,roll40,enci5:0,joint5:0.000000,roll50
time:65.204169178;enci0:4991310,joint0:317.338928,roll00,enci1:-2685650,joint1:-90.054420,roll10,enci2:-641335,joint2:-179.978500,roll20,enci3:641289,joint3:-179.967255,roll30,enci4:-7,joint4:-0.007055,roll40,enci5:0,joint5:0.000000,roll50
time:65.207349749;enci0:4991310,joint0:317.338928,roll00,enci1:-2685650,joint1:-90.054420,roll10,enci2:-641335,joint2:-179.978500,roll20,enci3:641289,joint3:-179.967255,roll30,enci4:-7,joint4:-0.007055,roll40,enci5:0,joint5:0.000000,roll50
time:65.208166054;enci0:4991310,joint0:317.338928,roll00,enci1:-2685650,joint1:-90.054420,roll10,enci2:-641335,joint2:-179.978500,roll20,enci3:641289,joint3:-179.967255,roll30,enci4:-7,joint4:-0.007055,roll40,enci5:0,joint5:0.000000,roll50
time:65.211348301;enci0:4991310,joint0:317.338928,roll00,enci1:-2685650,joint1:-90.054420,roll10,enci2:-641335,joint2:-179.978500,roll20,enci3:641289,joint3:-179.967255,roll30,enci4:-7,joint4:-0.007055,roll40,enci5:0,joint5:0.000000,roll50
time:65.212154548;enci0:4991310,joint0:317.338928,roll00,enci1:-2685650,joint1:-90.054420,roll10,enci2:-641335,joint2:-179.978500,roll20,enci3:641290,joint3:-179.967499,roll30,enci4:-7,joint4:-0.007055,roll40,enci5:0,joint5:0.000000,roll50
time:65.215349367;enci0:4991310,joint0:317.338928,roll00,enci1:-2685650,joint1:-90.054420,roll10,enci2:-641335,joint2:-179.978500,roll20,enci3:641290,joint3:-179.967499,roll30,enci4:-7,joint4:-0.007055,roll40,enci5:0,joint5:0.000000,roll50
time:65.216166510;enci0:4991310,joint0:317.338928,roll00,enci1:-2685650,joint1:-90.054420,roll10,enci2:-641335,joint2:-179.978500,roll20,enci3:641290,joint3:-179.967499,roll30,enci4:-7,joint4:-0.007055,roll40,enci5:0,joint5:0.000000,roll50
time:65.219347919;enci0:4991310,joint0:317.338928,roll00,enci1:-2685650,joint1:-90.054420,roll10,enci2:-641335,joint2:-179.978500,roll20,enci3:641290,joint3:-179.967499,roll30,enci4:-7,joint4:-0.007055,roll40,enci5:0,joint5:0.000000,roll50
time:65.220168414;enci0:4991310,joint0:317.338928,roll00,enci1:-2685650,joint1:-90.054420,roll10,enci2:-641335,joint2:-179.978500,roll20,enci3:641290,joint3:-179.967499,roll30,enci4:-7,joint4:-0.007055,roll40,enci5:0,joint5:0.000000,roll50
time:65.223347309;enci0:4991310,joint0:317.338928,roll00,enci1:-2685650,joint1:-90.054420,roll10,enci2:-641335,joint2:-179.978500,roll20,enci3:641290,joint3:-179.967499,roll30,enci4:-7,joint4:-0.007055,roll40,enci5:0,joint5:0.000000,roll50
time:65.224167804;enci0:4991310,joint0:317.338928,roll00,enci1:-2685650,joint1:-90.054420,roll10,enci2:-641335,joint2:-179.978500,roll20,enci3:641290,joint3:-179.967499,roll30,enci4:-7,joint4:-0.007055,roll40,enci5:0,joint5:0.000000,roll50
time:65.227344184;enci0:4991310,joint0:317.338928,roll00,enci1:-2685650,joint1:-90.054420,roll10,enci2:-641335,joint2:-179.978500,roll20,enci3:641290,joint3:-179.967499,roll30,enci4:-7,joint4:-0.007055,roll40,enci5:0,joint5:0.000000,roll50
time:65.228157974;enci0:4991310,joint0:317.338928,roll00,enci1:-2685650,joint1:-90.054420,roll10,enci2:-641335,joint2:-179.978500,roll20,enci3:641290,joint3:-179.967499,roll30,enci4:-7,joint4:-0.007055,roll40,enci5:0,joint5:0.000000,roll50
time:65.231347765;enci0:4991310,joint0:317.338928,roll00,enci1:-2685650,joint1:-90.054420,roll10,enci2:-641335,joint2:-179.978500,roll20,enci3:641290,joint3:-179.967499,roll30,enci4:-7,joint4:-0.007055,roll40,enci5:0,joint5:0.000000,roll50
time:65.232165745;enci0:4991310,joint0:317.338928,roll00,enci1:-2685650,joint1:-90.054420,roll10,enci2:-641335,joint2:-179.978500,roll20,enci3:641290,joint3:-179.967499,roll30,enci4:-7,joint4:-0.007055,roll40,enci5:0,joint5:0.000000,roll50
time:65.235346316;enci0:4991310,joint0:317.338928,roll00,enci1:-2685650,joint1:-90.054420,roll10,enci2:-641335,joint2:-179.978500,roll20,enci3:641290,joint3:-179.967499,roll30,enci4:-7,joint4:-0.007055,roll40,enci5:0,joint5:0.000000,roll50
time:65.236165973;enci0:4991310,joint0:317.338928,roll00,enci1:-2685650,joint1:-90.054420,roll10,enci2:-641335,joint2:-179.978500,roll20,enci3:641290,joint3:-179.967499,roll30,enci4:-7,joint4:-0.007055,roll40,enci5:0,joint5:0.000000,roll50
time:65.239346544;enci0:4991310,joint0:317.338928,roll00,enci1:-2685650,joint1:-90.054420,roll10,enci2:-641335,joint2:-179.978500,roll20,enci3:641290,joint3:-179.967499,roll30,enci4:-7,joint4:-0.007055,roll40,enci5:0,joint5:0.000000,roll50
time:65.240151954;enci0:4991310,joint0:317.338928,roll00,enci1:-2685650,joint1:-90.054420,roll10,enci2:-641335,joint2:-179.978500,roll20,enci3:641290,joint3:-179.967499,roll30,enci4:-7,joint4:-0.007055,roll40,enci5:0,joint5:0.000000,roll50
time:65.243348449;enci0:4991310,joint0:317.338928,roll00,enci1:-2685650,joint1:-90.054420,roll10,enci2:-641335,joint2:-179.978500,roll20,enci3:641290,joint3:-179.967499,roll30,enci4:-7,joint4:-0.007055,roll40,enci5:0,joint5:0.000000,roll50
time:65.244167267;enci0:4991310,joint0:317.338928,roll00,enci1:-2685650,joint1:-90.054420,roll10,enci2:-641335,joint2:-179.978500,roll20,enci3:641290,joint3:-179.967499,roll30,enci4:-7,joint4:-0.007055,roll40,enci5:0,joint5:0.000000,roll50
time:65.247347000;enci0:4991310,joint0:317.338928,roll00,enci1:-2685650,joint1:-90.054420,roll10,enci2:-641335,joint2:-179.978500,roll20,enci3:641290,joint3:-179.967499,roll30,enci4:-7,joint4:-0.007055,roll40,enci5:0,joint5:0.000000,roll50
time:65.248163305;enci0:4991310,joint0:317.338928,roll00,enci1:-2685650,joint1:-90.054420,roll10,enci2:-641335,joint2:-179.978500,roll20,enci3:641290,joint3:-179.967499,roll30,enci4:-7,joint4:-0.007055,roll40,enci5:0,joint5:0.000000,roll50
time:65.251356447;enci0:4991310,joint0:317.338928,roll00,enci1:-2685650,joint1:-90.054420,roll10,enci2:-641335,joint2:-179.978500,roll20,enci3:641290,joint3:-179.967499,roll30,enci4:-7,joint4:-0.007055,roll40,enci5:0,joint5:0.000000,roll50
time:65.252174428;enci0:4991310,joint0:317.338928,roll00,enci1:-2685650,joint1:-90.054420,roll10,enci2:-641335,joint2:-179.978500,roll20,enci3:641289,joint3:-179.967255,roll30,enci4:-7,joint4:-0.007055,roll40,enci5:0,joint5:0.000000,roll50
time:65.255346618;enci0:4991310,joint0:317.338928,roll00,enci1:-2685650,joint1:-90.054420,roll10,enci2:-641335,joint2:-179.978500,roll20,enci3:641289,joint3:-179.967255,roll30,enci4:-7,joint4:-0.007055,roll40,enci5:0,joint5:0.000000,roll50
time:65.256164599;enci0:4991310,joint0:317.338928,roll00,enci1:-2685650,joint1:-90.054420,roll10,enci2:-641335,joint2:-179.978500,roll20,enci3:641290,joint3:-179.967499,roll30,enci4:-7,joint4:-0.007055,roll40,enci5:0,joint5:0.000000,roll50
time:65.259346846;enci0:4991310,joint0:317.338928,roll00,enci1:-2685650,joint1:-90.054420,roll10,enci2:-641335,joint2:-179.978500,roll20,enci3:641290,joint3:-179.967499,roll30,enci4:-7,joint4:-0.007055,roll40,enci5:0,joint5:0.000000,roll50
time:65.260164827;enci0:4991310,joint0:317.338928,roll00,enci1:-2685650,joint1:-90.054420,roll10,enci2:-641335,joint2:-179.978500,roll20,enci3:641290,joint3:-179.967499,roll30,enci4:-7,joint4:-0.007055,roll40,enci5:0,joint5:0.000000,roll50
time:65.263345398;enci0:4991310,joint0:317.338928,roll00,enci1:-2685650,joint1:-90.054420,roll10,enci2:-641335,joint2:-179.978500,roll20,enci3:641290,joint3:-179.967499,roll30,enci4:-7,joint4:-0.007055,roll40,enci5:0,joint5:0.000000,roll50
time:65.264162541;enci0:4991310,joint0:317.338928,roll00,enci1:-2685650,joint1:-90.054420,roll10,enci2:-641335,joint2:-179.978500,roll20,enci3:641289,joint3:-179.967255,roll30,enci4:-7,joint4:-0.007055,roll40,enci5:0,joint5:0.000000,roll50
time:65.267344788;enci0:4991310,joint0:317.338928,roll00,enci1:-2685650,joint1:-90.054420,roll10,enci2:-641335,joint2:-179.978500,roll20,enci3:641289,joint3:-179.967255,roll30,enci4:-7,joint4:-0.007055,roll40,enci5:0,joint5:0.000000,roll50
time:65.268157740;enci0:4991310,joint0:317.338928,roll00,enci1:-2685650,joint1:-90.054420,roll10,enci2:-641335,joint2:-179.978500,roll20,enci3:641290,joint3:-179.967499,roll30,enci4:-7,joint4:-0.007055,roll40,enci5:0,joint5:0.000000,roll50
time:65.271346692;enci0:4991310,joint0:317.338928,roll00,enci1:-2685650,joint1:-90.054420,roll10,enci2:-641335,joint2:-179.978500,roll20,enci3:641290,joint3:-179.967499,roll30,enci4:-7,joint4:-0.007055,roll40,enci5:0,joint5:0.000000,roll50
time:65.272164673;enci0:4991310,joint0:317.338928,roll00,enci1:-2685650,joint1:-90.054420,roll10,enci2:-641335,joint2:-179.978500,roll20,enci3:641290,joint3:-179.967499,roll30,enci4:-7,joint4:-0.007055,roll40,enci5:0,joint5:0.000000,roll50
time:65.275346082;enci0:4991310,joint0:317.338928,roll00,enci1:-2685650,joint1:-90.054420,roll10,enci2:-641335,joint2:-179.978500,roll20,enci3:641290,joint3:-179.967499,roll30,enci4:-7,joint4:-0.007055,roll40,enci5:0,joint5:0.000000,roll50
time:65.276167415;enci0:4991310,joint0:317.338928,roll00,enci1:-2685650,joint1:-90.054420,roll10,enci2:-641335,joint2:-179.978500,roll20,enci3:641289,joint3:-179.967255,roll30,enci4:-7,joint4:-0.007055,roll40,enci5:0,joint5:0.000000,roll50
time:65.279355529;enci0:4991310,joint0:317.338928,roll00,enci1:-2685650,joint1:-90.054420,roll10,enci2:-641335,joint2:-179.978500,roll20,enci3:641289,joint3:-179.967255,roll30,enci4:-7,joint4:-0.007055,roll40,enci5:0,joint5:0.000000,roll50
time:65.280173510;enci0:4991310,joint0:317.338928,roll00,enci1:-2685650,joint1:-90.054420,roll10,enci2:-641335,joint2:-179.978500,roll20,enci3:641290,joint3:-179.967499,roll30,enci4:-7,joint4:-0.007055,roll40,enci5:0,joint5:0.000000,roll50
time:65.283346538;enci0:4991310,joint0:317.338928,roll00,enci1:-2685650,joint1:-90.054420,roll10,enci2:-641335,joint2:-179.978500,roll20,enci3:641290,joint3:-179.967499,roll30,enci4:-7,joint4:-0.007055,roll40,enci5:0,joint5:0.000000,roll50
time:65.284167033;enci0:4991310,joint0:317.338928,roll00,enci1:-2685650,joint1:-90.054420,roll10,enci2:-641335,joint2:-179.978500,roll20,enci3:641290,joint3:-179.967499,roll30,enci4:-7,joint4:-0.007055,roll40,enci5:0,joint5:0.000000,roll50
time:65.287345090;enci0:4991310,joint0:317.338928,roll00,enci1:-2685650,joint1:-90.054420,roll10,enci2:-641335,joint2:-179.978500,roll20,enci3:641290,joint3:-179.967499,roll30,enci4:-7,joint4:-0.007055,roll40,enci5:0,joint5:0.000000,roll50
time:65.288163071;enci0:4991310,joint0:317.338928,roll00,enci1:-2685650,joint1:-90.054420,roll10,enci2:-641335,joint2:-179.978500,roll20,enci3:641290,joint3:-179.967499,roll30,enci4:-7,joint4:-0.007055,roll40,enci5:0,joint5:0.000000,roll50
time:65.291345318;enci0:4991310,joint0:317.338928,roll00,enci1:-2685650,joint1:-90.054420,roll10,enci2:-641335,joint2:-179.978500,roll20,enci3:641290,joint3:-179.967499,roll30,enci4:-7,joint4:-0.007055,roll40,enci5:0,joint5:0.000000,roll50
time:65.292161622;enci0:4991310,joint0:317.338928,roll00,enci1:-2685650,joint1:-90.054420,roll10,enci2:-641335,joint2:-179.978500,roll20,enci3:641290,joint3:-179.967499,roll30,enci4:-7,joint4:-0.007055,roll40,enci5:0,joint5:0.000000,roll50
time:65.295343032;enci0:4991310,joint0:317.338928,roll00,enci1:-2685650,joint1:-90.054420,roll10,enci2:-641335,joint2:-179.978500,roll20,enci3:641290,joint3:-179.967499,roll30,enci4:-7,joint4:-0.007055,roll40,enci5:0,joint5:0.000000,roll50
time:65.296149279;enci0:4991310,joint0:317.338928,roll00,enci1:-2685650,joint1:-90.054420,roll10,enci2:-641335,joint2:-179.978500,roll20,enci3:641290,joint3:-179.967499,roll30,enci4:-7,joint4:-0.007055,roll40,enci5:0,joint5:0.000000,roll50
time:65.299344936;enci0:4991310,joint0:317.338928,roll00,enci1:-2685650,joint1:-90.054420,roll10,enci2:-641335,joint2:-179.978500,roll20,enci3:641290,joint3:-179.967499,roll30,enci4:-7,joint4:-0.007055,roll40,enci5:0,joint5:0.000000,roll50
time:65.300163755;enci0:4991310,joint0:317.338928,roll00,enci1:-2685650,joint1:-90.054420,roll10,enci2:-641335,joint2:-179.978500,roll20,enci3:641290,joint3:-179.967499,roll30,enci4:-7,joint4:-0.007055,roll40,enci5:0,joint5:0.000000,roll50
time:65.303344325;enci0:4991310,joint0:317.338928,roll00,enci1:-2685650,joint1:-90.054420,roll10,enci2:-641335,joint2:-179.978500,roll20,enci3:641290,joint3:-179.967499,roll30,enci4:-7,joint4:-0.007055,roll40,enci5:0,joint5:0.000000,roll50
time:65.304163144;enci0:4991310,joint0:317.338928,roll00,enci1:-2685650,joint1:-90.054420,roll10,enci2:-641335,joint2:-179.978500,roll20,enci3:641290,joint3:-179.967499,roll30,enci4:-7,joint4:-0.007055,roll40,enci5:0,joint5:0.000000,roll50
time:65.307341200;enci0:4991310,joint0:317.338928,roll00,enci1:-2685650,joint1:-90.054420,roll10,enci2:-641335,joint2:-179.978500,roll20,enci3:641290,joint3:-179.967499,roll30,enci4:-7,joint4:-0.007055,roll40,enci5:0,joint5:0.000000,roll50
time:65.308163372;enci0:4991310,joint0:317.338928,roll00,enci1:-2685650,joint1:-90.054420,roll10,enci2:-641335,joint2:-179.978500,roll20,enci3:641290,joint3:-179.967499,roll30,enci4:-7,joint4:-0.007055,roll40,enci5:0,joint5:0.000000,roll50
time:65.311344781;enci0:4991310,joint0:317.338928,roll00,enci1:-2685650,joint1:-90.054420,roll10,enci2:-641335,joint2:-179.978500,roll20,enci3:641290,joint3:-179.967499,roll30,enci4:-7,joint4:-0.007055,roll40,enci5:0,joint5:0.000000,roll50
time:65.312162761;enci0:4991310,joint0:317.338928,roll00,enci1:-2685650,joint1:-90.054420,roll10,enci2:-641335,joint2:-179.978500,roll20,enci3:641289,joint3:-179.967255,roll30,enci4:-7,joint4:-0.007055,roll40,enci5:0,joint5:0.000000,roll50
time:65.315344171;enci0:4991310,joint0:317.338928,roll00,enci1:-2685650,joint1:-90.054420,roll10,enci2:-641335,joint2:-179.978500,roll20,enci3:641289,joint3:-179.967255,roll30,enci4:-7,joint4:-0.007055,roll40,enci5:0,joint5:0.000000,roll50
time:65.316162151;enci0:4991310,joint0:317.338928,roll00,enci1:-2685650,joint1:-90.054420,roll10,enci2:-641335,joint2:-179.978500,roll20,enci3:641290,joint3:-179.967499,roll30,enci4:-7,joint4:-0.007055,roll40,enci5:0,joint5:0.000000,roll50
time:65.319344399;enci0:4991310,joint0:317.338928,roll00,enci1:-2685650,joint1:-90.054420,roll10,enci2:-641335,joint2:-179.978500,roll20,enci3:641290,joint3:-179.967499,roll30,enci4:-7,joint4:-0.007055,roll40,enci5:0,joint5:0.000000,roll50
time:65.320159865;enci0:4991310,joint0:317.338928,roll00,enci1:-2685650,joint1:-90.054420,roll10,enci2:-641335,joint2:-179.978500,roll20,enci3:641290,joint3:-179.967499,roll30,enci4:-7,joint4:-0.007055,roll40,enci5:0,joint5:0.000000,roll50
time:65.323344627;enci0:4991310,joint0:317.338928,roll00,enci1:-2685650,joint1:-90.054420,roll10,enci2:-641335,joint2:-179.978500,roll20,enci3:641290,joint3:-179.967499,roll30,enci4:-7,joint4:-0.007055,roll40,enci5:0,joint5:0.000000,roll50
time:65.324162607;enci0:4991310,joint0:317.338928,roll00,enci1:-2685650,joint1:-90.054420,roll10,enci2:-641335,joint2:-179.978500,roll20,enci3:641289,joint3:-179.967255,roll30,enci4:-7,joint4:-0.007055,roll40,enci5:0,joint5:0.000000,roll50
time:65.327343178;enci0:4991310,joint0:317.338928,roll00,enci1:-2685650,joint1:-90.054420,roll10,enci2:-641335,joint2:-179.978500,roll20,enci3:641289,joint3:-179.967255,roll30,enci4:-7,joint4:-0.007055,roll40,enci5:0,joint5:0.000000,roll50
time:65.328160321;enci0:4991310,joint0:317.338928,roll00,enci1:-2685650,joint1:-90.054420,roll10,enci2:-641335,joint2:-179.978500,roll20,enci3:641290,joint3:-179.967499,roll30,enci4:-7,joint4:-0.007055,roll40,enci5:0,joint5:0.000000,roll50
time:65.331344244;enci0:4991310,joint0:317.338928,roll00,enci1:-2685650,joint1:-90.054420,roll10,enci2:-641335,joint2:-179.978500,roll20,enci3:641290,joint3:-179.967499,roll30,enci4:-7,joint4:-0.007055,roll40,enci5:0,joint5:0.000000,roll50
time:65.332161387;enci0:4991310,joint0:317.338928,roll00,enci1:-2685650,joint1:-90.054420,roll10,enci2:-641335,joint2:-179.978500,roll20,enci3:641290,joint3:-179.967499,roll30,enci4:-7,joint4:-0.007055,roll40,enci5:0,joint5:0.000000,roll50
time:65.335343634;enci0:4991310,joint0:317.338928,roll00,enci1:-2685650,joint1:-90.054420,roll10,enci2:-641335,joint2:-179.978500,roll20,enci3:641290,joint3:-179.967499,roll30,enci4:-7,joint4:-0.007055,roll40,enci5:0,joint5:0.000000,roll50
time:65.336161615;enci0:4991310,joint0:317.338928,roll00,enci1:-2685650,joint1:-90.054420,roll10,enci2:-641335,joint2:-179.978500,roll20,enci3:641289,joint3:-179.967255,roll30,enci4:-7,joint4:-0.007055,roll40,enci5:0,joint5:0.000000,roll50
time:65.339343862;enci0:4991310,joint0:317.338928,roll00,enci1:-2685650,joint1:-90.054420,roll10,enci2:-641335,joint2:-179.978500,roll20,enci3:641289,joint3:-179.967255,roll30,enci4:-7,joint4:-0.007055,roll40,enci5:0,joint5:0.000000,roll50
time:65.340162681;enci0:4991310,joint0:317.338928,roll00,enci1:-2685650,joint1:-90.054420,roll10,enci2:-641335,joint2:-179.978500,roll20,enci3:641290,joint3:-179.967499,roll30,enci4:-7,joint4:-0.007055,roll40,enci5:0,joint5:0.000000,roll50
time:65.343343252;enci0:4991310,joint0:317.338928,roll00,enci1:-2685650,joint1:-90.054420,roll10,enci2:-641335,joint2:-179.978500,roll20,enci3:641290,joint3:-179.967499,roll30,enci4:-7,joint4:-0.007055,roll40,enci5:0,joint5:0.000000,roll50
time:65.344159557;enci0:4991310,joint0:317.338928,roll00,enci1:-2685650,joint1:-90.054420,roll10,enci2:-641335,joint2:-179.978500,roll20,enci3:641290,joint3:-179.967499,roll30,enci4:-7,joint4:-0.007055,roll40,enci5:0,joint5:0.000000,roll50
time:65.347343480;enci0:4991310,joint0:317.338928,roll00,enci1:-2685650,joint1:-90.054420,roll10,enci2:-641335,joint2:-179.978500,roll20,enci3:641290,joint3:-179.967499,roll30,enci4:-7,joint4:-0.007055,roll40,enci5:0,joint5:0.000000,roll50
time:65.348159785;enci0:4991310,joint0:317.338928,roll00,enci1:-2685650,joint1:-90.054420,roll10,enci2:-641335,joint2:-179.978500,roll20,enci3:641290,joint3:-179.967499,roll30,enci4:-7,joint4:-0.007055,roll40,enci5:0,joint5:0.000000,roll50
time:65.351342870;enci0:4991310,joint0:317.338928,roll00,enci1:-2685650,joint1:-90.054420,roll10,enci2:-641335,joint2:-179.978500,roll20,enci3:641290,joint3:-179.967499,roll30,enci4:-7,joint4:-0.007055,roll40,enci5:0,joint5:0.000000,roll50
time:65.352162527;enci0:4991310,joint0:317.338928,roll00,enci1:-2685650,joint1:-90.054420,roll10,enci2:-641335,joint2:-179.978500,roll20,enci3:641290,joint3:-179.967499,roll30,enci4:-7,joint4:-0.007055,roll40,enci5:0,joint5:0.000000,roll50
time:65.355341422;enci0:4991310,joint0:317.338928,roll00,enci1:-2685650,joint1:-90.054420,roll10,enci2:-641335,joint2:-179.978500,roll20,enci3:641290,joint3:-179.967499,roll30,enci4:-7,joint4:-0.007055,roll40,enci5:0,joint5:0.000000,roll50
time:65.356145155;enci0:4991310,joint0:317.338928,roll00,enci1:-2685650,joint1:-90.054420,roll10,enci2:-641335,joint2:-179.978500,roll20,enci3:641290,joint3:-179.967499,roll30,enci4:-7,joint4:-0.007055,roll40,enci5:0,joint5:0.000000,roll50
time:65.359341650;enci0:4991310,joint0:317.338928,roll00,enci1:-2685650,joint1:-90.054420,roll10,enci2:-641335,joint2:-179.978500,roll20,enci3:641290,joint3:-179.967499,roll30,enci4:-7,joint4:-0.007055,roll40,enci5:0,joint5:0.000000,roll50
time:65.360157955;enci0:4991310,joint0:317.338928,roll00,enci1:-2685650,joint1:-90.054420,roll10,enci2:-641335,joint2:-179.978500,roll20,enci3:641290,joint3:-179.967499,roll30,enci4:-7,joint4:-0.007055,roll40,enci5:0,joint5:0.000000,roll50
time:65.363344392;enci0:4991310,joint0:317.338928,roll00,enci1:-2685650,joint1:-90.054420,roll10,enci2:-641335,joint2:-179.978500,roll20,enci3:641290,joint3:-179.967499,roll30,enci4:-7,joint4:-0.007055,roll40,enci5:0,joint5:0.000000,roll50
time:65.364163211;enci0:4991310,joint0:317.338928,roll00,enci1:-2685650,joint1:-90.054420,roll10,enci2:-641335,joint2:-179.978500,roll20,enci3:641290,joint3:-179.967499,roll30,enci4:-7,joint4:-0.007055,roll40,enci5:0,joint5:0.000000,roll50
time:65.367341268;enci0:4991310,joint0:317.338928,roll00,enci1:-2685650,joint1:-90.054420,roll10,enci2:-641335,joint2:-179.978500,roll20,enci3:641290,joint3:-179.967499,roll30,enci4:-7,joint4:-0.007055,roll40,enci5:0,joint5:0.000000,roll50
time:65.368156734;enci0:4991310,joint0:317.338928,roll00,enci1:-2685650,joint1:-90.054420,roll10,enci2:-641335,joint2:-179.978500,roll20,enci3:641290,joint3:-179.967499,roll30,enci4:-7,joint4:-0.007055,roll40,enci5:0,joint5:0.000000,roll50
time:65.371341496;enci0:4991310,joint0:317.338928,roll00,enci1:-2685650,joint1:-90.054420,roll10,enci2:-641335,joint2:-179.978500,roll20,enci3:641290,joint3:-179.967499,roll30,enci4:-7,joint4:-0.007055,roll40,enci5:0,joint5:0.000000,roll50
time:65.372157801;enci0:4991310,joint0:317.338928,roll00,enci1:-2685650,joint1:-90.054420,roll10,enci2:-641335,joint2:-179.978500,roll20,enci3:641290,joint3:-179.967499,roll30,enci4:-7,joint4:-0.007055,roll40,enci5:0,joint5:0.000000,roll50
time:65.375340886;enci0:4991310,joint0:317.338928,roll00,enci1:-2685650,joint1:-90.054420,roll10,enci2:-641335,joint2:-179.978500,roll20,enci3:641290,joint3:-179.967499,roll30,enci4:-7,joint4:-0.007055,roll40,enci5:0,joint5:0.000000,roll50
time:65.376155514;enci0:4991310,joint0:317.338928,roll00,enci1:-2685650,joint1:-90.054420,roll10,enci2:-641335,joint2:-179.978500,roll20,enci3:641290,joint3:-179.967499,roll30,enci4:-7,joint4:-0.007055,roll40,enci5:0,joint5:0.000000,roll50
time:65.379342790;enci0:4991310,joint0:317.338928,roll00,enci1:-2685650,joint1:-90.054420,roll10,enci2:-641335,joint2:-179.978500,roll20,enci3:641290,joint3:-179.967499,roll30,enci4:-7,joint4:-0.007055,roll40,enci5:0,joint5:0.000000,roll50
time:65.380167476;enci0:4991310,joint0:317.338928,roll00,enci1:-2685650,joint1:-90.054420,roll10,enci2:-641335,joint2:-179.978500,roll20,enci3:641290,joint3:-179.967499,roll30,enci4:-7,joint4:-0.007055,roll40,enci5:0,joint5:0.000000,roll50
time:65.383339666;enci0:4991310,joint0:317.338928,roll00,enci1:-2685650,joint1:-90.054420,roll10,enci2:-641335,joint2:-179.978500,roll20,enci3:641290,joint3:-179.967499,roll30,enci4:-7,joint4:-0.007055,roll40,enci5:0,joint5:0.000000,roll50
time:65.384155132;enci0:4991310,joint0:317.338928,roll00,enci1:-2685650,joint1:-90.054420,roll10,enci2:-641335,joint2:-179.978500,roll20,enci3:641290,joint3:-179.967499,roll30,enci4:-7,joint4:-0.007055,roll40,enci5:0,joint5:0.000000,roll50
time:65.387340732;enci0:4991310,joint0:317.338928,roll00,enci1:-2685650,joint1:-90.054420,roll10,enci2:-641335,joint2:-179.978500,roll20,enci3:641290,joint3:-179.967499,roll30,enci4:-7,joint4:-0.007055,roll40,enci5:0,joint5:0.000000,roll50
time:65.388162065;enci0:4991310,joint0:317.338928,roll00,enci1:-2685650,joint1:-90.054420,roll10,enci2:-641335,joint2:-179.978500,roll20,enci3:641290,joint3:-179.967499,roll30,enci4:-7,joint4:-0.007055,roll40,enci5:0,joint5:0.000000,roll50
time:65.391339284;enci0:4991310,joint0:317.338928,roll00,enci1:-2685650,joint1:-90.054420,roll10,enci2:-641335,joint2:-179.978500,roll20,enci3:641290,joint3:-179.967499,roll30,enci4:-7,joint4:-0.007055,roll40,enci5:0,joint5:0.000000,roll50
time:65.392145531;enci0:4991310,joint0:317.338928,roll00,enci1:-2685650,joint1:-90.054420,roll10,enci2:-641335,joint2:-179.978500,roll20,enci3:641290,joint3:-179.967499,roll30,enci4:-7,joint4:-0.007055,roll40,enci5:0,joint5:0.000000,roll50
time:65.395340350;enci0:4991310,joint0:317.338928,roll00,enci1:-2685650,joint1:-90.054420,roll10,enci2:-641335,joint2:-179.978500,roll20,enci3:641290,joint3:-179.967499,roll30,enci4:-7,joint4:-0.007055,roll40,enci5:0,joint5:0.000000,roll50
time:65.396159169;enci0:4991310,joint0:317.338928,roll00,enci1:-2685650,joint1:-90.054420,roll10,enci2:-641335,joint2:-179.978500,roll20,enci3:641290,joint3:-179.967499,roll30,enci4:-7,joint4:-0.007055,roll40,enci5:0,joint5:0.000000,roll50
time:65.399340577;enci0:4991310,joint0:317.338928,roll00,enci1:-2685650,joint1:-90.054420,roll10,enci2:-641335,joint2:-179.978500,roll20,enci3:641290,joint3:-179.967499,roll30,enci4:-7,joint4:-0.007055,roll40,enci5:0,joint5:0.000000,roll50
time:65.400157719;enci0:4991310,joint0:317.338928,roll00,enci1:-2685650,joint1:-90.054420,roll10,enci2:-641335,joint2:-179.978500,roll20,enci3:641290,joint3:-179.967499,roll30,enci4:-7,joint4:-0.007055,roll40,enci5:0,joint5:0.000000,roll50
time:65.403338290;enci0:4991310,joint0:317.338928,roll00,enci1:-2685650,joint1:-90.054420,roll10,enci2:-641335,joint2:-179.978500,roll20,enci3:641290,joint3:-179.967499,roll30,enci4:-7,joint4:-0.007055,roll40,enci5:0,joint5:0.000000,roll50
time:65.404152919;enci0:4991310,joint0:317.338928,roll00,enci1:-2685650,joint1:-90.054420,roll10,enci2:-641335,joint2:-179.978500,roll20,enci3:641290,joint3:-179.967499,roll30,enci4:-7,joint4:-0.007055,roll40,enci5:0,joint5:0.000000,roll50
time:65.407340195;enci0:4991310,joint0:317.338928,roll00,enci1:-2685650,joint1:-90.054420,roll10,enci2:-641335,joint2:-179.978500,roll20,enci3:641290,joint3:-179.967499,roll30,enci4:-7,joint4:-0.007055,roll40,enci5:0,joint5:0.000000,roll50
time:65.408159013;enci0:4991310,joint0:317.338928,roll00,enci1:-2685650,joint1:-90.054420,roll10,enci2:-641335,joint2:-179.978500,roll20,enci3:641290,joint3:-179.967499,roll30,enci4:-7,joint4:-0.007055,roll40,enci5:0,joint5:0.000000,roll50
time:65.411339584;enci0:4991310,joint0:317.338928,roll00,enci1:-2685650,joint1:-90.054420,roll10,enci2:-641335,joint2:-179.978500,roll20,enci3:641290,joint3:-179.967499,roll30,enci4:-7,joint4:-0.007055,roll40,enci5:0,joint5:0.000000,roll50
time:65.412159241;enci0:4991310,joint0:317.338928,roll00,enci1:-2685650,joint1:-90.054420,roll10,enci2:-641335,joint2:-179.978500,roll20,enci3:641290,joint3:-179.967499,roll30,enci4:-7,joint4:-0.007055,roll40,enci5:0,joint5:0.000000,roll50
time:65.415339812;enci0:4991310,joint0:317.338928,roll00,enci1:-2685650,joint1:-90.054420,roll10,enci2:-641335,joint2:-179.978500,roll20,enci3:641290,joint3:-179.967499,roll30,enci4:-7,joint4:-0.007055,roll40,enci5:0,joint5:0.000000,roll50
time:65.416156117;enci0:4991310,joint0:317.338928,roll00,enci1:-2685650,joint1:-90.054420,roll10,enci2:-641335,joint2:-179.978500,roll20,enci3:641290,joint3:-179.967499,roll30,enci4:-7,joint4:-0.007055,roll40,enci5:0,joint5:0.000000,roll50
time:65.419339202;enci0:4991310,joint0:317.338928,roll00,enci1:-2685650,joint1:-90.054420,roll10,enci2:-641335,joint2:-179.978500,roll20,enci3:641290,joint3:-179.967499,roll30,enci4:-7,joint4:-0.007055,roll40,enci5:0,joint5:0.000000,roll50
time:65.420158859;enci0:4991310,joint0:317.338928,roll00,enci1:-2685650,joint1:-90.054420,roll10,enci2:-641335,joint2:-179.978500,roll20,enci3:641290,joint3:-179.967499,roll30,enci4:-7,joint4:-0.007055,roll40,enci5:0,joint5:0.000000,roll50
time:65.423340268;enci0:4991310,joint0:317.338928,roll00,enci1:-2685650,joint1:-90.054420,roll10,enci2:-641335,joint2:-179.978500,roll20,enci3:641290,joint3:-179.967499,roll30,enci4:-7,joint4:-0.007055,roll40,enci5:0,joint5:0.000000,roll50
time:65.424158249;enci0:4991310,joint0:317.338928,roll00,enci1:-2685650,joint1:-90.054420,roll10,enci2:-641335,joint2:-179.978500,roll20,enci3:641290,joint3:-179.967499,roll30,enci4:-7,joint4:-0.007055,roll40,enci5:0,joint5:0.000000,roll50
time:65.427339658;enci0:4991310,joint0:317.338928,roll00,enci1:-2685650,joint1:-90.054420,roll10,enci2:-641335,joint2:-179.978500,roll20,enci3:641290,joint3:-179.967499,roll30,enci4:-7,joint4:-0.007055,roll40,enci5:0,joint5:0.000000,roll50
time:65.428156801;enci0:4991310,joint0:317.338928,roll00,enci1:-2685650,joint1:-90.054420,roll10,enci2:-641335,joint2:-179.978500,roll20,enci3:641290,joint3:-179.967499,roll30,enci4:-7,joint4:-0.007055,roll40,enci5:0,joint5:0.000000,roll50
time:65.431339886;enci0:4991310,joint0:317.338928,roll00,enci1:-2685650,joint1:-90.054420,roll10,enci2:-641335,joint2:-179.978500,roll20,enci3:641290,joint3:-179.967499,roll30,enci4:-7,joint4:-0.007055,roll40,enci5:0,joint5:0.000000,roll50
time:65.432157029;enci0:4991310,joint0:317.338928,roll00,enci1:-2685650,joint1:-90.054420,roll10,enci2:-641335,joint2:-179.978500,roll20,enci3:641290,joint3:-179.967499,roll30,enci4:-7,joint4:-0.007055,roll40,enci5:0,joint5:0.000000,roll50
time:65.435339276;enci0:4991310,joint0:317.338928,roll00,enci1:-2685650,joint1:-90.054420,roll10,enci2:-641335,joint2:-179.978500,roll20,enci3:641290,joint3:-179.967499,roll30,enci4:-7,joint4:-0.007055,roll40,enci5:0,joint5:0.000000,roll50
time:65.436155581;enci0:4991310,joint0:317.338928,roll00,enci1:-2685650,joint1:-90.054420,roll10,enci2:-641335,joint2:-179.978500,roll20,enci3:641290,joint3:-179.967499,roll30,enci4:-7,joint4:-0.007055,roll40,enci5:0,joint5:0.000000,roll50
time:65.439338666;enci0:4991310,joint0:317.338928,roll00,enci1:-2685650,joint1:-90.054420,roll10,enci2:-641335,joint2:-179.978500,roll20,enci3:641290,joint3:-179.967499,roll30,enci4:-7,joint4:-0.007055,roll40,enci5:0,joint5:0.000000,roll50
time:65.440156647;enci0:4991310,joint0:317.338928,roll00,enci1:-2685650,joint1:-90.054420,roll10,enci2:-641335,joint2:-179.978500,roll20,enci3:641290,joint3:-179.967499,roll30,enci4:-7,joint4:-0.007055,roll40,enci5:0,joint5:0.000000,roll50
time:65.443341408;enci0:4991310,joint0:317.338928,roll00,enci1:-2685650,joint1:-90.054420,roll10,enci2:-641335,joint2:-179.978500,roll20,enci3:641290,joint3:-179.967499,roll30,enci4:-7,joint4:-0.007055,roll40,enci5:0,joint5:0.000000,roll50
time:65.444160227;enci0:4991310,joint0:317.338928,roll00,enci1:-2685650,joint1:-90.054420,roll10,enci2:-641335,joint2:-179.978500,roll20,enci3:641290,joint3:-179.967499,roll30,enci4:-7,joint4:-0.007055,roll40,enci5:0,joint5:0.000000,roll50
time:65.447338284;enci0:4991310,joint0:317.338928,roll00,enci1:-2685650,joint1:-90.054420,roll10,enci2:-641335,joint2:-179.978500,roll20,enci3:641290,joint3:-179.967499,roll30,enci4:-7,joint4:-0.007055,roll40,enci5:0,joint5:0.000000,roll50
time:65.448157103;enci0:4991310,joint0:317.338928,roll00,enci1:-2685650,joint1:-90.054420,roll10,enci2:-641335,joint2:-179.978500,roll20,enci3:641290,joint3:-179.967499,roll30,enci4:-7,joint4:-0.007055,roll40,enci5:0,joint5:0.000000,roll50
time:65.451338512;enci0:4991310,joint0:317.338928,roll00,enci1:-2685650,joint1:-90.054420,roll10,enci2:-641335,joint2:-179.978500,roll20,enci3:641290,joint3:-179.967499,roll30,enci4:-7,joint4:-0.007055,roll40,enci5:0,joint5:0.000000,roll50
time:65.452157331;enci0:4991310,joint0:317.338928,roll00,enci1:-2685650,joint1:-90.054420,roll10,enci2:-641335,joint2:-179.978500,roll20,enci3:641290,joint3:-179.967499,roll30,enci4:-7,joint4:-0.007055,roll40,enci5:0,joint5:0.000000,roll50
time:65.455338740;enci0:4991310,joint0:317.338928,roll00,enci1:-2685650,joint1:-90.054420,roll10,enci2:-641335,joint2:-179.978500,roll20,enci3:641290,joint3:-179.967499,roll30,enci4:-7,joint4:-0.007055,roll40,enci5:0,joint5:0.000000,roll50
time:65.456155045;enci0:4991310,joint0:317.338928,roll00,enci1:-2685650,joint1:-90.054420,roll10,enci2:-641335,joint2:-179.978500,roll20,enci3:641290,joint3:-179.967499,roll30,enci4:-7,joint4:-0.007055,roll40,enci5:0,joint5:0.000000,roll50
time:65.459338968;enci0:4991310,joint0:317.338928,roll00,enci1:-2685650,joint1:-90.054420,roll10,enci2:-641335,joint2:-179.978500,roll20,enci3:641290,joint3:-179.967499,roll30,enci4:-7,joint4:-0.007055,roll40,enci5:0,joint5:0.000000,roll50
time:65.460158625;enci0:4991310,joint0:317.338928,roll00,enci1:-2685650,joint1:-90.054420,roll10,enci2:-641335,joint2:-179.978500,roll20,enci3:641290,joint3:-179.967499,roll30,enci4:-7,joint4:-0.007055,roll40,enci5:0,joint5:0.000000,roll50
time:65.463336682;enci0:4991310,joint0:317.338928,roll00,enci1:-2685650,joint1:-90.054420,roll10,enci2:-641335,joint2:-179.978500,roll20,enci3:641290,joint3:-179.967499,roll30,enci4:-7,joint4:-0.007055,roll40,enci5:0,joint5:0.000000,roll50
time:65.464145444;enci0:4991310,joint0:317.338928,roll00,enci1:-2685650,joint1:-90.054420,roll10,enci2:-641335,joint2:-179.978500,roll20,enci3:641290,joint3:-179.967499,roll30,enci4:-7,joint4:-0.007055,roll40,enci5:0,joint5:0.000000,roll50
time:65.467335234;enci0:4991310,joint0:317.338928,roll00,enci1:-2685650,joint1:-90.054420,roll10,enci2:-641335,joint2:-179.978500,roll20,enci3:641290,joint3:-179.967499,roll30,enci4:-7,joint4:-0.007055,roll40,enci5:0,joint5:0.000000,roll50
time:65.468159081;enci0:4991310,joint0:317.338928,roll00,enci1:-2685650,joint1:-90.054420,roll10,enci2:-641335,joint2:-179.978500,roll20,enci3:641290,joint3:-179.967499,roll30,enci4:-7,joint4:-0.007055,roll40,enci5:0,joint5:0.000000,roll50
time:65.471337138;enci0:4991310,joint0:317.338928,roll00,enci1:-2685650,joint1:-90.054420,roll10,enci2:-641335,joint2:-179.978500,roll20,enci3:641290,joint3:-179.967499,roll30,enci4:-7,joint4:-0.007055,roll40,enci5:0,joint5:0.000000,roll50
time:65.472152604;enci0:4991310,joint0:317.338928,roll00,enci1:-2685650,joint1:-90.054420,roll10,enci2:-641335,joint2:-179.978500,roll20,enci3:641290,joint3:-179.967499,roll30,enci4:-7,joint4:-0.007055,roll40,enci5:0,joint5:0.000000,roll50
time:65.475337366;enci0:4991310,joint0:317.338928,roll00,enci1:-2685650,joint1:-90.054420,roll10,enci2:-641335,joint2:-179.978500,roll20,enci3:641290,joint3:-179.967499,roll30,enci4:-7,joint4:-0.007055,roll40,enci5:0,joint5:0.000000,roll50
time:65.476154508;enci0:4991310,joint0:317.338928,roll00,enci1:-2685650,joint1:-90.054420,roll10,enci2:-641335,joint2:-179.978500,roll20,enci3:641290,joint3:-179.967499,roll30,enci4:-7,joint4:-0.007055,roll40,enci5:0,joint5:0.000000,roll50
time:65.479336756;enci0:4991310,joint0:317.338928,roll00,enci1:-2685650,joint1:-90.054420,roll10,enci2:-641335,joint2:-179.978500,roll20,enci3:641290,joint3:-179.967499,roll30,enci4:-7,joint4:-0.007055,roll40,enci5:0,joint5:0.000000,roll50
time:65.480153898;enci0:4991310,joint0:317.338928,roll00,enci1:-2685650,joint1:-90.054420,roll10,enci2:-641335,joint2:-179.978500,roll20,enci3:641290,joint3:-179.967499,roll30,enci4:-7,joint4:-0.007055,roll40,enci5:0,joint5:0.000000,roll50
time:65.483337822;enci0:4991310,joint0:317.338928,roll00,enci1:-2685650,joint1:-90.054420,roll10,enci2:-641335,joint2:-179.978500,roll20,enci3:641290,joint3:-179.967499,roll30,enci4:-7,joint4:-0.007055,roll40,enci5:0,joint5:0.000000,roll50
time:65.484154964;enci0:4991310,joint0:317.338928,roll00,enci1:-2685650,joint1:-90.054420,roll10,enci2:-641335,joint2:-179.978500,roll20,enci3:641290,joint3:-179.967499,roll30,enci4:-7,joint4:-0.007055,roll40,enci5:0,joint5:0.000000,roll50
time:65.487341402;enci0:4991310,joint0:317.338928,roll00,enci1:-2685650,joint1:-90.054420,roll10,enci2:-641335,joint2:-179.978500,roll20,enci3:641290,joint3:-179.967499,roll30,enci4:-7,joint4:-0.007055,roll40,enci5:0,joint5:0.000000,roll50
time:65.488156031;enci0:4991310,joint0:317.338928,roll00,enci1:-2685650,joint1:-90.054420,roll10,enci2:-641335,joint2:-179.978500,roll20,enci3:641290,joint3:-179.967499,roll30,enci4:-7,joint4:-0.007055,roll40,enci5:0,joint5:0.000000,roll50
time:65.491335763;enci0:4991310,joint0:317.338928,roll00,enci1:-2685650,joint1:-90.054420,roll10,enci2:-641335,joint2:-179.978500,roll20,enci3:641290,joint3:-179.967499,roll30,enci4:-7,joint4:-0.007055,roll40,enci5:0,joint5:0.000000,roll50
time:65.492152906;enci0:4991310,joint0:317.338928,roll00,enci1:-2685650,joint1:-90.054420,roll10,enci2:-641335,joint2:-179.978500,roll20,enci3:641290,joint3:-179.967499,roll30,enci4:-7,joint4:-0.007055,roll40,enci5:0,joint5:0.000000,roll50
time:65.495335991;enci0:4991310,joint0:317.338928,roll00,enci1:-2685650,joint1:-90.054420,roll10,enci2:-641335,joint2:-179.978500,roll20,enci3:641290,joint3:-179.967499,roll30,enci4:-7,joint4:-0.007055,roll40,enci5:0,joint5:0.000000,roll50
time:65.496152296;enci0:4991310,joint0:317.338928,roll00,enci1:-2685650,joint1:-90.054420,roll10,enci2:-641335,joint2:-179.978500,roll20,enci3:641290,joint3:-179.967499,roll30,enci4:-7,joint4:-0.007055,roll40,enci5:0,joint5:0.000000,roll50
time:65.499337057;enci0:4991310,joint0:317.338928,roll00,enci1:-2685650,joint1:-90.054420,roll10,enci2:-641335,joint2:-179.978500,roll20,enci3:641290,joint3:-179.967499,roll30,enci4:-7,joint4:-0.007055,roll40,enci5:0,joint5:0.000000,roll50
time:65.500153361;enci0:4991310,joint0:317.338928,roll00,enci1:-2685650,joint1:-90.054420,roll10,enci2:-641335,joint2:-179.978500,roll20,enci3:641290,joint3:-179.967499,roll30,enci4:-7,joint4:-0.007055,roll40,enci5:0,joint5:0.000000,roll50
time:65.503334770;enci0:4991310,joint0:317.338928,roll00,enci1:-2685650,joint1:-90.054420,roll10,enci2:-641335,joint2:-179.978500,roll20,enci3:641290,joint3:-179.967499,roll30,enci4:-7,joint4:-0.007055,roll40,enci5:0,joint5:0.000000,roll50
time:65.504152751;enci0:4991310,joint0:317.338928,roll00,enci1:-2685650,joint1:-90.054420,roll10,enci2:-641335,joint2:-179.978500,roll20,enci3:641290,joint3:-179.967499,roll30,enci4:-7,joint4:-0.007055,roll40,enci5:0,joint5:0.000000,roll50
time:65.507336674;enci0:4991310,joint0:317.338928,roll00,enci1:-2685650,joint1:-90.054420,roll10,enci2:-641335,joint2:-179.978500,roll20,enci3:641290,joint3:-179.967499,roll30,enci4:-7,joint4:-0.007055,roll40,enci5:0,joint5:0.000000,roll50
time:65.508152141;enci0:4991310,joint0:317.338928,roll00,enci1:-2685650,joint1:-90.054420,roll10,enci2:-641335,joint2:-179.978500,roll20,enci3:641290,joint3:-179.967499,roll30,enci4:-7,joint4:-0.007055,roll40,enci5:0,joint5:0.000000,roll50
time:65.511333550;enci0:4991310,joint0:317.338928,roll00,enci1:-2685650,joint1:-90.054420,roll10,enci2:-641335,joint2:-179.978500,roll20,enci3:641290,joint3:-179.967499,roll30,enci4:-7,joint4:-0.007055,roll40,enci5:0,joint5:0.000000,roll50
time:65.512139798;enci0:4991310,joint0:317.338928,roll00,enci1:-2685650,joint1:-90.054420,roll10,enci2:-641335,joint2:-179.978500,roll20,enci3:641290,joint3:-179.967499,roll30,enci4:-7,joint4:-0.007055,roll40,enci5:0,joint5:0.000000,roll50
time:65.515335454;enci0:4991310,joint0:317.338928,roll00,enci1:-2685650,joint1:-90.054420,roll10,enci2:-641335,joint2:-179.978500,roll20,enci3:641290,joint3:-179.967499,roll30,enci4:-7,joint4:-0.007055,roll40,enci5:0,joint5:0.000000,roll50
time:65.516152597;enci0:4991310,joint0:317.338928,roll00,enci1:-2685650,joint1:-90.054420,roll10,enci2:-641335,joint2:-179.978500,roll20,enci3:641290,joint3:-179.967499,roll30,enci4:-7,joint4:-0.007055,roll40,enci5:0,joint5:0.000000,roll50
time:65.519337358;enci0:4991310,joint0:317.338928,roll00,enci1:-2685650,joint1:-90.054420,roll10,enci2:-641335,joint2:-179.978500,roll20,enci3:641290,joint3:-179.967499,roll30,enci4:-7,joint4:-0.007055,roll40,enci5:0,joint5:0.000000,roll50
time:65.520154501;enci0:4991310,joint0:317.338928,roll00,enci1:-2685650,joint1:-90.054420,roll10,enci2:-641335,joint2:-179.978500,roll20,enci3:641290,joint3:-179.967499,roll30,enci4:-7,joint4:-0.007055,roll40,enci5:0,joint5:0.000000,roll50
time:65.523335072;enci0:4991310,joint0:317.338928,roll00,enci1:-2685650,joint1:-90.054420,roll10,enci2:-641335,joint2:-179.978500,roll20,enci3:641290,joint3:-179.967499,roll30,enci4:-7,joint4:-0.007055,roll40,enci5:0,joint5:0.000000,roll50
time:65.524156405;enci0:4991310,joint0:317.338928,roll00,enci1:-2685650,joint1:-90.054420,roll10,enci2:-641335,joint2:-179.978500,roll20,enci3:641290,joint3:-179.967499,roll30,enci4:-7,joint4:-0.007055,roll40,enci5:0,joint5:0.000000,roll50
time:65.527335300;enci0:4991310,joint0:317.338928,roll00,enci1:-2685650,joint1:-90.054420,roll10,enci2:-641335,joint2:-179.978500,roll20,enci3:641290,joint3:-179.967499,roll30,enci4:-7,joint4:-0.007055,roll40,enci5:0,joint5:0.000000,roll50
time:65.528152443;enci0:4991310,joint0:317.338928,roll00,enci1:-2685650,joint1:-90.054420,roll10,enci2:-641335,joint2:-179.978500,roll20,enci3:641290,joint3:-179.967499,roll30,enci4:-7,joint4:-0.007055,roll40,enci5:0,joint5:0.000000,roll50
time:65.531334690;enci0:4991310,joint0:317.338928,roll00,enci1:-2685650,joint1:-90.054420,roll10,enci2:-641335,joint2:-179.978500,roll20,enci3:641290,joint3:-179.967499,roll30,enci4:-7,joint4:-0.007055,roll40,enci5:0,joint5:0.000000,roll50
time:65.532151833;enci0:4991310,joint0:317.338928,roll00,enci1:-2685650,joint1:-90.054420,roll10,enci2:-641335,joint2:-179.978500,roll20,enci3:641290,joint3:-179.967499,roll30,enci4:-7,joint4:-0.007055,roll40,enci5:0,joint5:0.000000,roll50
time:65.535334080;enci0:4991310,joint0:317.338928,roll00,enci1:-2685650,joint1:-90.054420,roll10,enci2:-641335,joint2:-179.978500,roll20,enci3:641290,joint3:-179.967499,roll30,enci4:-7,joint4:-0.007055,roll40,enci5:0,joint5:0.000000,roll50
time:65.536150385;enci0:4991310,joint0:317.338928,roll00,enci1:-2685650,joint1:-90.054420,roll10,enci2:-641335,joint2:-179.978500,roll20,enci3:641290,joint3:-179.967499,roll30,enci4:-7,joint4:-0.007055,roll40,enci5:0,joint5:0.000000,roll50
time:65.539334308;enci0:4991310,joint0:317.338928,roll00,enci1:-2685650,joint1:-90.054420,roll10,enci2:-641335,joint2:-179.978500,roll20,enci3:641290,joint3:-179.967499,roll30,enci4:-7,joint4:-0.007055,roll40,enci5:0,joint5:0.000000,roll50
time:65.540150613;enci0:4991310,joint0:317.338928,roll00,enci1:-2685650,joint1:-90.054420,roll10,enci2:-641335,joint2:-179.978500,roll20,enci3:641290,joint3:-179.967499,roll30,enci4:-7,joint4:-0.007055,roll40,enci5:0,joint5:0.000000,roll50
time:65.543336212;enci0:4991310,joint0:317.338928,roll00,enci1:-2685650,joint1:-90.054420,roll10,enci2:-641335,joint2:-179.978500,roll20,enci3:641290,joint3:-179.967499,roll30,enci4:-7,joint4:-0.007055,roll40,enci5:0,joint5:0.000000,roll50
time:65.544160060;enci0:4991310,joint0:317.338928,roll00,enci1:-2685650,joint1:-90.054420,roll10,enci2:-641335,joint2:-179.978500,roll20,enci3:641290,joint3:-179.967499,roll30,enci4:-7,joint4:-0.007055,roll40,enci5:0,joint5:0.000000,roll50
time:65.547329735;enci0:4991310,joint0:317.338928,roll00,enci1:-2685650,joint1:-90.054420,roll10,enci2:-641335,joint2:-179.978500,roll20,enci3:641290,joint3:-179.967499,roll30,enci4:-7,joint4:-0.007055,roll40,enci5:0,joint5:0.000000,roll50
time:65.548148554;enci0:4991310,joint0:317.338928,roll00,enci1:-2685650,joint1:-90.054420,roll10,enci2:-641335,joint2:-179.978500,roll20,enci3:641290,joint3:-179.967499,roll30,enci4:-7,joint4:-0.007055,roll40,enci5:0,joint5:0.000000,roll50
time:65.551338344;enci0:4991310,joint0:317.338928,roll00,enci1:-2685650,joint1:-90.054420,roll10,enci2:-641335,joint2:-179.978500,roll20,enci3:641290,joint3:-179.967499,roll30,enci4:-7,joint4:-0.007055,roll40,enci5:0,joint5:0.000000,roll50
time:65.552156325;enci0:4991310,joint0:317.338928,roll00,enci1:-2685650,joint1:-90.054420,roll10,enci2:-641335,joint2:-179.978500,roll20,enci3:641290,joint3:-179.967499,roll30,enci4:-7,joint4:-0.007055,roll40,enci5:0,joint5:0.000000,roll50
time:65.555333544;enci0:4991310,joint0:317.338928,roll00,enci1:-2685650,joint1:-90.054420,roll10,enci2:-641335,joint2:-179.978500,roll20,enci3:641290,joint3:-179.967499,roll30,enci4:-7,joint4:-0.007055,roll40,enci5:0,joint5:0.000000,roll50
time:65.556152363;enci0:4991310,joint0:317.338928,roll00,enci1:-2685650,joint1:-90.054420,roll10,enci2:-641335,joint2:-179.978500,roll20,enci3:641290,joint3:-179.967499,roll30,enci4:-7,joint4:-0.007055,roll40,enci5:0,joint5:0.000000,roll50
time:65.559332096;enci0:4991310,joint0:317.338928,roll00,enci1:-2685650,joint1:-90.054420,roll10,enci2:-641335,joint2:-179.978500,roll20,enci3:641290,joint3:-179.967499,roll30,enci4:-7,joint4:-0.007055,roll40,enci5:0,joint5:0.000000,roll50
time:65.560148400;enci0:4991310,joint0:317.338928,roll00,enci1:-2685650,joint1:-90.054420,roll10,enci2:-641335,joint2:-179.978500,roll20,enci3:641290,joint3:-179.967499,roll30,enci4:-7,joint4:-0.007055,roll40,enci5:0,joint5:0.000000,roll50
time:65.563332324;enci0:4991310,joint0:317.338928,roll00,enci1:-2685650,joint1:-90.054420,roll10,enci2:-641335,joint2:-179.978500,roll20,enci3:641290,joint3:-179.967499,roll30,enci4:-7,joint4:-0.007055,roll40,enci5:0,joint5:0.000000,roll50
time:65.564151981;enci0:4991310,joint0:317.338928,roll00,enci1:-2685650,joint1:-90.054420,roll10,enci2:-641335,joint2:-179.978500,roll20,enci3:641290,joint3:-179.967499,roll30,enci4:-7,joint4:-0.007055,roll40,enci5:0,joint5:0.000000,roll50
time:65.567333390;enci0:4991310,joint0:317.338928,roll00,enci1:-2685650,joint1:-90.054420,roll10,enci2:-641335,joint2:-179.978500,roll20,enci3:641290,joint3:-179.967499,roll30,enci4:-7,joint4:-0.007055,roll40,enci5:0,joint5:0.000000,roll50
time:65.568149694;enci0:4991310,joint0:317.338928,roll00,enci1:-2685650,joint1:-90.054420,roll10,enci2:-641335,joint2:-179.978500,roll20,enci3:641290,joint3:-179.967499,roll30,enci4:-7,joint4:-0.007055,roll40,enci5:0,joint5:0.000000,roll50
time:65.571331103;enci0:4991310,joint0:317.338928,roll00,enci1:-2685650,joint1:-90.054420,roll10,enci2:-641335,joint2:-179.978500,roll20,enci3:641290,joint3:-179.967499,roll30,enci4:-7,joint4:-0.007055,roll40,enci5:0,joint5:0.000000,roll50
time:65.572136513;enci0:4991310,joint0:317.338928,roll00,enci1:-2685650,joint1:-90.054420,roll10,enci2:-641335,joint2:-179.978500,roll20,enci3:641290,joint3:-179.967499,roll30,enci4:-7,joint4:-0.007055,roll40,enci5:0,joint5:0.000000,roll50
time:65.575333008;enci0:4991310,joint0:317.338928,roll00,enci1:-2685650,joint1:-90.054420,roll10,enci2:-641335,joint2:-179.978500,roll20,enci3:641290,joint3:-179.967499,roll30,enci4:-7,joint4:-0.007055,roll40,enci5:0,joint5:0.000000,roll50
time:65.576150988;enci0:4991310,joint0:317.338928,roll00,enci1:-2685650,joint1:-90.054420,roll10,enci2:-641335,joint2:-179.978500,roll20,enci3:641289,joint3:-179.967255,roll30,enci4:-7,joint4:-0.007055,roll40,enci5:0,joint5:0.000000,roll50
time:65.579331559;enci0:4991310,joint0:317.338928,roll00,enci1:-2685650,joint1:-90.054420,roll10,enci2:-641335,joint2:-179.978500,roll20,enci3:641289,joint3:-179.967255,roll30,enci4:-7,joint4:-0.007055,roll40,enci5:0,joint5:0.000000,roll50
time:65.580151216;enci0:4991310,joint0:317.338928,roll00,enci1:-2685650,joint1:-90.054420,roll10,enci2:-641335,joint2:-179.978500,roll20,enci3:641290,joint3:-179.967499,roll30,enci4:-7,joint4:-0.007055,roll40,enci5:0,joint5:0.000000,roll50
time:65.583332626;enci0:4991310,joint0:317.338928,roll00,enci1:-2685650,joint1:-90.054420,roll10,enci2:-641335,joint2:-179.978500,roll20,enci3:641290,joint3:-179.967499,roll30,enci4:-7,joint4:-0.007055,roll40,enci5:0,joint5:0.000000,roll50
time:65.584150606;enci0:4991310,joint0:317.338928,roll00,enci1:-2685650,joint1:-90.054420,roll10,enci2:-641335,joint2:-179.978500,roll20,enci3:641290,joint3:-179.967499,roll30,enci4:-7,joint4:-0.007055,roll40,enci5:0,joint5:0.000000,roll50
time:65.587332015;enci0:4991310,joint0:317.338928,roll00,enci1:-2685650,joint1:-90.054420,roll10,enci2:-641335,joint2:-179.978500,roll20,enci3:641290,joint3:-179.967499,roll30,enci4:-7,joint4:-0.007055,roll40,enci5:0,joint5:0.000000,roll50
time:65.588147482;enci0:4991310,joint0:317.338928,roll00,enci1:-2685650,joint1:-90.054420,roll10,enci2:-641335,joint2:-179.978500,roll20,enci3:641289,joint3:-179.967255,roll30,enci4:-7,joint4:-0.007055,roll40,enci5:0,joint5:0.000000,roll50
time:65.591330567;enci0:4991310,joint0:317.338928,roll00,enci1:-2685650,joint1:-90.054420,roll10,enci2:-641335,joint2:-179.978500,roll20,enci3:641289,joint3:-179.967255,roll30,enci4:-7,joint4:-0.007055,roll40,enci5:0,joint5:0.000000,roll50
time:65.592135139;enci0:4991310,joint0:317.338928,roll00,enci1:-2685650,joint1:-90.054420,roll10,enci2:-641335,joint2:-179.978500,roll20,enci3:641290,joint3:-179.967499,roll30,enci4:-7,joint4:-0.007055,roll40,enci5:0,joint5:0.000000,roll50
time:65.595332471;enci0:4991310,joint0:317.338928,roll00,enci1:-2685650,joint1:-90.054420,roll10,enci2:-641335,joint2:-179.978500,roll20,enci3:641290,joint3:-179.967499,roll30,enci4:-7,joint4:-0.007055,roll40,enci5:0,joint5:0.000000,roll50
time:65.596149614;enci0:4991310,joint0:317.338928,roll00,enci1:-2685650,joint1:-90.054420,roll10,enci2:-641335,joint2:-179.978500,roll20,enci3:641290,joint3:-179.967499,roll30,enci4:-7,joint4:-0.007055,roll40,enci5:0,joint5:0.000000,roll50
time:65.599330185;enci0:4991310,joint0:317.338928,roll00,enci1:-2685650,joint1:-90.054420,roll10,enci2:-641335,joint2:-179.978500,roll20,enci3:641290,joint3:-179.967499,roll30,enci4:-7,joint4:-0.007055,roll40,enci5:0,joint5:0.000000,roll50
time:65.600145652;enci0:4991310,joint0:317.338928,roll00,enci1:-2685650,joint1:-90.054420,roll10,enci2:-641335,joint2:-179.978500,roll20,enci3:641290,joint3:-179.967499,roll30,enci4:-7,joint4:-0.007055,roll40,enci5:0,joint5:0.000000,roll50
time:65.603332088;enci0:4991310,joint0:317.338928,roll00,enci1:-2685650,joint1:-90.054420,roll10,enci2:-641335,joint2:-179.978500,roll20,enci3:641290,joint3:-179.967499,roll30,enci4:-7,joint4:-0.007055,roll40,enci5:0,joint5:0.000000,roll50
time:65.604150069;enci0:4991310,joint0:317.338928,roll00,enci1:-2685650,joint1:-90.054420,roll10,enci2:-641335,joint2:-179.978500,roll20,enci3:641290,joint3:-179.967499,roll30,enci4:-7,joint4:-0.007055,roll40,enci5:0,joint5:0.000000,roll50
time:65.607329802;enci0:4991310,joint0:317.338928,roll00,enci1:-2685650,joint1:-90.054420,roll10,enci2:-641335,joint2:-179.978500,roll20,enci3:641290,joint3:-179.967499,roll30,enci4:-7,joint4:-0.007055,roll40,enci5:0,joint5:0.000000,roll50
time:65.608136050;enci0:4991310,joint0:317.338928,roll00,enci1:-2685650,joint1:-90.054420,roll10,enci2:-641335,joint2:-179.978500,roll20,enci3:641290,joint3:-179.967499,roll30,enci4:-7,joint4:-0.007055,roll40,enci5:0,joint5:0.000000,roll50
time:65.611332544;enci0:4991310,joint0:317.338928,roll00,enci1:-2685650,joint1:-90.054420,roll10,enci2:-641335,joint2:-179.978500,roll20,enci3:641290,joint3:-179.967499,roll30,enci4:-7,joint4:-0.007055,roll40,enci5:0,joint5:0.000000,roll50
time:65.612150525;enci0:4991310,joint0:317.338928,roll00,enci1:-2685650,joint1:-90.054420,roll10,enci2:-641335,joint2:-179.978500,roll20,enci3:641289,joint3:-179.967255,roll30,enci4:-7,joint4:-0.007055,roll40,enci5:0,joint5:0.000000,roll50
time:65.615331096;enci0:4991310,joint0:317.338928,roll00,enci1:-2685650,joint1:-90.054420,roll10,enci2:-641335,joint2:-179.978500,roll20,enci3:641289,joint3:-179.967255,roll30,enci4:-7,joint4:-0.007055,roll40,enci5:0,joint5:0.000000,roll50
time:65.616147401;enci0:4991310,joint0:317.338928,roll00,enci1:-2685650,joint1:-90.054420,roll10,enci2:-641335,joint2:-179.978500,roll20,enci3:641290,joint3:-179.967499,roll30,enci4:-7,joint4:-0.007055,roll40,enci5:0,joint5:0.000000,roll50
time:65.619330486;enci0:4991310,joint0:317.338928,roll00,enci1:-2685650,joint1:-90.054420,roll10,enci2:-641335,joint2:-179.978500,roll20,enci3:641290,joint3:-179.967499,roll30,enci4:-7,joint4:-0.007055,roll40,enci5:0,joint5:0.000000,roll50
time:65.620143438;enci0:4991310,joint0:317.338928,roll00,enci1:-2685650,joint1:-90.054420,roll10,enci2:-641335,joint2:-179.978500,roll20,enci3:641290,joint3:-179.967499,roll30,enci4:-7,joint4:-0.007055,roll40,enci5:0,joint5:0.000000,roll50
time:65.623339933;enci0:4991310,joint0:317.338928,roll00,enci1:-2685650,joint1:-90.054420,roll10,enci2:-641335,joint2:-179.978500,roll20,enci3:641290,joint3:-179.967499,roll30,enci4:-7,joint4:-0.007055,roll40,enci5:0,joint5:0.000000,roll50
time:65.624157076;enci0:4991310,joint0:317.338928,roll00,enci1:-2685650,joint1:-90.054420,roll10,enci2:-641335,joint2:-179.978500,roll20,enci3:641290,joint3:-179.967499,roll30,enci4:-7,joint4:-0.007055,roll40,enci5:0,joint5:0.000000,roll50
time:65.627329266;enci0:4991310,joint0:317.338928,roll00,enci1:-2685650,joint1:-90.054420,roll10,enci2:-641335,joint2:-179.978500,roll20,enci3:641290,joint3:-179.967499,roll30,enci4:-7,joint4:-0.007055,roll40,enci5:0,joint5:0.000000,roll50
time:65.628151437;enci0:4991310,joint0:317.338928,roll00,enci1:-2685650,joint1:-90.054420,roll10,enci2:-641335,joint2:-179.978500,roll20,enci3:641290,joint3:-179.967499,roll30,enci4:-7,joint4:-0.007055,roll40,enci5:0,joint5:0.000000,roll50
time:65.631329494;enci0:4991310,joint0:317.338928,roll00,enci1:-2685650,joint1:-90.054420,roll10,enci2:-641335,joint2:-179.978500,roll20,enci3:641290,joint3:-179.967499,roll30,enci4:-7,joint4:-0.007055,roll40,enci5:0,joint5:0.000000,roll50
time:65.632135741;enci0:4991310,joint0:317.338928,roll00,enci1:-2685650,joint1:-90.054420,roll10,enci2:-641335,joint2:-179.978500,roll20,enci3:641290,joint3:-179.967499,roll30,enci4:-7,joint4:-0.007055,roll40,enci5:0,joint5:0.000000,roll50
time:65.635330560;enci0:4991310,joint0:317.338928,roll00,enci1:-2685650,joint1:-90.054420,roll10,enci2:-641335,joint2:-179.978500,roll20,enci3:641290,joint3:-179.967499,roll30,enci4:-7,joint4:-0.007055,roll40,enci5:0,joint5:0.000000,roll50
time:65.636149379;enci0:4991310,joint0:317.338928,roll00,enci1:-2685650,joint1:-90.054420,roll10,enci2:-641335,joint2:-179.978500,roll20,enci3:641289,joint3:-179.967255,roll30,enci4:-7,joint4:-0.007055,roll40,enci5:0,joint5:0.000000,roll50
time:65.639330788;enci0:4991310,joint0:317.338928,roll00,enci1:-2685650,joint1:-90.054420,roll10,enci2:-641335,joint2:-179.978500,roll20,enci3:641289,joint3:-179.967255,roll30,enci4:-7,joint4:-0.007055,roll40,enci5:0,joint5:0.000000,roll50
time:65.640148769;enci0:4991310,joint0:317.338928,roll00,enci1:-2685650,joint1:-90.054420,roll10,enci2:-641335,joint2:-179.978500,roll20,enci3:641290,joint3:-179.967499,roll30,enci4:-7,joint4:-0.007055,roll40,enci5:0,joint5:0.000000,roll50
time:65.643331016;enci0:4991310,joint0:317.338928,roll00,enci1:-2685650,joint1:-90.054420,roll10,enci2:-641335,joint2:-179.978500,roll20,enci3:641290,joint3:-179.967499,roll30,enci4:-7,joint4:-0.007055,roll40,enci5:0,joint5:0.000000,roll50
time:65.644149835;enci0:4991310,joint0:317.338928,roll00,enci1:-2685650,joint1:-90.054420,roll10,enci2:-641335,joint2:-179.978500,roll20,enci3:641290,joint3:-179.967499,roll30,enci4:-7,joint4:-0.007055,roll40,enci5:0,joint5:0.000000,roll50
time:65.647328730;enci0:4991310,joint0:317.338928,roll00,enci1:-2685650,joint1:-90.054420,roll10,enci2:-641335,joint2:-179.978500,roll20,enci3:641290,joint3:-179.967499,roll30,enci4:-7,joint4:-0.007055,roll40,enci5:0,joint5:0.000000,roll50
time:65.648144196;enci0:4991310,joint0:317.338928,roll00,enci1:-2685650,joint1:-90.054420,roll10,enci2:-641335,joint2:-179.978500,roll20,enci3:641289,joint3:-179.967255,roll30,enci4:-7,joint4:-0.007055,roll40,enci5:0,joint5:0.000000,roll50
time:65.651330634;enci0:4991310,joint0:317.338928,roll00,enci1:-2685650,joint1:-90.054420,roll10,enci2:-641335,joint2:-179.978500,roll20,enci3:641289,joint3:-179.967255,roll30,enci4:-7,joint4:-0.007055,roll40,enci5:0,joint5:0.000000,roll50
time:65.652147777;enci0:4991310,joint0:317.338928,roll00,enci1:-2685650,joint1:-90.054420,roll10,enci2:-641335,joint2:-179.978500,roll20,enci3:641290,joint3:-179.967499,roll30,enci4:-7,joint4:-0.007055,roll40,enci5:0,joint5:0.000000,roll50
time:65.655329186;enci0:4991310,joint0:317.338928,roll00,enci1:-2685650,joint1:-90.054420,roll10,enci2:-641335,joint2:-179.978500,roll20,enci3:641290,joint3:-179.967499,roll30,enci4:-7,joint4:-0.007055,roll40,enci5:0,joint5:0.000000,roll50
time:65.656144652;enci0:4991310,joint0:317.338928,roll00,enci1:-2685650,joint1:-90.054420,roll10,enci2:-641335,joint2:-179.978500,roll20,enci3:641290,joint3:-179.967499,roll30,enci4:-7,joint4:-0.007055,roll40,enci5:0,joint5:0.000000,roll50
time:65.659328576;enci0:4991310,joint0:317.338928,roll00,enci1:-2685650,joint1:-90.054420,roll10,enci2:-641335,joint2:-179.978500,roll20,enci3:641290,joint3:-179.967499,roll30,enci4:-7,joint4:-0.007055,roll40,enci5:0,joint5:0.000000,roll50
time:65.660141528;enci0:4991310,joint0:317.338928,roll00,enci1:-2685650,joint1:-90.054420,roll10,enci2:-641335,joint2:-179.978500,roll20,enci3:641289,joint3:-179.967255,roll30,enci4:-7,joint4:-0.007055,roll40,enci5:0,joint5:0.000000,roll50
time:65.663328804;enci0:4991310,joint0:317.338928,roll00,enci1:-2685650,joint1:-90.054420,roll10,enci2:-641335,joint2:-179.978500,roll20,enci3:641289,joint3:-179.967255,roll30,enci4:-7,joint4:-0.007055,roll40,enci5:0,joint5:0.000000,roll50
time:65.664143432;enci0:4991310,joint0:317.338928,roll00,enci1:-2685650,joint1:-90.054420,roll10,enci2:-641335,joint2:-179.978500,roll20,enci3:641290,joint3:-179.967499,roll30,enci4:-7,joint4:-0.007055,roll40,enci5:0,joint5:0.000000,roll50
time:65.667327355;enci0:4991310,joint0:317.338928,roll00,enci1:-2685650,joint1:-90.054420,roll10,enci2:-641335,joint2:-179.978500,roll20,enci3:641290,joint3:-179.967499,roll30,enci4:-7,joint4:-0.007055,roll40,enci5:0,joint5:0.000000,roll50
time:65.668131089;enci0:4991310,joint0:317.338928,roll00,enci1:-2685650,joint1:-90.054420,roll10,enci2:-641335,joint2:-179.978500,roll20,enci3:641290,joint3:-179.967499,roll30,enci4:-7,joint4:-0.007055,roll40,enci5:0,joint5:0.000000,roll50
time:65.671328421;enci0:4991310,joint0:317.338928,roll00,enci1:-2685650,joint1:-90.054420,roll10,enci2:-641335,joint2:-179.978500,roll20,enci3:641290,joint3:-179.967499,roll30,enci4:-7,joint4:-0.007055,roll40,enci5:0,joint5:0.000000,roll50
time:65.672147240;enci0:4991310,joint0:317.338928,roll00,enci1:-2685650,joint1:-90.054420,roll10,enci2:-641335,joint2:-179.978500,roll20,enci3:641289,joint3:-179.967255,roll30,enci4:-7,joint4:-0.007055,roll40,enci5:0,joint5:0.000000,roll50
time:65.675328649;enci0:4991310,joint0:317.338928,roll00,enci1:-2685650,joint1:-90.054420,roll10,enci2:-641335,joint2:-179.978500,roll20,enci3:641289,joint3:-179.967255,roll30,enci4:-7,joint4:-0.007055,roll40,enci5:0,joint5:0.000000,roll50
time:65.676143278;enci0:4991310,joint0:317.338928,roll00,enci1:-2685650,joint1:-90.054420,roll10,enci2:-641335,joint2:-179.978500,roll20,enci3:641290,joint3:-179.967499,roll30,enci4:-7,joint4:-0.007055,roll40,enci5:0,joint5:0.000000,roll50
time:65.679326363;enci0:4991310,joint0:317.338928,roll00,enci1:-2685650,joint1:-90.054420,roll10,enci2:-641335,joint2:-179.978500,roll20,enci3:641290,joint3:-179.967499,roll30,enci4:-7,joint4:-0.007055,roll40,enci5:0,joint5:0.000000,roll50
time:65.680140992;enci0:4991310,joint0:317.338928,roll00,enci1:-2685650,joint1:-90.054420,roll10,enci2:-641335,joint2:-179.978500,roll20,enci3:641290,joint3:-179.967499,roll30,enci4:-7,joint4:-0.007055,roll40,enci5:0,joint5:0.000000,roll50
time:65.683328267;enci0:4991310,joint0:317.338928,roll00,enci1:-2685650,joint1:-90.054420,roll10,enci2:-641335,joint2:-179.978500,roll20,enci3:641290,joint3:-179.967499,roll30,enci4:-7,joint4:-0.007055,roll40,enci5:0,joint5:0.000000,roll50
time:65.684147086;enci0:4991310,joint0:317.338928,roll00,enci1:-2685650,joint1:-90.054420,roll10,enci2:-641335,joint2:-179.978500,roll20,enci3:641290,joint3:-179.967499,roll30,enci4:-7,joint4:-0.007055,roll40,enci5:0,joint5:0.000000,roll50
time:65.687326819;enci0:4991310,joint0:317.338928,roll00,enci1:-2685650,joint1:-90.054420,roll10,enci2:-641335,joint2:-179.978500,roll20,enci3:641290,joint3:-179.967499,roll30,enci4:-7,joint4:-0.007055,roll40,enci5:0,joint5:0.000000,roll50
time:65.688132229;enci0:4991310,joint0:317.338928,roll00,enci1:-2685650,joint1:-90.054420,roll10,enci2:-641335,joint2:-179.978500,roll20,enci3:641290,joint3:-179.967499,roll30,enci4:-7,joint4:-0.007055,roll40,enci5:0,joint5:0.000000,roll50
time:65.691327885;enci0:4991310,joint0:317.338928,roll00,enci1:-2685650,joint1:-90.054420,roll10,enci2:-641335,joint2:-179.978500,roll20,enci3:641290,joint3:-179.967499,roll30,enci4:-7,joint4:-0.007055,roll40,enci5:0,joint5:0.000000,roll50
time:65.692145866;enci0:4991310,joint0:317.338928,roll00,enci1:-2685650,joint1:-90.054420,roll10,enci2:-641335,joint2:-179.978500,roll20,enci3:641290,joint3:-179.967499,roll30,enci4:-7,joint4:-0.007055,roll40,enci5:0,joint5:0.000000,roll50
time:65.695327275;enci0:4991310,joint0:317.338928,roll00,enci1:-2685650,joint1:-90.054420,roll10,enci2:-641335,joint2:-179.978500,roll20,enci3:641290,joint3:-179.967499,roll30,enci4:-7,joint4:-0.007055,roll40,enci5:0,joint5:0.000000,roll50
time:65.696143580;enci0:4991310,joint0:317.338928,roll00,enci1:-2685650,joint1:-90.054420,roll10,enci2:-641335,joint2:-179.978500,roll20,enci3:641289,joint3:-179.967255,roll30,enci4:-7,joint4:-0.007055,roll40,enci5:0,joint5:0.000000,roll50
time:65.699325826;enci0:4991310,joint0:317.338928,roll00,enci1:-2685650,joint1:-90.054420,roll10,enci2:-641335,joint2:-179.978500,roll20,enci3:641289,joint3:-179.967255,roll30,enci4:-7,joint4:-0.007055,roll40,enci5:0,joint5:0.000000,roll50
time:65.700140454;enci0:4991310,joint0:317.338928,roll00,enci1:-2685650,joint1:-90.054420,roll10,enci2:-641335,joint2:-179.978500,roll20,enci3:641290,joint3:-179.967499,roll30,enci4:-7,joint4:-0.007055,roll40,enci5:0,joint5:0.000000,roll50
time:65.703326892;enci0:4991310,joint0:317.338928,roll00,enci1:-2685650,joint1:-90.054420,roll10,enci2:-641335,joint2:-179.978500,roll20,enci3:641290,joint3:-179.967499,roll30,enci4:-7,joint4:-0.007055,roll40,enci5:0,joint5:0.000000,roll50
time:65.704144035;enci0:4991310,joint0:317.338928,roll00,enci1:-2685650,joint1:-90.054420,roll10,enci2:-641335,joint2:-179.978500,roll20,enci3:641290,joint3:-179.967499,roll30,enci4:-7,joint4:-0.007055,roll40,enci5:0,joint5:0.000000,roll50
time:65.707323768;enci0:4991310,joint0:317.338928,roll00,enci1:-2685650,joint1:-90.054420,roll10,enci2:-641335,joint2:-179.978500,roll20,enci3:641290,joint3:-179.967499,roll30,enci4:-7,joint4:-0.007055,roll40,enci5:0,joint5:0.000000,roll50
time:65.708134206;enci0:4991310,joint0:317.338928,roll00,enci1:-2685650,joint1:-90.054420,roll10,enci2:-641335,joint2:-179.978500,roll20,enci3:641289,joint3:-179.967255,roll30,enci4:-7,joint4:-0.007055,roll40,enci5:0,joint5:0.000000,roll50
time:65.711325672;enci0:4991310,joint0:317.338928,roll00,enci1:-2685650,joint1:-90.054420,roll10,enci2:-641335,joint2:-179.978500,roll20,enci3:641289,joint3:-179.967255,roll30,enci4:-7,joint4:-0.007055,roll40,enci5:0,joint5:0.000000,roll50
time:65.712143653;enci0:4991310,joint0:317.338928,roll00,enci1:-2685650,joint1:-90.054420,roll10,enci2:-641335,joint2:-179.978500,roll20,enci3:641290,joint3:-179.967499,roll30,enci4:-7,joint4:-0.007055,roll40,enci5:0,joint5:0.000000,roll50
time:65.715325900;enci0:4991310,joint0:317.338928,roll00,enci1:-2685650,joint1:-90.054420,roll10,enci2:-641335,joint2:-179.978500,roll20,enci3:641290,joint3:-179.967499,roll30,enci4:-7,joint4:-0.007055,roll40,enci5:0,joint5:0.000000,roll50
time:65.716141366;enci0:4991310,joint0:317.338928,roll00,enci1:-2685650,joint1:-90.054420,roll10,enci2:-641335,joint2:-179.978500,roll20,enci3:641290,joint3:-179.967499,roll30,enci4:-7,joint4:-0.007055,roll40,enci5:0,joint5:0.000000,roll50
time:65.719325290;enci0:4991310,joint0:317.338928,roll00,enci1:-2685650,joint1:-90.054420,roll10,enci2:-641335,joint2:-179.978500,roll20,enci3:641290,joint3:-179.967499,roll30,enci4:-7,joint4:-0.007055,roll40,enci5:0,joint5:0.000000,roll50
time:65.720141594;enci0:4991310,joint0:317.338928,roll00,enci1:-2685650,joint1:-90.054420,roll10,enci2:-641335,joint2:-179.978500,roll20,enci3:641289,joint3:-179.967255,roll30,enci4:-7,joint4:-0.007055,roll40,enci5:0,joint5:0.000000,roll50
time:65.723327194;enci0:4991310,joint0:317.338928,roll00,enci1:-2685650,joint1:-90.054420,roll10,enci2:-641335,joint2:-179.978500,roll20,enci3:641289,joint3:-179.967255,roll30,enci4:-7,joint4:-0.007055,roll40,enci5:0,joint5:0.000000,roll50
time:65.724146851;enci0:4991310,joint0:317.338928,roll00,enci1:-2685650,joint1:-90.054420,roll10,enci2:-641335,joint2:-179.978500,roll20,enci3:641290,joint3:-179.967499,roll30,enci4:-7,joint4:-0.007055,roll40,enci5:0,joint5:0.000000,roll50
time:65.727325746;enci0:4991310,joint0:317.338928,roll00,enci1:-2685650,joint1:-90.054420,roll10,enci2:-641335,joint2:-179.978500,roll20,enci3:641290,joint3:-179.967499,roll30,enci4:-7,joint4:-0.007055,roll40,enci5:0,joint5:0.000000,roll50
time:65.728142889;enci0:4991310,joint0:317.338928,roll00,enci1:-2685650,joint1:-90.054420,roll10,enci2:-641335,joint2:-179.978500,roll20,enci3:641290,joint3:-179.967499,roll30,enci4:-7,joint4:-0.007055,roll40,enci5:0,joint5:0.000000,roll50
time:65.731325136;enci0:4991310,joint0:317.338928,roll00,enci1:-2685650,joint1:-90.054420,roll10,enci2:-641335,joint2:-179.978500,roll20,enci3:641290,joint3:-179.967499,roll30,enci4:-7,joint4:-0.007055,roll40,enci5:0,joint5:0.000000,roll50
time:65.732143117;enci0:4991310,joint0:317.338928,roll00,enci1:-2685650,joint1:-90.054420,roll10,enci2:-641335,joint2:-179.978500,roll20,enci3:641290,joint3:-179.967499,roll30,enci4:-7,joint4:-0.007055,roll40,enci5:0,joint5:0.000000,roll50
time:65.735325364;enci0:4991310,joint0:317.338928,roll00,enci1:-2685650,joint1:-90.054420,roll10,enci2:-641335,joint2:-179.978500,roll20,enci3:641290,joint3:-179.967499,roll30,enci4:-7,joint4:-0.007055,roll40,enci5:0,joint5:0.000000,roll50
time:65.736142506;enci0:4991310,joint0:317.338928,roll00,enci1:-2685650,joint1:-90.054420,roll10,enci2:-641335,joint2:-179.978500,roll20,enci3:641290,joint3:-179.967499,roll30,enci4:-7,joint4:-0.007055,roll40,enci5:0,joint5:0.000000,roll50
time:65.739325592;enci0:4991310,joint0:317.338928,roll00,enci1:-2685650,joint1:-90.054420,roll10,enci2:-641335,joint2:-179.978500,roll20,enci3:641290,joint3:-179.967499,roll30,enci4:-7,joint4:-0.007055,roll40,enci5:0,joint5:0.000000,roll50
time:65.740142734;enci0:4991310,joint0:317.338928,roll00,enci1:-2685650,joint1:-90.054420,roll10,enci2:-641335,joint2:-179.978500,roll20,enci3:641290,joint3:-179.967499,roll30,enci4:-7,joint4:-0.007055,roll40,enci5:0,joint5:0.000000,roll50
time:65.743324982;enci0:4991310,joint0:317.338928,roll00,enci1:-2685650,joint1:-90.054420,roll10,enci2:-641335,joint2:-179.978500,roll20,enci3:641290,joint3:-179.967499,roll30,enci4:-7,joint4:-0.007055,roll40,enci5:0,joint5:0.000000,roll50
time:65.744141286;enci0:4991310,joint0:317.338928,roll00,enci1:-2685650,joint1:-90.054420,roll10,enci2:-641335,joint2:-179.978500,roll20,enci3:641290,joint3:-179.967499,roll30,enci4:-7,joint4:-0.007055,roll40,enci5:0,joint5:0.000000,roll50
time:65.747323533;enci0:4991310,joint0:317.338928,roll00,enci1:-2685650,joint1:-90.054420,roll10,enci2:-641335,joint2:-179.978500,roll20,enci3:641290,joint3:-179.967499,roll30,enci4:-7,joint4:-0.007055,roll40,enci5:0,joint5:0.000000,roll50
time:65.748128943;enci0:4991310,joint0:317.338928,roll00,enci1:-2685650,joint1:-90.054420,roll10,enci2:-641335,joint2:-179.978500,roll20,enci3:641290,joint3:-179.967499,roll30,enci4:-7,joint4:-0.007055,roll40,enci5:0,joint5:0.000000,roll50
time:65.751325438;enci0:4991310,joint0:317.338928,roll00,enci1:-2685650,joint1:-90.054420,roll10,enci2:-641335,joint2:-179.978500,roll20,enci3:641290,joint3:-179.967499,roll30,enci4:-7,joint4:-0.007055,roll40,enci5:0,joint5:0.000000,roll50
time:65.752142580;enci0:4991310,joint0:317.338928,roll00,enci1:-2685650,joint1:-90.054420,roll10,enci2:-641335,joint2:-179.978500,roll20,enci3:641290,joint3:-179.967499,roll30,enci4:-7,joint4:-0.007055,roll40,enci5:0,joint5:0.000000,roll50
time:65.755335723;enci0:4991310,joint0:317.338928,roll00,enci1:-2685650,joint1:-90.054420,roll10,enci2:-641335,joint2:-179.978500,roll20,enci3:641290,joint3:-179.967499,roll30,enci4:-7,joint4:-0.007055,roll40,enci5:0,joint5:0.000000,roll50
time:65.756152865;enci0:4991310,joint0:317.338928,roll00,enci1:-2685650,joint1:-90.054420,roll10,enci2:-641335,joint2:-179.978500,roll20,enci3:641290,joint3:-179.967499,roll30,enci4:-7,joint4:-0.007055,roll40,enci5:0,joint5:0.000000,roll50
time:65.759332598;enci0:4991310,joint0:317.338928,roll00,enci1:-2685650,joint1:-90.054420,roll10,enci2:-641335,joint2:-179.978500,roll20,enci3:641290,joint3:-179.967499,roll30,enci4:-7,joint4:-0.007055,roll40,enci5:0,joint5:0.000000,roll50
time:65.760149741;enci0:4991310,joint0:317.338928,roll00,enci1:-2685650,joint1:-90.054420,roll10,enci2:-641335,joint2:-179.978500,roll20,enci3:641290,joint3:-179.967499,roll30,enci4:-7,joint4:-0.007055,roll40,enci5:0,joint5:0.000000,roll50
time:65.763324445;enci0:4991310,joint0:317.338928,roll00,enci1:-2685650,joint1:-90.054420,roll10,enci2:-641335,joint2:-179.978500,roll20,enci3:641290,joint3:-179.967499,roll30,enci4:-7,joint4:-0.007055,roll40,enci5:0,joint5:0.000000,roll50
time:65.764143264;enci0:4991310,joint0:317.338928,roll00,enci1:-2685650,joint1:-90.054420,roll10,enci2:-641335,joint2:-179.978500,roll20,enci3:641290,joint3:-179.967499,roll30,enci4:-7,joint4:-0.007055,roll40,enci5:0,joint5:0.000000,roll50
time:65.767323835;enci0:4991310,joint0:317.338928,roll00,enci1:-2685650,joint1:-90.054420,roll10,enci2:-641335,joint2:-179.978500,roll20,enci3:641290,joint3:-179.967499,roll30,enci4:-7,joint4:-0.007055,roll40,enci5:0,joint5:0.000000,roll50
time:65.768145169;enci0:4991310,joint0:317.338928,roll00,enci1:-2685650,joint1:-90.054420,roll10,enci2:-641335,joint2:-179.978500,roll20,enci3:641290,joint3:-179.967499,roll30,enci4:-7,joint4:-0.007055,roll40,enci5:0,joint5:0.000000,roll50
time:65.771348368;enci0:4991310,joint0:317.338928,roll00,enci1:-2685650,joint1:-90.054420,roll10,enci2:-641335,joint2:-179.978500,roll20,enci3:641290,joint3:-179.967499,roll30,enci4:-7,joint4:-0.007055,roll40,enci5:0,joint5:0.000000,roll50
time:65.772240101;enci0:4991310,joint0:317.338928,roll00,enci1:-2685650,joint1:-90.054420,roll10,enci2:-641335,joint2:-179.978500,roll20,enci3:641290,joint3:-179.967499,roll30,enci4:-7,joint4:-0.007055,roll40,enci5:0,joint5:0.000000,roll50
time:65.775343568;enci0:4991310,joint0:317.338928,roll00,enci1:-2685650,joint1:-90.054420,roll10,enci2:-641335,joint2:-179.978500,roll20,enci3:641290,joint3:-179.967499,roll30,enci4:-7,joint4:-0.007055,roll40,enci5:0,joint5:0.000000,roll50
time:65.776243682;enci0:4991310,joint0:317.338928,roll00,enci1:-2685650,joint1:-90.054420,roll10,enci2:-641335,joint2:-179.978500,roll20,enci3:641290,joint3:-179.967499,roll30,enci4:-7,joint4:-0.007055,roll40,enci5:0,joint5:0.000000,roll50
time:65.779349662;enci0:4991310,joint0:317.338928,roll00,enci1:-2685650,joint1:-90.054420,roll10,enci2:-641335,joint2:-179.978500,roll20,enci3:641290,joint3:-179.967499,roll30,enci4:-7,joint4:-0.007055,roll40,enci5:0,joint5:0.000000,roll50
time:65.780251453;enci0:4991310,joint0:317.338928,roll00,enci1:-2685650,joint1:-90.054420,roll10,enci2:-641335,joint2:-179.978500,roll20,enci3:641290,joint3:-179.967499,roll30,enci4:-7,joint4:-0.007055,roll40,enci5:0,joint5:0.000000,roll50
time:65.783344862;enci0:4991310,joint0:317.338928,roll00,enci1:-2685650,joint1:-90.054420,roll10,enci2:-641335,joint2:-179.978500,roll20,enci3:641290,joint3:-179.967499,roll30,enci4:-7,joint4:-0.007055,roll40,enci5:0,joint5:0.000000,roll50
time:65.784245814;enci0:4991310,joint0:317.338928,roll00,enci1:-2685650,joint1:-90.054420,roll10,enci2:-641335,joint2:-179.978500,roll20,enci3:641290,joint3:-179.967499,roll30,enci4:-7,joint4:-0.007055,roll40,enci5:0,joint5:0.000000,roll50
time:65.787342575;enci0:4991310,joint0:317.338928,roll00,enci1:-2685650,joint1:-90.054420,roll10,enci2:-641335,joint2:-179.978500,roll20,enci3:641290,joint3:-179.967499,roll30,enci4:-7,joint4:-0.007055,roll40,enci5:0,joint5:0.000000,roll50
time:65.788238499;enci0:4991310,joint0:317.338928,roll00,enci1:-2685650,joint1:-90.054420,roll10,enci2:-641335,joint2:-179.978500,roll20,enci3:641290,joint3:-179.967499,roll30,enci4:-7,joint4:-0.007055,roll40,enci5:0,joint5:0.000000,roll50
time:65.791345318;enci0:4991310,joint0:317.338928,roll00,enci1:-2685650,joint1:-90.054420,roll10,enci2:-641335,joint2:-179.978500,roll20,enci3:641290,joint3:-179.967499,roll30,enci4:-7,joint4:-0.007055,roll40,enci5:0,joint5:0.000000,roll50
time:65.792231184;enci0:4991310,joint0:317.338928,roll00,enci1:-2685650,joint1:-90.054420,roll10,enci2:-641335,joint2:-179.978500,roll20,enci3:641290,joint3:-179.967499,roll30,enci4:-7,joint4:-0.007055,roll40,enci5:0,joint5:0.000000,roll50
time:65.795327108;enci0:4991310,joint0:317.338928,roll00,enci1:-2685650,joint1:-90.054420,roll10,enci2:-641335,joint2:-179.978500,roll20,enci3:641290,joint3:-179.967499,roll30,enci4:-7,joint4:-0.007055,roll40,enci5:0,joint5:0.000000,roll50
time:65.796185317;enci0:4991310,joint0:317.338928,roll00,enci1:-2685650,joint1:-90.054420,roll10,enci2:-641335,joint2:-179.978500,roll20,enci3:641290,joint3:-179.967499,roll30,enci4:-7,joint4:-0.007055,roll40,enci5:0,joint5:0.000000,roll50
time:65.799332364;enci0:4991310,joint0:317.338928,roll00,enci1:-2685650,joint1:-90.054420,roll10,enci2:-641335,joint2:-179.978500,roll20,enci3:641290,joint3:-179.967499,roll30,enci4:-7,joint4:-0.007055,roll40,enci5:0,joint5:0.000000,roll50
time:65.800218231;enci0:4991310,joint0:317.338928,roll00,enci1:-2685650,joint1:-90.054420,roll10,enci2:-641335,joint2:-179.978500,roll20,enci3:641290,joint3:-179.967499,roll30,enci4:-7,joint4:-0.007055,roll40,enci5:0,joint5:0.000000,roll50
time:65.803331753;enci0:4991310,joint0:317.338928,roll00,enci1:-2685650,joint1:-90.054420,roll10,enci2:-641335,joint2:-179.978500,roll20,enci3:641290,joint3:-179.967499,roll30,enci4:-7,joint4:-0.007055,roll40,enci5:0,joint5:0.000000,roll50
time:65.804225162;enci0:4991310,joint0:317.338928,roll00,enci1:-2685650,joint1:-90.054420,roll10,enci2:-641335,joint2:-179.978500,roll20,enci3:641290,joint3:-179.967499,roll30,enci4:-7,joint4:-0.007055,roll40,enci5:0,joint5:0.000000,roll50
time:65.807325276;enci0:4991310,joint0:317.338928,roll00,enci1:-2685650,joint1:-90.054420,roll10,enci2:-641335,joint2:-179.978500,roll20,enci3:641290,joint3:-179.967499,roll30,enci4:-7,joint4:-0.007055,roll40,enci5:0,joint5:0.000000,roll50
time:65.808196895;enci0:4991310,joint0:317.338928,roll00,enci1:-2685650,joint1:-90.054420,roll10,enci2:-641335,joint2:-179.978500,roll20,enci3:641290,joint3:-179.967499,roll30,enci4:-7,joint4:-0.007055,roll40,enci5:0,joint5:0.000000,roll50
time:65.811311257;enci0:4991310,joint0:317.338928,roll00,enci1:-2685650,joint1:-90.054420,roll10,enci2:-641335,joint2:-179.978500,roll20,enci3:641290,joint3:-179.967499,roll30,enci4:-7,joint4:-0.007055,roll40,enci5:0,joint5:0.000000,roll50
time:65.812133428;enci0:4991310,joint0:317.338928,roll00,enci1:-2685650,joint1:-90.054420,roll10,enci2:-641335,joint2:-179.978500,roll20,enci3:641290,joint3:-179.967499,roll30,enci4:-7,joint4:-0.007055,roll40,enci5:0,joint5:0.000000,roll50
time:65.815307294;enci0:4991310,joint0:317.338928,roll00,enci1:-2685650,joint1:-90.054420,roll10,enci2:-641335,joint2:-179.978500,roll20,enci3:641290,joint3:-179.967499,roll30,enci4:-7,joint4:-0.007055,roll40,enci5:0,joint5:0.000000,roll50
time:65.816113542;enci0:4991310,joint0:317.338928,roll00,enci1:-2685650,joint1:-90.054420,roll10,enci2:-641335,joint2:-179.978500,roll20,enci3:641290,joint3:-179.967499,roll30,enci4:-7,joint4:-0.007055,roll40,enci5:0,joint5:0.000000,roll50
time:65.819305846;enci0:4991310,joint0:317.338928,roll00,enci1:-2685650,joint1:-90.054420,roll10,enci2:-641335,joint2:-179.978500,roll20,enci3:641290,joint3:-179.967499,roll30,enci4:-7,joint4:-0.007055,roll40,enci5:0,joint5:0.000000,roll50
time:65.820123827;enci0:4991310,joint0:317.338928,roll00,enci1:-2685650,joint1:-90.054420,roll10,enci2:-641335,joint2:-179.978500,roll20,enci3:641290,joint3:-179.967499,roll30,enci4:-7,joint4:-0.007055,roll40,enci5:0,joint5:0.000000,roll50
time:65.823304398;enci0:4991310,joint0:317.338928,roll00,enci1:-2685650,joint1:-90.054420,roll10,enci2:-641335,joint2:-179.978500,roll20,enci3:641290,joint3:-179.967499,roll30,enci4:-7,joint4:-0.007055,roll40,enci5:0,joint5:0.000000,roll50
time:65.824122379;enci0:4991310,joint0:317.338928,roll00,enci1:-2685650,joint1:-90.054420,roll10,enci2:-641335,joint2:-179.978500,roll20,enci3:641289,joint3:-179.967255,roll30,enci4:-7,joint4:-0.007055,roll40,enci5:0,joint5:0.000000,roll50
time:65.827305464;enci0:4991310,joint0:317.338928,roll00,enci1:-2685650,joint1:-90.054420,roll10,enci2:-641335,joint2:-179.978500,roll20,enci3:641289,joint3:-179.967255,roll30,enci4:-7,joint4:-0.007055,roll40,enci5:0,joint5:0.000000,roll50
time:65.828119254;enci0:4991310,joint0:317.338928,roll00,enci1:-2685650,joint1:-90.054420,roll10,enci2:-641335,joint2:-179.978500,roll20,enci3:641290,joint3:-179.967499,roll30,enci4:-7,joint4:-0.007055,roll40,enci5:0,joint5:0.000000,roll50
time:65.831299825;enci0:4991310,joint0:317.338928,roll00,enci1:-2685650,joint1:-90.054420,roll10,enci2:-641335,joint2:-179.978500,roll20,enci3:641290,joint3:-179.967499,roll30,enci4:-7,joint4:-0.007055,roll40,enci5:0,joint5:0.000000,roll50
time:65.832115292;enci0:4991310,joint0:317.338928,roll00,enci1:-2685650,joint1:-90.054420,roll10,enci2:-641335,joint2:-179.978500,roll20,enci3:641290,joint3:-179.967499,roll30,enci4:-7,joint4:-0.007055,roll40,enci5:0,joint5:0.000000,roll50
time:65.835295863;enci0:4991310,joint0:317.338928,roll00,enci1:-2685650,joint1:-90.054420,roll10,enci2:-641335,joint2:-179.978500,roll20,enci3:641290,joint3:-179.967499,roll30,enci4:-7,joint4:-0.007055,roll40,enci5:0,joint5:0.000000,roll50
time:65.836101272;enci0:4991310,joint0:317.338928,roll00,enci1:-2685650,joint1:-90.054420,roll10,enci2:-641335,joint2:-179.978500,roll20,enci3:641290,joint3:-179.967499,roll30,enci4:-7,joint4:-0.007055,roll40,enci5:0,joint5:0.000000,roll50
time:65.839296929;enci0:4991310,joint0:317.338928,roll00,enci1:-2685650,joint1:-90.054420,roll10,enci2:-641335,joint2:-179.978500,roll20,enci3:641290,joint3:-179.967499,roll30,enci4:-7,joint4:-0.007055,roll40,enci5:0,joint5:0.000000,roll50
time:65.840114072;enci0:4991310,joint0:317.338928,roll00,enci1:-2685650,joint1:-90.054420,roll10,enci2:-641335,joint2:-179.978500,roll20,enci3:641290,joint3:-179.967499,roll30,enci4:-7,joint4:-0.007055,roll40,enci5:0,joint5:0.000000,roll50
time:65.843293804;enci0:4991310,joint0:317.338928,roll00,enci1:-2685650,joint1:-90.054420,roll10,enci2:-641335,joint2:-179.978500,roll20,enci3:641290,joint3:-179.967499,roll30,enci4:-7,joint4:-0.007055,roll40,enci5:0,joint5:0.000000,roll50
time:65.844110947;enci0:4991310,joint0:317.338928,roll00,enci1:-2685650,joint1:-90.054420,roll10,enci2:-641335,joint2:-179.978500,roll20,enci3:641290,joint3:-179.967499,roll30,enci4:-7,joint4:-0.007055,roll40,enci5:0,joint5:0.000000,roll50
time:65.847294871;enci0:4991310,joint0:317.338928,roll00,enci1:-2685650,joint1:-90.054420,roll10,enci2:-641335,joint2:-179.978500,roll20,enci3:641290,joint3:-179.967499,roll30,enci4:-7,joint4:-0.007055,roll40,enci5:0,joint5:0.000000,roll50
time:65.848112851;enci0:4991310,joint0:317.338928,roll00,enci1:-2685650,joint1:-90.054420,roll10,enci2:-641335,joint2:-179.978500,roll20,enci3:641289,joint3:-179.967255,roll30,enci4:-7,joint4:-0.007055,roll40,enci5:0,joint5:0.000000,roll50
time:65.851289232;enci0:4991310,joint0:317.338928,roll00,enci1:-2685650,joint1:-90.054420,roll10,enci2:-641335,joint2:-179.978500,roll20,enci3:641289,joint3:-179.967255,roll30,enci4:-7,joint4:-0.007055,roll40,enci5:0,joint5:0.000000,roll50
time:65.852109727;enci0:4991310,joint0:317.338928,roll00,enci1:-2685650,joint1:-90.054420,roll10,enci2:-641335,joint2:-179.978500,roll20,enci3:641290,joint3:-179.967499,roll30,enci4:-7,joint4:-0.007055,roll40,enci5:0,joint5:0.000000,roll50
time:65.855287784;enci0:4991310,joint0:317.338928,roll00,enci1:-2685650,joint1:-90.054420,roll10,enci2:-641335,joint2:-179.978500,roll20,enci3:641290,joint3:-179.967499,roll30,enci4:-7,joint4:-0.007055,roll40,enci5:0,joint5:0.000000,roll50
time:65.856104926;enci0:4991310,joint0:317.338928,roll00,enci1:-2685650,joint1:-90.054420,roll10,enci2:-641335,joint2:-179.978500,roll20,enci3:641290,joint3:-179.967499,roll30,enci4:-7,joint4:-0.007055,roll40,enci5:0,joint5:0.000000,roll50
time:65.859283821;enci0:4991310,joint0:317.338928,roll00,enci1:-2685650,joint1:-90.054420,roll10,enci2:-641335,joint2:-179.978500,roll20,enci3:641290,joint3:-179.967499,roll30,enci4:-7,joint4:-0.007055,roll40,enci5:0,joint5:0.000000,roll50
time:65.860091745;enci0:4991310,joint0:317.338928,roll00,enci1:-2685650,joint1:-90.054420,roll10,enci2:-641335,joint2:-179.978500,roll20,enci3:641290,joint3:-179.967499,roll30,enci4:-7,joint4:-0.007055,roll40,enci5:0,joint5:0.000000,roll50
time:65.863282373;enci0:4991310,joint0:317.338928,roll00,enci1:-2685650,joint1:-90.054420,roll10,enci2:-641335,joint2:-179.978500,roll20,enci3:641290,joint3:-179.967499,roll30,enci4:-7,joint4:-0.007055,roll40,enci5:0,joint5:0.000000,roll50
time:65.864100354;enci0:4991310,joint0:317.338928,roll00,enci1:-2685650,joint1:-90.054420,roll10,enci2:-641335,joint2:-179.978500,roll20,enci3:641290,joint3:-179.967499,roll30,enci4:-7,joint4:-0.007055,roll40,enci5:0,joint5:0.000000,roll50
time:65.867275058;enci0:4991310,joint0:317.338928,roll00,enci1:-2685650,joint1:-90.054420,roll10,enci2:-641335,joint2:-179.978500,roll20,enci3:641290,joint3:-179.967499,roll30,enci4:-7,joint4:-0.007055,roll40,enci5:0,joint5:0.000000,roll50
time:65.868090525;enci0:4991310,joint0:317.338928,roll00,enci1:-2685650,joint1:-90.054420,roll10,enci2:-641335,joint2:-179.978500,roll20,enci3:641290,joint3:-179.967499,roll30,enci4:-7,joint4:-0.007055,roll40,enci5:0,joint5:0.000000,roll50
time:65.871276124;enci0:4991310,joint0:317.338928,roll00,enci1:-2685650,joint1:-90.054420,roll10,enci2:-641335,joint2:-179.978500,roll20,enci3:641290,joint3:-179.967499,roll30,enci4:-7,joint4:-0.007055,roll40,enci5:0,joint5:0.000000,roll50
time:65.872080696;enci0:4991310,joint0:317.338928,roll00,enci1:-2685650,joint1:-90.054420,roll10,enci2:-641335,joint2:-179.978500,roll20,enci3:641290,joint3:-179.967499,roll30,enci4:-7,joint4:-0.007055,roll40,enci5:0,joint5:0.000000,roll50
time:65.875273838;enci0:4991310,joint0:317.338928,roll00,enci1:-2685650,joint1:-90.054420,roll10,enci2:-641335,joint2:-179.978500,roll20,enci3:641290,joint3:-179.967499,roll30,enci4:-7,joint4:-0.007055,roll40,enci5:0,joint5:0.000000,roll50
time:65.876084276;enci0:4991310,joint0:317.338928,roll00,enci1:-2685650,joint1:-90.054420,roll10,enci2:-641335,joint2:-179.978500,roll20,enci3:641290,joint3:-179.967499,roll30,enci4:-7,joint4:-0.007055,roll40,enci5:0,joint5:0.000000,roll50
time:65.879273228;enci0:4991310,joint0:317.338928,roll00,enci1:-2685650,joint1:-90.054420,roll10,enci2:-641335,joint2:-179.978500,roll20,enci3:641290,joint3:-179.967499,roll30,enci4:-7,joint4:-0.007055,roll40,enci5:0,joint5:0.000000,roll50
time:65.880078637;enci0:4991310,joint0:317.338928,roll00,enci1:-2685650,joint1:-90.054420,roll10,enci2:-641335,joint2:-179.978500,roll20,enci3:641290,joint3:-179.967499,roll30,enci4:-7,joint4:-0.007055,roll40,enci5:0,joint5:0.000000,roll50
time:65.883275970;enci0:4991310,joint0:317.338928,roll00,enci1:-2685650,joint1:-90.054420,roll10,enci2:-641335,joint2:-179.978500,roll20,enci3:641290,joint3:-179.967499,roll30,enci4:-7,joint4:-0.007055,roll40,enci5:0,joint5:0.000000,roll50
time:65.884095627;enci0:4991310,joint0:317.338928,roll00,enci1:-2685650,joint1:-90.054420,roll10,enci2:-641335,joint2:-179.978500,roll20,enci3:641290,joint3:-179.967499,roll30,enci4:-7,joint4:-0.007055,roll40,enci5:0,joint5:0.000000,roll50
time:65.887274522;enci0:4991310,joint0:317.338928,roll00,enci1:-2685650,joint1:-90.054420,roll10,enci2:-641335,joint2:-179.978500,roll20,enci3:641290,joint3:-179.967499,roll30,enci4:-7,joint4:-0.007055,roll40,enci5:0,joint5:0.000000,roll50
time:65.888087474;enci0:4991310,joint0:317.338928,roll00,enci1:-2685650,joint1:-90.054420,roll10,enci2:-641335,joint2:-179.978500,roll20,enci3:641290,joint3:-179.967499,roll30,enci4:-7,joint4:-0.007055,roll40,enci5:0,joint5:0.000000,roll50
time:65.891273074;enci0:4991310,joint0:317.338928,roll00,enci1:-2685650,joint1:-90.054420,roll10,enci2:-641335,joint2:-179.978500,roll20,enci3:641290,joint3:-179.967499,roll30,enci4:-7,joint4:-0.007055,roll40,enci5:0,joint5:0.000000,roll50
time:65.892079321;enci0:4991310,joint0:317.338928,roll00,enci1:-2685650,joint1:-90.054420,roll10,enci2:-641335,joint2:-179.978500,roll20,enci3:641290,joint3:-179.967499,roll30,enci4:-7,joint4:-0.007055,roll40,enci5:0,joint5:0.000000,roll50
time:65.895277492;enci0:4991310,joint0:317.338928,roll00,enci1:-2685650,joint1:-90.054420,roll10,enci2:-641335,joint2:-179.978500,roll20,enci3:641290,joint3:-179.967499,roll30,enci4:-7,joint4:-0.007055,roll40,enci5:0,joint5:0.000000,roll50
time:65.896088768;enci0:4991310,joint0:317.338928,roll00,enci1:-2685650,joint1:-90.054420,roll10,enci2:-641335,joint2:-179.978500,roll20,enci3:641290,joint3:-179.967499,roll30,enci4:-7,joint4:-0.007055,roll40,enci5:0,joint5:0.000000,roll50
time:65.899275205;enci0:4991310,joint0:317.338928,roll00,enci1:-2685650,joint1:-90.054420,roll10,enci2:-641335,joint2:-179.978500,roll20,enci3:641290,joint3:-179.967499,roll30,enci4:-7,joint4:-0.007055,roll40,enci5:0,joint5:0.000000,roll50
time:65.900093186;enci0:4991310,joint0:317.338928,roll00,enci1:-2685650,joint1:-90.054420,roll10,enci2:-641335,joint2:-179.978500,roll20,enci3:641290,joint3:-179.967499,roll30,enci4:-7,joint4:-0.007055,roll40,enci5:0,joint5:0.000000,roll50
time:65.903273757;enci0:4991310,joint0:317.338928,roll00,enci1:-2685650,joint1:-90.054420,roll10,enci2:-641335,joint2:-179.978500,roll20,enci3:641290,joint3:-179.967499,roll30,enci4:-7,joint4:-0.007055,roll40,enci5:0,joint5:0.000000,roll50
time:65.904090900;enci0:4991310,joint0:317.338928,roll00,enci1:-2685650,joint1:-90.054420,roll10,enci2:-641335,joint2:-179.978500,roll20,enci3:641290,joint3:-179.967499,roll30,enci4:-7,joint4:-0.007055,roll40,enci5:0,joint5:0.000000,roll50
time:65.907273147;enci0:4991310,joint0:317.338928,roll00,enci1:-2685650,joint1:-90.054420,roll10,enci2:-641335,joint2:-179.978500,roll20,enci3:641290,joint3:-179.967499,roll30,enci4:-7,joint4:-0.007055,roll40,enci5:0,joint5:0.000000,roll50
