heyhilz/my_project-----/2024-07-31-16-33-25/plan_data.txt
time:29157.925496497;plan:joint0:120.318077,joint1:89.996910,joint2:-179.999985,joint3:-180.000000,joint4:100.214211,joint5:0.000000
time:29157.929496725;plan:joint0:120.320480,joint1:89.995285,joint2:-179.999985,joint3:-180.000000,joint4:100.222603,joint5:0.000000
time:29157.933496953;plan:joint0:120.323669,joint1:89.993118,joint2:-179.999985,joint3:-180.000000,joint4:100.233757,joint5:0.000000
time:29157.937506400;plan:joint0:120.327774,joint1:89.990341,joint2:-179.999985,joint3:-180.000000,joint4:100.248085,joint5:0.000000
time:29157.941495733;plan:joint0:120.332893,joint1:89.986870,joint2:-179.999985,joint3:-180.000000,joint4:100.265984,joint5:0.000000
time:29157.945498475;plan:joint0:120.339149,joint1:89.982635,joint2:-179.999985,joint3:-180.000000,joint4:100.287842,joint5:0.000000
time:29157.949498703;plan:joint0:120.346657,joint1:89.977554,joint2:-179.999985,joint3:-180.000000,joint4:100.314056,joint5:0.000000
time:29157.953584417;plan:joint0:120.355522,joint1:89.971550,joint2:-179.999985,joint3:-180.000000,joint4:100.345024,joint5:0.000000
time:29157.957513407;plan:joint0:120.365860,joint1:89.964554,joint2:-179.999985,joint3:-180.000000,joint4:100.381142,joint5:0.000000
time:29157.961496872;plan:joint0:120.377785,joint1:89.956474,joint2:-179.999985,joint3:-180.000000,joint4:100.422806,joint5:0.000000
time:29157.965497100;plan:joint0:120.391411,joint1:89.947250,joint2:-179.999985,joint3:-180.000000,joint4:100.470421,joint5:0.000000
time:29157.969506547;plan:joint0:120.406853,joint1:89.936790,joint2:-179.999985,joint3:-180.000000,joint4:100.524368,joint5:0.000000
time:29157.973495041;plan:joint0:120.424217,joint1:89.925026,joint2:-179.999985,joint3:-180.000000,joint4:100.585052,joint5:0.000000
time:29157.977496946;plan:joint0:120.443634,joint1:89.911880,joint2:-179.999985,joint3:-180.000000,joint4:100.652863,joint5:0.000000
time:29157.981529859;plan:joint0:120.465195,joint1:89.897278,joint2:-179.999985,joint3:-180.000000,joint4:100.728210,joint5:0.000000
time:29157.985496564;plan:joint0:120.489029,joint1:89.881142,joint2:-179.999985,joint3:-180.000000,joint4:100.811470,joint5:0.000000
time:29157.989491763;plan:joint0:120.515244,joint1:89.863388,joint2:-179.999985,joint3:-180.000000,joint4:100.903061,joint5:0.000000
time:29157.993492829;plan:joint0:120.543953,joint1:89.843948,joint2:-179.999985,joint3:-180.000000,joint4:101.003365,joint5:0.000000
time:29157.997493895;plan:joint0:120.575272,joint1:89.822739,joint2:-179.999985,joint3:-180.000000,joint4:101.112778,joint5:0.000000
time:29158.001491609;plan:joint0:120.609306,joint1:89.799690,joint2:-179.999985,joint3:-180.000000,joint4:101.231705,joint5:0.000000
time:29158.005492675;plan:joint0:120.646187,joint1:89.774719,joint2:-179.999985,joint3:-180.000000,joint4:101.360527,joint5:0.000000
time:29158.009492903;plan:joint0:120.686005,joint1:89.747749,joint2:-179.999985,joint3:-180.000000,joint4:101.499657,joint5:0.000000
time:29158.013504864;plan:joint0:120.728889,joint1:89.718712,joint2:-179.999985,joint3:-180.000000,joint4:101.649483,joint5:0.000000
time:29158.017515988;plan:joint0:120.774948,joint1:89.687515,joint2:-179.999985,joint3:-180.000000,joint4:101.810410,joint5:0.000000
time:29158.021493587;plan:joint0:120.824295,joint1:89.654099,joint2:-179.999985,joint3:-180.000000,joint4:101.982819,joint5:0.000000
time:29158.025498844;plan:joint0:120.877045,joint1:89.618378,joint2:-179.999985,joint3:-180.000000,joint4:102.167114,joint5:0.000000
time:29158.029496557;plan:joint0:120.933311,joint1:89.580276,joint2:-179.999985,joint3:-180.000000,joint4:102.363686,joint5:0.000000
time:29158.033495109;plan:joint0:120.993210,joint1:89.539719,joint2:-179.999985,joint3:-180.000000,joint4:102.572945,joint5:0.000000
time:29158.037502042;plan:joint0:121.056847,joint1:89.496620,joint2:-179.999985,joint3:-180.000000,joint4:102.795273,joint5:0.000000
time:29158.041495565;plan:joint0:121.124336,joint1:89.450920,joint2:-179.999985,joint3:-180.000000,joint4:103.031075,joint5:0.000000
time:29158.045492441;plan:joint0:121.195801,joint1:89.402527,joint2:-179.999985,joint3:-180.000000,joint4:103.280739,joint5:0.000000
time:29158.049493507;plan:joint0:121.271339,joint1:89.351364,joint2:-179.999985,joint3:-180.000000,joint4:103.544670,joint5:0.000000
time:29158.053492059;plan:joint0:121.351082,joint1:89.297371,joint2:-179.999985,joint3:-180.000000,joint4:103.823257,joint5:0.000000
time:29158.057490609;plan:joint0:121.435127,joint1:89.240448,joint2:-179.999985,joint3:-180.000000,joint4:104.116905,joint5:0.000000
time:29158.061492514;plan:joint0:121.523598,joint1:89.180542,joint2:-179.999985,joint3:-180.000000,joint4:104.426003,joint5:0.000000
time:29158.065490227;plan:joint0:121.616608,joint1:89.117554,joint2:-179.999985,joint3:-180.000000,joint4:104.750946,joint5:0.000000
time:29158.069498836;plan:joint0:121.714264,joint1:89.051422,joint2:-179.999985,joint3:-180.000000,joint4:105.092133,joint5:0.000000
time:29158.073495712;plan:joint0:121.816689,joint1:88.982063,joint2:-179.999985,joint3:-180.000000,joint4:105.449959,joint5:0.000000
time:29158.077490911;plan:joint0:121.923981,joint1:88.909409,joint2:-179.999985,joint3:-180.000000,joint4:105.824821,joint5:0.000000
time:29158.081512092;plan:joint0:122.036263,joint1:88.833366,joint2:-179.999985,joint3:-180.000000,joint4:106.217117,joint5:0.000000
time:29158.085489691;plan:joint0:122.153656,joint1:88.753876,joint2:-179.999985,joint3:-180.000000,joint4:106.627243,joint5:0.000000
time:29158.089488243;plan:joint0:122.276260,joint1:88.670845,joint2:-179.999985,joint3:-180.000000,joint4:107.055595,joint5:0.000000
time:29158.093490147;plan:joint0:122.404198,joint1:88.584206,joint2:-179.999985,joint3:-180.000000,joint4:107.502563,joint5:0.000000
time:29158.097513842;plan:joint0:122.537575,joint1:88.493889,joint2:-179.999985,joint3:-180.000000,joint4:107.968552,joint5:0.000000
time:29158.101491441;plan:joint0:122.676506,joint1:88.399803,joint2:-179.999985,joint3:-180.000000,joint4:108.453957,joint5:0.000000
time:29158.105488317;plan:joint0:122.821114,joint1:88.301880,joint2:-179.999985,joint3:-180.000000,joint4:108.959167,joint5:0.000000
time:29158.109488545;plan:joint0:122.971497,joint1:88.200035,joint2:-179.999985,joint3:-180.000000,joint4:109.484581,joint5:0.000000
time:29158.113497992;plan:joint0:123.127785,joint1:88.094200,joint2:-179.999985,joint3:-180.000000,joint4:110.030602,joint5:0.000000
time:29158.117495706;plan:joint0:123.290077,joint1:87.984299,joint2:-179.999985,joint3:-180.000000,joint4:110.597618,joint5:0.000000
time:29158.121489229;plan:joint0:123.458496,joint1:87.870247,joint2:-179.999985,joint3:-180.000000,joint4:111.186028,joint5:0.000000
time:29158.125488619;plan:joint0:123.633156,joint1:87.751968,joint2:-179.999985,joint3:-180.000000,joint4:111.796234,joint5:0.000000
time:29158.129493037;plan:joint0:123.814163,joint1:87.629395,joint2:-179.999985,joint3:-180.000000,joint4:112.428619,joint5:0.000000
time:29158.133490751;plan:joint0:124.001633,joint1:87.502441,joint2:-179.999985,joint3:-180.000000,joint4:113.083588,joint5:0.000000
time:29158.137488465;plan:joint0:124.195679,joint1:87.371033,joint2:-179.999985,joint3:-180.000000,joint4:113.761543,joint5:0.000000
time:29158.141485340;plan:joint0:124.396416,joint1:87.235100,joint2:-179.999985,joint3:-180.000000,joint4:114.462868,joint5:0.000000
time:29158.145487244;plan:joint0:124.603958,joint1:87.094551,joint2:-179.999985,joint3:-180.000000,joint4:115.187965,joint5:0.000000
time:29158.149490825;plan:joint0:124.818413,joint1:86.949318,joint2:-179.999985,joint3:-180.000000,joint4:115.937233,joint5:0.000000
time:29158.153486862;plan:joint0:125.039909,joint1:86.799332,joint2:-179.999985,joint3:-180.000000,joint4:116.711060,joint5:0.000000
time:29158.157492957;plan:joint0:125.268539,joint1:86.644501,joint2:-179.999985,joint3:-180.000000,joint4:117.509850,joint5:0.000000
time:29158.161509108;plan:joint0:125.504433,joint1:86.484756,joint2:-179.999985,joint3:-180.000000,joint4:118.333992,joint5:0.000000
time:29158.165490898;plan:joint0:125.747696,joint1:86.320023,joint2:-179.999985,joint3:-180.000000,joint4:119.183891,joint5:0.000000
time:29158.169496992;plan:joint0:125.998444,joint1:86.150215,joint2:-179.999985,joint3:-180.000000,joint4:120.059937,joint5:0.000000
time:29158.173480459;plan:joint0:126.256790,joint1:85.975266,joint2:-179.999985,joint3:-180.000000,joint4:120.962532,joint5:0.000000
time:29158.177494096;plan:joint0:126.522842,joint1:85.795097,joint2:-179.999985,joint3:-180.000000,joint4:121.892059,joint5:0.000000
time:29158.181512762;plan:joint0:126.796722,joint1:85.609627,joint2:-179.999985,joint3:-180.000000,joint4:122.848930,joint5:0.000000
time:29158.185487009;plan:joint0:127.078545,joint1:85.418785,joint2:-179.999985,joint3:-180.000000,joint4:123.833534,joint5:0.000000
time:29158.189493104;plan:joint0:127.368378,joint1:85.222511,joint2:-179.999985,joint3:-180.000000,joint4:124.846138,joint5:0.000000
time:29158.193489979;plan:joint0:127.666153,joint1:85.020866,joint2:-179.999985,joint3:-180.000000,joint4:125.886475,joint5:0.000000
time:29158.197516188;plan:joint0:127.971748,joint1:84.813919,joint2:-179.999985,joint3:-180.000000,joint4:126.954140,joint5:0.000000
time:29158.201491274;plan:joint0:128.285049,joint1:84.601746,joint2:-179.999985,joint3:-180.000000,joint4:128.048752,joint5:0.000000
time:29158.205489825;plan:joint0:128.605957,joint1:84.384438,joint2:-179.999985,joint3:-180.000000,joint4:129.169907,joint5:0.000000
time:29158.209488377;plan:joint0:128.934341,joint1:84.162056,joint2:-179.999985,joint3:-180.000000,joint4:130.317215,joint5:0.000000
time:29158.213501177;plan:joint0:129.270111,joint1:83.934677,joint2:-179.999985,joint3:-180.000000,joint4:131.490280,joint5:0.000000
time:29158.217489671;plan:joint0:129.613129,joint1:83.702393,joint2:-179.999985,joint3:-180.000000,joint4:132.688690,joint5:0.000000
time:29158.221492414;plan:joint0:129.963287,joint1:83.465263,joint2:-179.999985,joint3:-180.000000,joint4:133.912064,joint5:0.000000
time:29158.225491803;plan:joint0:130.320480,joint1:83.223381,joint2:-179.999985,joint3:-180.000000,joint4:135.160004,joint5:0.000000
time:29158.229490355;plan:joint0:130.684586,joint1:82.976807,joint2:-179.999985,joint3:-180.000000,joint4:136.432114,joint5:0.000000
time:29158.233488907;plan:joint0:131.055496,joint1:82.725624,joint2:-179.999985,joint3:-180.000000,joint4:137.727997,joint5:0.000000
time:29158.237495840;plan:joint0:131.433105,joint1:82.469917,joint2:-179.999985,joint3:-180.000000,joint4:139.047241,joint5:0.000000
time:29158.241486011;plan:joint0:131.817291,joint1:82.209747,joint2:-179.999985,joint3:-180.000000,joint4:140.389481,joint5:0.000000
time:29158.245486239;plan:joint0:132.207932,joint1:81.945206,joint2:-179.999985,joint3:-180.000000,joint4:141.754303,joint5:0.000000
time:29158.249486467;plan:joint0:132.604935,joint1:81.676369,joint2:-179.999985,joint3:-180.000000,joint4:143.141296,joint5:0.000000
time:29158.253495076;plan:joint0:133.008163,joint1:81.403305,joint2:-179.999985,joint3:-180.000000,joint4:144.550095,joint5:0.000000
time:29158.257494465;plan:joint0:133.417526,joint1:81.126091,joint2:-179.999985,joint3:-180.000000,joint4:145.980286,joint5:0.000000
time:29158.261484635;plan:joint0:133.832886,joint1:80.844803,joint2:-179.999985,joint3:-180.000000,joint4:147.431458,joint5:0.000000
time:29158.265487378;plan:joint0:134.254150,joint1:80.559532,joint2:-179.999985,joint3:-180.000000,joint4:148.903259,joint5:0.000000
time:29158.269499339;plan:joint0:134.681198,joint1:80.270340,joint2:-179.999985,joint3:-180.000000,joint4:150.395248,joint5:0.000000
time:29158.273492024;plan:joint0:135.113922,joint1:79.977303,joint2:-179.999985,joint3:-180.000000,joint4:151.907043,joint5:0.000000
time:29158.277488900;plan:joint0:135.552200,joint1:79.680511,joint2:-179.999985,joint3:-180.000000,joint4:153.438263,joint5:0.000000
time:29158.281516785;plan:joint0:135.995911,joint1:79.380028,joint2:-179.999985,joint3:-180.000000,joint4:154.988495,joint5:0.000000
time:29158.285488518;plan:joint0:136.444962,joint1:79.075935,joint2:-179.999985,joint3:-180.000000,joint4:156.557358,joint5:0.000000
time:29158.289485393;plan:joint0:136.899216,joint1:78.768318,joint2:-179.999985,joint3:-180.000000,joint4:158.144440,joint5:0.000000
time:29158.293494840;plan:joint0:137.358582,joint1:78.457237,joint2:-179.999985,joint3:-180.000000,joint4:159.749344,joint5:0.000000
time:29158.297525240;plan:joint0:137.822937,joint1:78.142776,joint2:-179.999985,joint3:-180.000000,joint4:161.371689,joint5:0.000000
time:29158.301483563;plan:joint0:138.292175,joint1:77.825020,joint2:-179.999985,joint3:-180.000000,joint4:163.011063,joint5:0.000000
time:29158.305493848;plan:joint0:138.766174,joint1:77.504036,joint2:-179.999985,joint3:-180.000000,joint4:164.667068,joint5:0.000000
time:29158.309486533;plan:joint0:139.244812,joint1:77.179901,joint2:-179.999985,joint3:-180.000000,joint4:166.339340,joint5:0.000000
time:29158.313489276;plan:joint0:139.727997,joint1:76.852692,joint2:-179.999985,joint3:-180.000000,joint4:168.027451,joint5:0.000000
time:29158.317487827;plan:joint0:140.215607,joint1:76.522491,joint2:-179.999985,joint3:-180.000000,joint4:169.731003,joint5:0.000000
time:29158.321494760;plan:joint0:140.707520,joint1:76.189377,joint2:-179.999985,joint3:-180.000000,joint4:171.449615,joint5:0.000000
time:29158.325487445;plan:joint0:141.203629,joint1:75.853416,joint2:-179.999985,joint3:-180.000000,joint4:173.182892,joint5:0.000000
time:29158.329490188;plan:joint0:141.703812,joint1:75.514694,joint2:-179.999985,joint3:-180.000000,joint4:174.930435,joint5:0.000000
time:29158.333489578;plan:joint0:142.207977,joint1:75.173279,joint2:-179.999985,joint3:-180.000000,joint4:176.691833,joint5:0.000000
time:29158.337484777;plan:joint0:142.715988,joint1:74.829254,joint2:-179.999985,joint3:-180.000000,joint4:178.466705,joint5:0.000000
time:29158.341483329;plan:joint0:143.227753,joint1:74.482697,joint2:-179.999985,joint3:-180.000000,joint4:180.254654,joint5:0.000000
time:29158.345486071;plan:joint0:143.743134,joint1:74.133682,joint2:-179.999985,joint3:-180.000000,joint4:182.055283,joint5:0.000000
time:29158.349484623;plan:joint0:144.262039,joint1:73.782288,joint2:-179.999985,joint3:-180.000000,joint4:183.868195,joint5:0.000000
time:29158.353598832;plan:joint0:144.784332,joint1:73.428589,joint2:-179.999985,joint3:-180.000000,joint4:185.692993,joint5:0.000000
time:29158.357604087;plan:joint0:145.309937,joint1:73.072662,joint2:-179.999985,joint3:-180.000000,joint4:187.529282,joint5:0.000000
time:29158.361637001;plan:joint0:145.838699,joint1:72.714584,joint2:-179.999985,joint3:-180.000000,joint4:189.376648,joint5:0.000000
time:29158.365602029;plan:joint0:146.370529,joint1:72.354439,joint2:-179.999985,joint3:-180.000000,joint4:191.234726,joint5:0.000000
time:29158.369614829;plan:joint0:146.905304,joint1:71.992294,joint2:-179.999985,joint3:-180.000000,joint4:193.103104,joint5:0.000000
time:29158.373589914;plan:joint0:147.442917,joint1:71.628220,joint2:-179.999985,joint3:-180.000000,joint4:194.981384,joint5:0.000000
time:29158.377544046;plan:joint0:147.983261,joint1:71.262314,joint2:-179.999985,joint3:-180.000000,joint4:196.869171,joint5:0.000000
time:29158.381594560;plan:joint0:148.526199,joint1:70.894638,joint2:-179.999985,joint3:-180.000000,joint4:198.766083,joint5:0.000000
time:29158.385577188;plan:joint0:149.071640,joint1:70.525276,joint2:-179.999985,joint3:-180.000000,joint4:200.671692,joint5:0.000000
time:29158.389498635;plan:joint0:149.619461,joint1:70.154297,joint2:-179.999985,joint3:-180.000000,joint4:202.585632,joint5:0.000000
time:29158.393478749;plan:joint0:150.169540,joint1:69.781784,joint2:-179.999985,joint3:-180.000000,joint4:204.507492,joint5:0.000000
time:29158.397494901;plan:joint0:150.721786,joint1:69.407806,joint2:-179.999985,joint3:-180.000000,joint4:206.436890,joint5:0.000000
time:29158.401452386;plan:joint0:151.276062,joint1:69.032455,joint2:-179.999985,joint3:-180.000000,joint4:208.373398,joint5:0.000000
time:29158.405457642;plan:joint0:151.832275,joint1:68.655792,joint2:-179.999985,joint3:-180.000000,joint4:210.316666,joint5:0.000000
time:29158.409457870;plan:joint0:152.390305,joint1:68.277908,joint2:-179.999985,joint3:-180.000000,joint4:212.266251,joint5:0.000000
time:29158.413458098;plan:joint0:152.950027,joint1:67.898865,joint2:-179.999985,joint3:-180.000000,joint4:214.221802,joint5:0.000000
time:29158.417461679;plan:joint0:153.511337,joint1:67.518745,joint2:-179.999985,joint3:-180.000000,joint4:216.182877,joint5:0.000000
time:29158.421461069;plan:joint0:154.074127,joint1:67.137634,joint2:-179.999985,joint3:-180.000000,joint4:218.149109,joint5:0.000000
time:29158.425453754;plan:joint0:154.638275,joint1:66.755600,joint2:-179.999985,joint3:-180.000000,joint4:220.120102,joint5:0.000000
time:29158.429458172;plan:joint0:155.203674,joint1:66.372711,joint2:-179.999985,joint3:-180.000000,joint4:222.095459,joint5:0.000000
time:29158.433451696;plan:joint0:155.770203,joint1:65.989067,joint2:-179.999985,joint3:-180.000000,joint4:224.074768,joint5:0.000000
time:29158.437471200;plan:joint0:156.337753,joint1:65.604729,joint2:-179.999985,joint3:-180.000000,joint4:226.057632,joint5:0.000000
time:29158.441463047;plan:joint0:156.906219,joint1:65.219772,joint2:-179.999985,joint3:-180.000000,joint4:228.043686,joint5:0.000000
time:29158.445458246;plan:joint0:157.475464,joint1:64.834282,joint2:-179.999985,joint3:-180.000000,joint4:230.032501,joint5:0.000000
time:29158.449470208;plan:joint0:158.045395,joint1:64.448326,joint2:-179.999985,joint3:-180.000000,joint4:232.023697,joint5:0.000000
time:29158.453462055;plan:joint0:158.615906,joint1:64.061989,joint2:-179.999985,joint3:-180.000000,joint4:234.016876,joint5:0.000000
time:29158.457454739;plan:joint0:159.186859,joint1:63.675346,joint2:-179.999985,joint3:-180.000000,joint4:236.011627,joint5:0.000000
time:29158.461459995;plan:joint0:159.758148,joint1:63.288475,joint2:-179.999985,joint3:-180.000000,joint4:238.007584,joint5:0.000000
time:29158.465454357;plan:joint0:160.329666,joint1:62.901443,joint2:-179.999985,joint3:-180.000000,joint4:240.004333,joint5:0.000000
time:29158.469460451;plan:joint0:160.901291,joint1:62.514339,joint2:-179.999985,joint3:-180.000000,joint4:242.001465,joint5:0.000000
time:29158.473443917;plan:joint0:161.472946,joint1:62.127224,joint2:-179.999985,joint3:-180.000000,joint4:243.998657,joint5:0.000000
time:29158.477446660;plan:joint0:162.044601,joint1:61.740105,joint2:-179.999985,joint3:-180.000000,joint4:245.995865,joint5:0.000000
time:29158.481468678;plan:joint0:162.616257,joint1:61.352989,joint2:-179.999985,joint3:-180.000000,joint4:247.993073,joint5:0.000000
time:29158.485450468;plan:joint0:163.187897,joint1:60.965870,joint2:-179.999985,joint3:-180.000000,joint4:249.990280,joint5:0.000000
time:29158.489429744;plan:joint0:163.759552,joint1:60.578754,joint2:-179.999985,joint3:-180.000000,joint4:251.987488,joint5:0.000000
time:29158.493440867;plan:joint0:164.331207,joint1:60.191635,joint2:-179.999985,joint3:-180.000000,joint4:253.984680,joint5:0.000000
time:29158.497433552;plan:joint0:164.902863,joint1:59.804520,joint2:-179.999985,joint3:-180.000000,joint4:255.981888,joint5:0.000000
time:29158.501430428;plan:joint0:165.474518,joint1:59.417400,joint2:-179.999985,joint3:-180.000000,joint4:257.979095,joint5:0.000000
time:29158.505444065;plan:joint0:166.046158,joint1:59.030285,joint2:-179.999985,joint3:-180.000000,joint4:259.976288,joint5:0.000000
time:29158.509432560;plan:joint0:166.617813,joint1:58.643166,joint2:-179.999985,joint3:-180.000000,joint4:261.973511,joint5:0.000000
time:29158.513431950;plan:joint0:167.189468,joint1:58.256050,joint2:-179.999985,joint3:-180.000000,joint4:263.970703,joint5:0.000000
time:29158.517427987;plan:joint0:167.761124,joint1:57.868931,joint2:-179.999985,joint3:-180.000000,joint4:265.967926,joint5:0.000000
time:29158.521424863;plan:joint0:168.332779,joint1:57.481815,joint2:-179.999985,joint3:-180.000000,joint4:267.965118,joint5:0.000000
time:29158.525427605;plan:joint0:168.904419,joint1:57.094696,joint2:-179.999985,joint3:-180.000000,joint4:269.962311,joint5:0.000000
time:29158.529449624;plan:joint0:169.476074,joint1:56.707581,joint2:-179.999985,joint3:-180.000000,joint4:271.959534,joint5:0.000000
time:29158.533433928;plan:joint0:170.047729,joint1:56.320461,joint2:-179.999985,joint3:-180.000000,joint4:273.956726,joint5:0.000000
time:29158.537434994;plan:joint0:170.619385,joint1:55.933346,joint2:-179.999985,joint3:-180.000000,joint4:275.953949,joint5:0.000000
time:29158.541433546;plan:joint0:171.191040,joint1:55.546227,joint2:-179.999985,joint3:-180.000000,joint4:277.951141,joint5:0.000000
time:29158.545427907;plan:joint0:171.762680,joint1:55.159111,joint2:-179.999985,joint3:-180.000000,joint4:279.948334,joint5:0.000000
time:29158.549427297;plan:joint0:172.334335,joint1:54.771992,joint2:-179.999985,joint3:-180.000000,joint4:281.945557,joint5:0.000000
time:29158.553425849;plan:joint0:172.905991,joint1:54.384876,joint2:-179.999985,joint3:-180.000000,joint4:283.942749,joint5:0.000000
time:29158.557427752;plan:joint0:173.477646,joint1:53.997757,joint2:-179.999985,joint3:-180.000000,joint4:285.939941,joint5:0.000000
time:29158.561451447;plan:joint0:174.049301,joint1:53.610641,joint2:-179.999985,joint3:-180.000000,joint4:287.937164,joint5:0.000000
time:29158.565430722;plan:joint0:174.620941,joint1:53.223522,joint2:-179.999985,joint3:-180.000000,joint4:289.934357,joint5:0.000000
time:29158.569430950;plan:joint0:175.192596,joint1:52.836407,joint2:-179.999985,joint3:-180.000000,joint4:291.931580,joint5:0.000000
time:29158.573428664;plan:joint0:175.764252,joint1:52.449287,joint2:-179.999985,joint3:-180.000000,joint4:293.928772,joint5:0.000000
time:29158.577427216;plan:joint0:176.335907,joint1:52.062172,joint2:-179.999985,joint3:-180.000000,joint4:295.925964,joint5:0.000000
time:29158.581455939;plan:joint0:176.907562,joint1:51.675053,joint2:-179.999985,joint3:-180.000000,joint4:297.923187,joint5:0.000000
time:29158.585421805;plan:joint0:177.479202,joint1:51.287937,joint2:-179.999985,joint3:-180.000000,joint4:299.920380,joint5:0.000000
time:29158.589428738;plan:joint0:178.050858,joint1:50.900818,joint2:-179.999985,joint3:-180.000000,joint4:301.917603,joint5:0.000000
time:29158.593423937;plan:joint0:178.622513,joint1:50.513702,joint2:-179.999985,joint3:-180.000000,joint4:303.914795,joint5:0.000000
time:29158.597424165;plan:joint0:179.194168,joint1:50.126583,joint2:-179.999985,joint3:-180.000000,joint4:305.911987,joint5:0.000000
time:29158.601431098;plan:joint0:179.765823,joint1:49.739468,joint2:-179.999985,joint3:-180.000000,joint4:307.909210,joint5:0.000000
time:29158.605419593;plan:joint0:180.337463,joint1:49.352348,joint2:-179.999985,joint3:-180.000000,joint4:309.906403,joint5:0.000000
time:29158.609429878;plan:joint0:180.909119,joint1:48.965233,joint2:-179.999985,joint3:-180.000000,joint4:311.903625,joint5:0.000000
time:29158.613425915;plan:joint0:181.480774,joint1:48.578117,joint2:-179.999985,joint3:-180.000000,joint4:313.900818,joint5:0.000000
time:29158.617441229;plan:joint0:182.052429,joint1:48.190998,joint2:-179.999985,joint3:-180.000000,joint4:315.898010,joint5:0.000000
time:29158.621431400;plan:joint0:182.624084,joint1:47.803879,joint2:-179.999985,joint3:-180.000000,joint4:317.895233,joint5:0.000000
time:29158.625424923;plan:joint0:183.195724,joint1:47.416763,joint2:-179.999985,joint3:-180.000000,joint4:319.892426,joint5:0.000000
time:29158.629425151;plan:joint0:183.767380,joint1:47.029648,joint2:-179.999985,joint3:-180.000000,joint4:321.889648,joint5:0.000000
time:29158.633422865;plan:joint0:184.339035,joint1:46.642529,joint2:-179.999985,joint3:-180.000000,joint4:323.886841,joint5:0.000000
time:29158.637437341;plan:joint0:184.910690,joint1:46.255409,joint2:-179.999985,joint3:-180.000000,joint4:325.884033,joint5:0.000000
time:29158.641431702;plan:joint0:185.482330,joint1:45.868294,joint2:-179.999985,joint3:-180.000000,joint4:327.881256,joint5:0.000000
time:29158.645428578;plan:joint0:186.053986,joint1:45.481178,joint2:-179.999985,joint3:-180.000000,joint4:329.878448,joint5:0.000000
time:29158.649417072;plan:joint0:186.625641,joint1:45.094059,joint2:-179.999985,joint3:-180.000000,joint4:331.875671,joint5:0.000000
time:29158.653427357;plan:joint0:187.197296,joint1:44.706940,joint2:-179.999985,joint3:-180.000000,joint4:333.872864,joint5:0.000000
time:29158.657425071;plan:joint0:187.768951,joint1:44.319824,joint2:-179.999985,joint3:-180.000000,joint4:335.870056,joint5:0.000000
time:29158.661422784;plan:joint0:188.340591,joint1:43.932709,joint2:-179.999985,joint3:-180.000000,joint4:337.867279,joint5:0.000000
time:29158.665423850;plan:joint0:188.912247,joint1:43.545589,joint2:-179.999985,joint3:-180.000000,joint4:339.864471,joint5:0.000000
time:29158.669429945;plan:joint0:189.483902,joint1:43.158470,joint2:-179.999985,joint3:-180.000000,joint4:341.861694,joint5:0.000000
time:29158.673438554;plan:joint0:190.055557,joint1:42.771355,joint2:-179.999985,joint3:-180.000000,joint4:343.858887,joint5:0.000000
time:29158.677426210;plan:joint0:190.627213,joint1:42.384239,joint2:-179.999985,joint3:-180.000000,joint4:345.856079,joint5:0.000000
time:29158.681442362;plan:joint0:191.198853,joint1:41.997120,joint2:-179.999985,joint3:-180.000000,joint4:347.853302,joint5:0.000000
time:29158.685422476;plan:joint0:191.770508,joint1:41.610001,joint2:-179.999985,joint3:-180.000000,joint4:349.850494,joint5:0.000000
time:29158.689419351;plan:joint0:192.342163,joint1:41.222885,joint2:-179.999985,joint3:-180.000000,joint4:351.847717,joint5:0.000000
time:29158.693421255;plan:joint0:192.913818,joint1:40.835770,joint2:-179.999985,joint3:-180.000000,joint4:353.844910,joint5:0.000000
time:29158.697417293;plan:joint0:193.485474,joint1:40.448650,joint2:-179.999985,joint3:-180.000000,joint4:355.842102,joint5:0.000000
time:29158.701423388;plan:joint0:194.057114,joint1:40.061531,joint2:-179.999985,joint3:-180.000000,joint4:357.839325,joint5:0.000000
time:29158.705422778;plan:joint0:194.628769,joint1:39.674416,joint2:-179.999985,joint3:-180.000000,joint4:359.836517,joint5:0.000000
time:29158.709422167;plan:joint0:195.200424,joint1:39.287300,joint2:-179.999985,joint3:-180.000000,joint4:361.833710,joint5:0.000000
time:29158.713441672;plan:joint0:195.772079,joint1:38.900181,joint2:-179.999985,joint3:-180.000000,joint4:363.830933,joint5:0.000000
time:29158.717424300;plan:joint0:196.343735,joint1:38.513062,joint2:-179.999985,joint3:-180.000000,joint4:365.828125,joint5:0.000000
time:29158.721430394;plan:joint0:196.915375,joint1:38.125946,joint2:-179.999985,joint3:-180.000000,joint4:367.825348,joint5:0.000000
time:29158.725418889;plan:joint0:197.487030,joint1:37.738831,joint2:-179.999985,joint3:-180.000000,joint4:369.822540,joint5:0.000000
time:29158.729439231;plan:joint0:198.058685,joint1:37.351711,joint2:-179.999985,joint3:-180.000000,joint4:371.819733,joint5:0.000000
time:29158.733421021;plan:joint0:198.630341,joint1:36.964592,joint2:-179.999985,joint3:-180.000000,joint4:373.816956,joint5:0.000000
time:29158.737417059;plan:joint0:199.201996,joint1:36.577477,joint2:-179.999985,joint3:-180.000000,joint4:375.814148,joint5:0.000000
time:29158.741419801;plan:joint0:199.773636,joint1:36.190361,joint2:-179.999985,joint3:-180.000000,joint4:377.811371,joint5:0.000000
time:29158.745414162;plan:joint0:200.345291,joint1:35.803246,joint2:-179.999985,joint3:-180.000000,joint4:379.808563,joint5:0.000000
time:29158.749416905;plan:joint0:200.916946,joint1:35.416126,joint2:-179.999985,joint3:-180.000000,joint4:381.805756,joint5:0.000000
time:29158.753421323;plan:joint0:201.488602,joint1:35.029007,joint2:-179.999985,joint3:-180.000000,joint4:383.802979,joint5:0.000000
time:29158.757419874;plan:joint0:202.060257,joint1:34.641891,joint2:-179.999985,joint3:-180.000000,joint4:385.800171,joint5:0.000000
time:29158.761419264;plan:joint0:202.631897,joint1:34.254776,joint2:-179.999985,joint3:-180.000000,joint4:387.797363,joint5:0.000000
time:29158.765422844;plan:joint0:203.203552,joint1:33.867657,joint2:-179.999985,joint3:-180.000000,joint4:389.794586,joint5:0.000000
time:29158.769414691;plan:joint0:203.775208,joint1:33.480537,joint2:-179.999985,joint3:-180.000000,joint4:391.791779,joint5:0.000000
time:29158.773419110;plan:joint0:204.346863,joint1:33.093422,joint2:-179.999985,joint3:-180.000000,joint4:393.789001,joint5:0.000000
time:29158.777415147;plan:joint0:204.918518,joint1:32.706306,joint2:-179.999985,joint3:-180.000000,joint4:395.786194,joint5:0.000000
time:29158.781440518;plan:joint0:205.490158,joint1:32.319187,joint2:-179.999985,joint3:-180.000000,joint4:397.783386,joint5:0.000000
time:29158.785434041;plan:joint0:206.061813,joint1:31.932070,joint2:-179.999985,joint3:-180.000000,joint4:399.780609,joint5:0.000000
time:29158.789420022;plan:joint0:206.633469,joint1:31.544952,joint2:-179.999985,joint3:-180.000000,joint4:401.777802,joint5:0.000000
time:29158.793414383;plan:joint0:207.205124,joint1:31.157835,joint2:-179.999985,joint3:-180.000000,joint4:403.775024,joint5:0.000000
time:29158.797417125;plan:joint0:207.776779,joint1:30.770718,joint2:-179.999985,joint3:-180.000000,joint4:405.772217,joint5:0.000000
time:29158.801419868;plan:joint0:208.348419,joint1:30.383598,joint2:-179.999985,joint3:-180.000000,joint4:407.769409,joint5:0.000000
time:29158.805421772;plan:joint0:208.920074,joint1:29.996483,joint2:-179.999985,joint3:-180.000000,joint4:409.766632,joint5:0.000000
time:29158.809416133;plan:joint0:209.491730,joint1:29.609364,joint2:-179.999985,joint3:-180.000000,joint4:411.763824,joint5:0.000000
time:29158.813416361;plan:joint0:210.063385,joint1:29.222248,joint2:-179.999985,joint3:-180.000000,joint4:413.761047,joint5:0.000000
time:29158.817419103;plan:joint0:210.635040,joint1:28.835129,joint2:-179.999985,joint3:-180.000000,joint4:415.758240,joint5:0.000000
time:29158.821428550;plan:joint0:211.206680,joint1:28.448013,joint2:-179.999985,joint3:-180.000000,joint4:417.755432,joint5:0.000000
time:29158.825415369;plan:joint0:211.778336,joint1:28.060894,joint2:-179.999985,joint3:-180.000000,joint4:419.752655,joint5:0.000000
time:29158.829414759;plan:joint0:212.349991,joint1:27.673779,joint2:-179.999985,joint3:-180.000000,joint4:421.749847,joint5:0.000000
time:29158.833413311;plan:joint0:212.921646,joint1:27.286663,joint2:-179.999985,joint3:-180.000000,joint4:423.747070,joint5:0.000000
time:29158.837420243;plan:joint0:213.493286,joint1:26.899544,joint2:-179.999985,joint3:-180.000000,joint4:425.744263,joint5:0.000000
time:29158.841442262;plan:joint0:214.064941,joint1:26.512428,joint2:-179.999985,joint3:-180.000000,joint4:427.741455,joint5:0.000000
time:29158.845419861;plan:joint0:214.636597,joint1:26.125309,joint2:-179.999985,joint3:-180.000000,joint4:429.738678,joint5:0.000000
time:29158.849418413;plan:joint0:215.208252,joint1:25.738194,joint2:-179.999985,joint3:-180.000000,joint4:431.735870,joint5:0.000000
time:29158.853424508;plan:joint0:215.779907,joint1:25.351074,joint2:-179.999985,joint3:-180.000000,joint4:433.733093,joint5:0.000000
time:29158.857413841;plan:joint0:216.351547,joint1:24.963959,joint2:-179.999985,joint3:-180.000000,joint4:435.730286,joint5:0.000000
time:29158.861416582;plan:joint0:216.923203,joint1:24.576839,joint2:-179.999985,joint3:-180.000000,joint4:437.727478,joint5:0.000000
time:29158.865407591;plan:joint0:217.494858,joint1:24.189724,joint2:-179.999985,joint3:-180.000000,joint4:439.724701,joint5:0.000000
time:29158.869412847;plan:joint0:218.066513,joint1:23.802605,joint2:-179.999985,joint3:-180.000000,joint4:441.721893,joint5:0.000000
time:29158.873407209;plan:joint0:218.638168,joint1:23.415489,joint2:-179.999985,joint3:-180.000000,joint4:443.719086,joint5:0.000000
time:29158.877414141;plan:joint0:219.209808,joint1:23.028370,joint2:-179.999985,joint3:-180.000000,joint4:445.716309,joint5:0.000000
time:29158.881438674;plan:joint0:219.781464,joint1:22.641254,joint2:-179.999985,joint3:-180.000000,joint4:447.713501,joint5:0.000000
time:29158.885418788;plan:joint0:220.353119,joint1:22.254135,joint2:-179.999985,joint3:-180.000000,joint4:449.710724,joint5:0.000000
time:29158.889417340;plan:joint0:220.924774,joint1:21.867020,joint2:-179.999985,joint3:-180.000000,joint4:451.707916,joint5:0.000000
time:29158.893418406;plan:joint0:221.496429,joint1:21.479900,joint2:-179.999985,joint3:-180.000000,joint4:453.705109,joint5:0.000000
time:29158.897509148;plan:joint0:222.068069,joint1:21.092785,joint2:-179.999985,joint3:-180.000000,joint4:455.702332,joint5:0.000000
time:29158.901422214;plan:joint0:222.639725,joint1:20.705666,joint2:-179.999985,joint3:-180.000000,joint4:457.699524,joint5:0.000000
time:29158.905422442;plan:joint0:223.211380,joint1:20.318550,joint2:-179.999985,joint3:-180.000000,joint4:459.696747,joint5:0.000000
time:29158.909411775;plan:joint0:223.783035,joint1:19.931431,joint2:-179.999985,joint3:-180.000000,joint4:461.693939,joint5:0.000000
time:29158.913411165;plan:joint0:224.354691,joint1:19.544315,joint2:-179.999985,joint3:-180.000000,joint4:463.691132,joint5:0.000000
time:29158.917412231;plan:joint0:224.926331,joint1:19.157196,joint2:-179.999985,joint3:-180.000000,joint4:465.688354,joint5:0.000000
time:29158.921410783;plan:joint0:225.497986,joint1:18.770081,joint2:-179.999985,joint3:-180.000000,joint4:467.685547,joint5:0.000000
time:29158.925414363;plan:joint0:226.069641,joint1:18.382961,joint2:-179.999985,joint3:-180.000000,joint4:469.682770,joint5:0.000000
time:29158.929407886;plan:joint0:226.641296,joint1:17.995846,joint2:-179.999985,joint3:-180.000000,joint4:471.679962,joint5:0.000000
time:29158.933408953;plan:joint0:227.212936,joint1:17.608727,joint2:-179.999985,joint3:-180.000000,joint4:473.677155,joint5:0.000000
time:29158.937408342;plan:joint0:227.784592,joint1:17.221611,joint2:-179.999985,joint3:-180.000000,joint4:475.674377,joint5:0.000000
time:29158.941411923;plan:joint0:228.356247,joint1:16.834492,joint2:-179.999985,joint3:-180.000000,joint4:477.671570,joint5:0.000000
time:29158.945414665;plan:joint0:228.927902,joint1:16.447376,joint2:-179.999985,joint3:-180.000000,joint4:479.668793,joint5:0.000000
time:29158.949417407;plan:joint0:229.499557,joint1:16.060257,joint2:-179.999985,joint3:-180.000000,joint4:481.665985,joint5:0.000000
time:29158.953430207;plan:joint0:230.071198,joint1:15.673141,joint2:-179.999985,joint3:-180.000000,joint4:483.663177,joint5:0.000000
time:29158.957415348;plan:joint0:230.642853,joint1:15.286022,joint2:-179.999985,joint3:-180.000000,joint4:485.660400,joint5:0.000000
time:29158.961408033;plan:joint0:231.214508,joint1:14.898907,joint2:-179.999985,joint3:-180.000000,joint4:487.657593,joint5:0.000000
time:29158.965410776;plan:joint0:231.786163,joint1:14.511787,joint2:-179.999985,joint3:-180.000000,joint4:489.654816,joint5:0.000000
time:29158.969408489;plan:joint0:232.357819,joint1:14.124672,joint2:-179.999985,joint3:-180.000000,joint4:491.652008,joint5:0.000000
time:29158.973409555;plan:joint0:232.929459,joint1:13.737553,joint2:-179.999985,joint3:-180.000000,joint4:493.649200,joint5:0.000000
time:29158.977405593;plan:joint0:233.501114,joint1:13.350437,joint2:-179.999985,joint3:-180.000000,joint4:495.646423,joint5:0.000000
time:29158.981430126;plan:joint0:234.072769,joint1:12.963318,joint2:-179.999985,joint3:-180.000000,joint4:497.643616,joint5:0.000000
time:29158.985407725;plan:joint0:234.644424,joint1:12.576202,joint2:-179.999985,joint3:-180.000000,joint4:499.640839,joint5:0.000000
time:29158.989409629;plan:joint0:235.216080,joint1:12.189083,joint2:-179.999985,joint3:-180.000000,joint4:501.638031,joint5:0.000000
time:29158.993419914;plan:joint0:235.787720,joint1:11.801968,joint2:-179.999985,joint3:-180.000000,joint4:503.635254,joint5:0.000000
time:29158.997435228;plan:joint0:236.359375,joint1:11.414848,joint2:-179.999985,joint3:-180.000000,joint4:505.632446,joint5:0.000000
time:29159.001407799;plan:joint0:236.931030,joint1:11.027733,joint2:-179.999985,joint3:-180.000000,joint4:507.629639,joint5:0.000000
time:29159.005413894;plan:joint0:237.502686,joint1:10.640614,joint2:-179.999985,joint3:-180.000000,joint4:509.626862,joint5:0.000000
time:29159.009427531;plan:joint0:238.074341,joint1:10.253498,joint2:-179.999985,joint3:-180.000000,joint4:511.624054,joint5:0.000000
time:29159.013409321;plan:joint0:238.645981,joint1:9.866379,joint2:-179.999985,joint3:-180.000000,joint4:513.621277,joint5:0.000000
time:29159.017404520;plan:joint0:239.217636,joint1:9.479263,joint2:-179.999985,joint3:-180.000000,joint4:515.618469,joint5:0.000000
time:29159.021408939;plan:joint0:239.789291,joint1:9.092148,joint2:-179.999985,joint3:-180.000000,joint4:517.615662,joint5:0.000000
time:29159.025403300;plan:joint0:240.360947,joint1:8.705029,joint2:-179.999985,joint3:-180.000000,joint4:519.612854,joint5:0.000000
time:29159.029408557;plan:joint0:240.932587,joint1:8.317913,joint2:-179.999985,joint3:-180.000000,joint4:521.610046,joint5:0.000000
time:29159.033406271;plan:joint0:241.504242,joint1:7.930794,joint2:-179.999985,joint3:-180.000000,joint4:523.607239,joint5:0.000000
time:29159.037419908;plan:joint0:242.075897,joint1:7.543678,joint2:-179.999985,joint3:-180.000000,joint4:525.604492,joint5:0.000000
time:29159.041419298;plan:joint0:242.647552,joint1:7.156559,joint2:-179.999985,joint3:-180.000000,joint4:527.601685,joint5:0.000000
time:29159.045409469;plan:joint0:243.219208,joint1:6.769444,joint2:-179.999985,joint3:-180.000000,joint4:529.598877,joint5:0.000000
time:29159.049403830;plan:joint0:243.790848,joint1:6.382324,joint2:-179.999985,joint3:-180.000000,joint4:531.596069,joint5:0.000000
time:29159.053405734;plan:joint0:244.362503,joint1:5.995209,joint2:-179.999985,joint3:-180.000000,joint4:533.593262,joint5:0.000000
time:29159.057405123;plan:joint0:244.934158,joint1:5.608089,joint2:-179.999985,joint3:-180.000000,joint4:535.590515,joint5:0.000000
time:29159.061407027;plan:joint0:245.505814,joint1:5.220974,joint2:-179.999985,joint3:-180.000000,joint4:537.587708,joint5:0.000000
time:29159.065420665;plan:joint0:246.077469,joint1:4.833855,joint2:-179.999985,joint3:-180.000000,joint4:539.584900,joint5:0.000000
time:29159.069409160;plan:joint0:246.649109,joint1:4.446739,joint2:-179.999985,joint3:-180.000000,joint4:541.582092,joint5:0.000000
time:29159.073409388;plan:joint0:247.220764,joint1:4.059620,joint2:-179.999985,joint3:-180.000000,joint4:543.579285,joint5:0.000000
time:29159.077406263;plan:joint0:247.792419,joint1:3.672504,joint2:-179.999985,joint3:-180.000000,joint4:545.576538,joint5:0.000000
time:29159.081446720;plan:joint0:248.364075,joint1:3.285385,joint2:-179.999985,joint3:-180.000000,joint4:547.573730,joint5:0.000000
time:29159.085409234;plan:joint0:248.935730,joint1:2.898270,joint2:-179.999985,joint3:-180.000000,joint4:549.570923,joint5:0.000000
time:29159.089417004;plan:joint0:249.507370,joint1:2.511150,joint2:-179.999985,joint3:-180.000000,joint4:551.568115,joint5:0.000000
time:29159.093406337;plan:joint0:250.079025,joint1:2.124035,joint2:-179.999985,joint3:-180.000000,joint4:553.565308,joint5:0.000000
time:29159.097426679;plan:joint0:250.650681,joint1:1.736916,joint2:-179.999985,joint3:-180.000000,joint4:555.562561,joint5:0.000000
time:29159.101405955;plan:joint0:251.222336,joint1:1.349800,joint2:-179.999985,joint3:-180.000000,joint4:557.559753,joint5:0.000000
time:29159.105398640;plan:joint0:251.793991,joint1:0.962681,joint2:-179.999985,joint3:-180.000000,joint4:559.556946,joint5:0.000000
time:29159.109402221;plan:joint0:252.365631,joint1:0.575565,joint2:-179.999985,joint3:-180.000000,joint4:561.554138,joint5:0.000000
time:29159.113399096;plan:joint0:252.937286,joint1:0.188446,joint2:-179.999985,joint3:-180.000000,joint4:563.551331,joint5:0.000000
time:29159.117404353;plan:joint0:253.508942,joint1:-0.198669,joint2:-179.999985,joint3:-180.000000,joint4:565.548584,joint5:0.000000
time:29159.121418828;plan:joint0:254.080597,joint1:-0.585789,joint2:-179.999985,joint3:-180.000000,joint4:567.545776,joint5:0.000000
time:29159.125406485;plan:joint0:254.652252,joint1:-0.972904,joint2:-179.999985,joint3:-180.000000,joint4:569.542969,joint5:0.000000
time:29159.129400846;plan:joint0:255.223892,joint1:-1.360023,joint2:-179.999985,joint3:-180.000000,joint4:571.540161,joint5:0.000000
time:29159.133410293;plan:joint0:255.795547,joint1:-1.747143,joint2:-179.999985,joint3:-180.000000,joint4:573.537354,joint5:0.000000
time:29159.137406331;plan:joint0:256.367188,joint1:-2.134258,joint2:-179.999985,joint3:-180.000000,joint4:575.534607,joint5:0.000000
time:29159.141409073;plan:joint0:256.938843,joint1:-2.521374,joint2:-179.999985,joint3:-180.000000,joint4:577.531799,joint5:0.000000
time:29159.145400082;plan:joint0:257.510498,joint1:-2.908489,joint2:-179.999985,joint3:-180.000000,joint4:579.528992,joint5:0.000000
time:29159.149399472;plan:joint0:258.082153,joint1:-3.295612,joint2:-179.999985,joint3:-180.000000,joint4:581.526184,joint5:0.000000
time:29159.153399700;plan:joint0:258.653809,joint1:-3.682728,joint2:-179.999985,joint3:-180.000000,joint4:583.523376,joint5:0.000000
time:29159.157401604;plan:joint0:259.225464,joint1:-4.069843,joint2:-179.999985,joint3:-180.000000,joint4:585.520630,joint5:0.000000
time:29159.161397641;plan:joint0:259.797119,joint1:-4.456959,joint2:-179.999985,joint3:-180.000000,joint4:587.517822,joint5:0.000000
time:29159.165398707;plan:joint0:260.368774,joint1:-4.844082,joint2:-179.999985,joint3:-180.000000,joint4:589.515015,joint5:0.000000
time:29159.169398935;plan:joint0:260.940430,joint1:-5.231197,joint2:-179.999985,joint3:-180.000000,joint4:591.512207,joint5:0.000000
time:29159.173402515;plan:joint0:261.512085,joint1:-5.618313,joint2:-179.999985,joint3:-180.000000,joint4:593.509399,joint5:0.000000
time:29159.177424534;plan:joint0:262.083710,joint1:-6.005428,joint2:-179.999985,joint3:-180.000000,joint4:595.506653,joint5:0.000000
time:29159.181427276;plan:joint0:262.655365,joint1:-6.392551,joint2:-179.999985,joint3:-180.000000,joint4:597.503845,joint5:0.000000
time:29159.185404037;plan:joint0:263.227020,joint1:-6.779667,joint2:-179.999985,joint3:-180.000000,joint4:599.501038,joint5:0.000000
time:29159.189400075;plan:joint0:263.798676,joint1:-7.166782,joint2:-179.999985,joint3:-180.000000,joint4:601.498230,joint5:0.000000
time:29159.193397789;plan:joint0:264.370331,joint1:-7.553898,joint2:-179.999985,joint3:-180.000000,joint4:603.495422,joint5:0.000000
time:29159.197424836;plan:joint0:264.941986,joint1:-7.941013,joint2:-179.999985,joint3:-180.000000,joint4:605.492676,joint5:0.000000
time:29159.201552454;plan:joint0:265.513641,joint1:-8.328136,joint2:-179.999985,joint3:-180.000000,joint4:607.489868,joint5:0.000000
time:29159.205540949;plan:joint0:266.085297,joint1:-8.715252,joint2:-179.999985,joint3:-180.000000,joint4:609.487061,joint5:0.000000
time:29159.209533634;plan:joint0:266.656952,joint1:-9.102367,joint2:-179.999985,joint3:-180.000000,joint4:611.484253,joint5:0.000000
time:29159.213533024;plan:joint0:267.228607,joint1:-9.489483,joint2:-179.999985,joint3:-180.000000,joint4:613.481445,joint5:0.000000
time:29159.217524871;plan:joint0:267.800232,joint1:-9.876606,joint2:-179.999985,joint3:-180.000000,joint4:615.478699,joint5:0.000000
time:29159.221509175;plan:joint0:268.371887,joint1:-10.263721,joint2:-179.999985,joint3:-180.000000,joint4:617.475891,joint5:0.000000
time:29159.225459955;plan:joint0:268.943542,joint1:-10.650837,joint2:-179.999985,joint3:-180.000000,joint4:619.473083,joint5:0.000000
time:29159.229461860;plan:joint0:269.515198,joint1:-11.037952,joint2:-179.999985,joint3:-180.000000,joint4:621.470276,joint5:0.000000
time:29159.233493935;plan:joint0:270.086853,joint1:-11.425076,joint2:-179.999985,joint3:-180.000000,joint4:623.467468,joint5:0.000000
time:29159.237418735;plan:joint0:270.658508,joint1:-11.812191,joint2:-179.999985,joint3:-180.000000,joint4:625.464722,joint5:0.000000
time:29159.241399686;plan:joint0:271.230164,joint1:-12.199306,joint2:-179.999985,joint3:-180.000000,joint4:627.461914,joint5:0.000000
time:29159.245399914;plan:joint0:271.801819,joint1:-12.586422,joint2:-179.999985,joint3:-180.000000,joint4:629.459106,joint5:0.000000
time:29159.249375838;plan:joint0:272.373474,joint1:-12.973545,joint2:-179.999985,joint3:-180.000000,joint4:631.456299,joint5:0.000000
time:29159.253381094;plan:joint0:272.945099,joint1:-13.360661,joint2:-179.999985,joint3:-180.000000,joint4:633.453491,joint5:0.000000
time:29159.257374617;plan:joint0:273.516754,joint1:-13.747776,joint2:-179.999985,joint3:-180.000000,joint4:635.450745,joint5:0.000000
time:29159.261376521;plan:joint0:274.088409,joint1:-14.134892,joint2:-179.999985,joint3:-180.000000,joint4:637.447937,joint5:0.000000
time:29159.265368368;plan:joint0:274.660065,joint1:-14.522015,joint2:-179.999985,joint3:-180.000000,joint4:639.445129,joint5:0.000000
time:29159.269371110;plan:joint0:275.231720,joint1:-14.909130,joint2:-179.999985,joint3:-180.000000,joint4:641.442322,joint5:0.000000
time:29159.273364633;plan:joint0:275.803375,joint1:-15.296246,joint2:-179.999985,joint3:-180.000000,joint4:643.439514,joint5:0.000000
time:29159.277365699;plan:joint0:276.375031,joint1:-15.683361,joint2:-179.999985,joint3:-180.000000,joint4:645.436707,joint5:0.000000
time:29159.281385204;plan:joint0:276.946686,joint1:-16.070484,joint2:-179.999985,joint3:-180.000000,joint4:647.433960,joint5:0.000000
time:29159.285366155;plan:joint0:277.518341,joint1:-16.457600,joint2:-179.999985,joint3:-180.000000,joint4:649.431152,joint5:0.000000
time:29159.289382307;plan:joint0:278.089996,joint1:-16.844715,joint2:-179.999985,joint3:-180.000000,joint4:651.428345,joint5:0.000000
time:29159.293357392;plan:joint0:278.661621,joint1:-17.231831,joint2:-179.999985,joint3:-180.000000,joint4:653.425537,joint5:0.000000
time:29159.297349239;plan:joint0:279.233276,joint1:-17.618954,joint2:-179.999985,joint3:-180.000000,joint4:655.422729,joint5:0.000000
time:29159.301351982;plan:joint0:279.804932,joint1:-18.006069,joint2:-179.999985,joint3:-180.000000,joint4:657.419983,joint5:0.000000
time:29159.305344667;plan:joint0:280.376587,joint1:-18.393185,joint2:-179.999985,joint3:-180.000000,joint4:659.417175,joint5:0.000000
time:29159.309346571;plan:joint0:280.948242,joint1:-18.780300,joint2:-179.999985,joint3:-180.000000,joint4:661.414368,joint5:0.000000
time:29159.313345123;plan:joint0:281.519897,joint1:-19.167423,joint2:-179.999985,joint3:-180.000000,joint4:663.411560,joint5:0.000000
time:29159.317342837;plan:joint0:282.091553,joint1:-19.554539,joint2:-179.999985,joint3:-180.000000,joint4:665.408752,joint5:0.000000
time:29159.321345579;plan:joint0:282.663208,joint1:-19.941654,joint2:-179.999985,joint3:-180.000000,joint4:667.406006,joint5:0.000000
time:29159.325359216;plan:joint0:283.234863,joint1:-20.328770,joint2:-179.999985,joint3:-180.000000,joint4:669.403198,joint5:0.000000
time:29159.329356092;plan:joint0:283.806519,joint1:-20.715893,joint2:-179.999985,joint3:-180.000000,joint4:671.400391,joint5:0.000000
time:29159.333353806;plan:joint0:284.378143,joint1:-21.103008,joint2:-179.999985,joint3:-180.000000,joint4:673.397583,joint5:0.000000
time:29159.337344815;plan:joint0:284.949799,joint1:-21.490124,joint2:-179.999985,joint3:-180.000000,joint4:675.394775,joint5:0.000000
time:29159.341347557;plan:joint0:285.521454,joint1:-21.877239,joint2:-179.999985,joint3:-180.000000,joint4:677.392029,joint5:0.000000
time:29159.345365385;plan:joint0:286.093109,joint1:-22.264362,joint2:-179.999985,joint3:-180.000000,joint4:679.389221,joint5:0.000000
time:29159.349345499;plan:joint0:286.664764,joint1:-22.651478,joint2:-179.999985,joint3:-180.000000,joint4:681.386414,joint5:0.000000
time:29159.353341536;plan:joint0:287.236420,joint1:-23.038593,joint2:-179.999985,joint3:-180.000000,joint4:683.383606,joint5:0.000000
time:29159.357344278;plan:joint0:287.808075,joint1:-23.425709,joint2:-179.999985,joint3:-180.000000,joint4:685.380798,joint5:0.000000
time:29159.361341153;plan:joint0:288.379730,joint1:-23.812832,joint2:-179.999985,joint3:-180.000000,joint4:687.378052,joint5:0.000000
time:29159.365348924;plan:joint0:288.951385,joint1:-24.199947,joint2:-179.999985,joint3:-180.000000,joint4:689.375244,joint5:0.000000
time:29159.369339933;plan:joint0:289.523041,joint1:-24.587063,joint2:-179.999985,joint3:-180.000000,joint4:691.372437,joint5:0.000000
time:29159.373344351;plan:joint0:290.094696,joint1:-24.974178,joint2:-179.999985,joint3:-180.000000,joint4:693.369629,joint5:0.000000
time:29159.377353798;plan:joint0:290.666321,joint1:-25.361301,joint2:-179.999985,joint3:-180.000000,joint4:695.366821,joint5:0.000000
time:29159.381367436;plan:joint0:291.237976,joint1:-25.748417,joint2:-179.999985,joint3:-180.000000,joint4:697.364075,joint5:0.000000
time:29159.385342521;plan:joint0:291.809631,joint1:-26.135532,joint2:-179.999985,joint3:-180.000000,joint4:699.361267,joint5:0.000000
time:29159.389343587;plan:joint0:292.381287,joint1:-26.522648,joint2:-179.999985,joint3:-180.000000,joint4:701.358459,joint5:0.000000
time:29159.393346329;plan:joint0:292.952942,joint1:-26.909763,joint2:-179.999985,joint3:-180.000000,joint4:703.355652,joint5:0.000000
time:29159.397343205;plan:joint0:293.524597,joint1:-27.296886,joint2:-179.999985,joint3:-180.000000,joint4:705.352844,joint5:0.000000
time:29159.401359357;plan:joint0:294.096252,joint1:-27.684002,joint2:-179.999985,joint3:-180.000000,joint4:707.350098,joint5:0.000000
time:29159.405342823;plan:joint0:294.667908,joint1:-28.071117,joint2:-179.999985,joint3:-180.000000,joint4:709.347290,joint5:0.000000
time:29159.409342213;plan:joint0:295.239563,joint1:-28.458233,joint2:-179.999985,joint3:-180.000000,joint4:711.344482,joint5:0.000000
time:29159.413341603;plan:joint0:295.811218,joint1:-28.845356,joint2:-179.999985,joint3:-180.000000,joint4:713.341675,joint5:0.000000
time:29159.417341831;plan:joint0:296.382843,joint1:-29.232471,joint2:-179.999985,joint3:-180.000000,joint4:715.338867,joint5:0.000000
time:29159.421370554;plan:joint0:296.954498,joint1:-29.619587,joint2:-179.999985,joint3:-180.000000,joint4:717.336121,joint5:0.000000
time:29159.425346477;plan:joint0:297.526154,joint1:-30.006702,joint2:-179.999985,joint3:-180.000000,joint4:719.333313,joint5:0.000000
time:29159.429356762;plan:joint0:298.097809,joint1:-30.393826,joint2:-179.999985,joint3:-180.000000,joint4:721.330505,joint5:0.000000
time:29159.433341905;plan:joint0:298.669464,joint1:-30.780941,joint2:-179.999985,joint3:-180.000000,joint4:723.327698,joint5:0.000000
time:29159.437348837;plan:joint0:299.241119,joint1:-31.168056,joint2:-179.999985,joint3:-180.000000,joint4:725.324890,joint5:0.000000
time:29159.441347389;plan:joint0:299.812775,joint1:-31.555172,joint2:-179.999985,joint3:-180.000000,joint4:727.322144,joint5:0.000000
time:29159.445343427;plan:joint0:300.384430,joint1:-31.942295,joint2:-179.999985,joint3:-180.000000,joint4:729.319336,joint5:0.000000
time:29159.449338626;plan:joint0:300.956085,joint1:-32.329411,joint2:-179.999985,joint3:-180.000000,joint4:731.316528,joint5:0.000000
time:29159.453342207;plan:joint0:301.527710,joint1:-32.716526,joint2:-179.999985,joint3:-180.000000,joint4:733.313721,joint5:0.000000
time:29159.457359195;plan:joint0:302.099365,joint1:-33.103642,joint2:-179.999985,joint3:-180.000000,joint4:735.310913,joint5:0.000000
time:29159.461343500;plan:joint0:302.671021,joint1:-33.490765,joint2:-179.999985,joint3:-180.000000,joint4:737.308167,joint5:0.000000
time:29159.465335347;plan:joint0:303.242676,joint1:-33.877880,joint2:-179.999985,joint3:-180.000000,joint4:739.305359,joint5:0.000000
time:29159.469342279;plan:joint0:303.814331,joint1:-34.264996,joint2:-179.999985,joint3:-180.000000,joint4:741.302551,joint5:0.000000
time:29159.473349212;plan:joint0:304.385986,joint1:-34.652111,joint2:-179.999985,joint3:-180.000000,joint4:743.299744,joint5:0.000000
time:29159.477343574;plan:joint0:304.957642,joint1:-35.039234,joint2:-179.999985,joint3:-180.000000,joint4:745.296936,joint5:0.000000
time:29159.481358887;plan:joint0:305.529297,joint1:-35.426350,joint2:-179.999985,joint3:-180.000000,joint4:747.294189,joint5:0.000000
time:29159.485340677;plan:joint0:306.100952,joint1:-35.813465,joint2:-179.999985,joint3:-180.000000,joint4:749.291382,joint5:0.000000
time:29159.489339229;plan:joint0:306.672607,joint1:-36.200581,joint2:-179.999985,joint3:-180.000000,joint4:751.288574,joint5:0.000000
time:29159.493339457;plan:joint0:307.244232,joint1:-36.587704,joint2:-179.999985,joint3:-180.000000,joint4:753.285767,joint5:0.000000
time:29159.497336333;plan:joint0:307.815887,joint1:-36.974819,joint2:-179.999985,joint3:-180.000000,joint4:755.283020,joint5:0.000000
time:29159.501341589;plan:joint0:308.387543,joint1:-37.361935,joint2:-179.999985,joint3:-180.000000,joint4:757.280212,joint5:0.000000
time:29159.505335112;plan:joint0:308.959198,joint1:-37.749050,joint2:-179.999985,joint3:-180.000000,joint4:759.277405,joint5:0.000000
time:29159.509336179;plan:joint0:309.530853,joint1:-38.136173,joint2:-179.999985,joint3:-180.000000,joint4:761.274597,joint5:0.000000
time:29159.513354845;plan:joint0:310.102509,joint1:-38.523289,joint2:-179.999985,joint3:-180.000000,joint4:763.271790,joint5:0.000000
time:29159.517344177;plan:joint0:310.674164,joint1:-38.910404,joint2:-179.999985,joint3:-180.000000,joint4:765.269043,joint5:0.000000
time:29159.521339377;plan:joint0:311.245819,joint1:-39.297520,joint2:-179.999985,joint3:-180.000000,joint4:767.266235,joint5:0.000000
time:29159.525338767;plan:joint0:311.817474,joint1:-39.684643,joint2:-179.999985,joint3:-180.000000,joint4:769.263428,joint5:0.000000
time:29159.529333966;plan:joint0:312.389130,joint1:-40.071758,joint2:-179.999985,joint3:-180.000000,joint4:771.260620,joint5:0.000000
time:29159.533336708;plan:joint0:312.960754,joint1:-40.458874,joint2:-179.999985,joint3:-180.000000,joint4:773.257813,joint5:0.000000
time:29159.537334422;plan:joint0:313.532410,joint1:-40.845989,joint2:-179.999985,joint3:-180.000000,joint4:775.255066,joint5:0.000000
time:29159.541334650;plan:joint0:314.104065,joint1:-41.233112,joint2:-179.999985,joint3:-180.000000,joint4:777.252258,joint5:0.000000
time:29159.545334040;plan:joint0:314.675720,joint1:-41.620228,joint2:-179.999985,joint3:-180.000000,joint4:779.249451,joint5:0.000000
time:29159.549334268;plan:joint0:315.247375,joint1:-42.007343,joint2:-179.999985,joint3:-180.000000,joint4:781.246643,joint5:0.000000
time:29159.553331982;plan:joint0:315.819031,joint1:-42.394459,joint2:-179.999985,joint3:-180.000000,joint4:783.243835,joint5:0.000000
time:29159.557338075;plan:joint0:316.390686,joint1:-42.781582,joint2:-179.999985,joint3:-180.000000,joint4:785.241089,joint5:0.000000
time:29159.561341656;plan:joint0:316.962341,joint1:-43.168697,joint2:-179.999985,joint3:-180.000000,joint4:787.238281,joint5:0.000000
time:29159.565333503;plan:joint0:317.533997,joint1:-43.555813,joint2:-179.999985,joint3:-180.000000,joint4:789.235474,joint5:0.000000
time:29159.569358036;plan:joint0:318.105652,joint1:-43.942928,joint2:-179.999985,joint3:-180.000000,joint4:791.232666,joint5:0.000000
time:29159.573337311;plan:joint0:318.677277,joint1:-44.330044,joint2:-179.999985,joint3:-180.000000,joint4:793.229858,joint5:0.000000
time:29159.577340892;plan:joint0:319.248932,joint1:-44.717167,joint2:-179.999985,joint3:-180.000000,joint4:795.227051,joint5:0.000000
time:29159.581355367;plan:joint0:319.820587,joint1:-45.104282,joint2:-179.999985,joint3:-180.000000,joint4:797.224304,joint5:0.000000
time:29159.585332967;plan:joint0:320.392242,joint1:-45.491398,joint2:-179.999985,joint3:-180.000000,joint4:799.221497,joint5:0.000000
time:29159.589333195;plan:joint0:320.963898,joint1:-45.878513,joint2:-179.999985,joint3:-180.000000,joint4:801.218689,joint5:0.000000
time:29159.593330070;plan:joint0:321.535553,joint1:-46.265636,joint2:-179.999985,joint3:-180.000000,joint4:803.215881,joint5:0.000000
time:29159.597334489;plan:joint0:322.107208,joint1:-46.652752,joint2:-179.999985,joint3:-180.000000,joint4:805.213074,joint5:0.000000
time:29159.601334717;plan:joint0:322.678864,joint1:-47.039867,joint2:-179.999985,joint3:-180.000000,joint4:807.210327,joint5:0.000000
time:29159.605359250;plan:joint0:323.250519,joint1:-47.426983,joint2:-179.999985,joint3:-180.000000,joint4:809.207520,joint5:0.000000
time:29159.609334335;plan:joint0:323.822144,joint1:-47.814106,joint2:-179.999985,joint3:-180.000000,joint4:811.204712,joint5:0.000000
time:29159.613344620;plan:joint0:324.393799,joint1:-48.201221,joint2:-179.999985,joint3:-180.000000,joint4:813.201904,joint5:0.000000
time:29159.617338981;plan:joint0:324.965454,joint1:-48.588337,joint2:-179.999985,joint3:-180.000000,joint4:815.199097,joint5:0.000000
time:29159.621334181;plan:joint0:325.537109,joint1:-48.975452,joint2:-179.999985,joint3:-180.000000,joint4:817.196350,joint5:0.000000
time:29159.625349494;plan:joint0:326.108765,joint1:-49.362576,joint2:-179.999985,joint3:-180.000000,joint4:819.193542,joint5:0.000000
time:29159.629336313;plan:joint0:326.680420,joint1:-49.749691,joint2:-179.999985,joint3:-180.000000,joint4:821.190735,joint5:0.000000
time:29159.633329836;plan:joint0:327.252075,joint1:-50.136806,joint2:-179.999985,joint3:-180.000000,joint4:823.187927,joint5:0.000000
time:29159.637338445;plan:joint0:327.823730,joint1:-50.523922,joint2:-179.999985,joint3:-180.000000,joint4:825.185120,joint5:0.000000
time:29159.641335321;plan:joint0:328.395386,joint1:-50.911045,joint2:-179.999985,joint3:-180.000000,joint4:827.182373,joint5:0.000000
time:29159.645338063;plan:joint0:328.967041,joint1:-51.298161,joint2:-179.999985,joint3:-180.000000,joint4:829.179565,joint5:0.000000
time:29159.649329072;plan:joint0:329.538666,joint1:-51.685276,joint2:-179.999985,joint3:-180.000000,joint4:831.176758,joint5:0.000000
time:29159.653336005;plan:joint0:330.110321,joint1:-52.072392,joint2:-179.999985,joint3:-180.000000,joint4:833.173950,joint5:0.000000
time:29159.657336232;plan:joint0:330.681976,joint1:-52.459515,joint2:-179.999985,joint3:-180.000000,joint4:835.171143,joint5:0.000000
time:29159.661333945;plan:joint0:331.253632,joint1:-52.846630,joint2:-179.999985,joint3:-180.000000,joint4:837.168396,joint5:0.000000
time:29159.665330821;plan:joint0:331.825287,joint1:-53.233746,joint2:-179.999985,joint3:-180.000000,joint4:839.165588,joint5:0.000000
time:29159.669328535;plan:joint0:332.396942,joint1:-53.620861,joint2:-179.999985,joint3:-180.000000,joint4:841.162781,joint5:0.000000
time:29159.673325410;plan:joint0:332.968597,joint1:-54.007984,joint2:-179.999985,joint3:-180.000000,joint4:843.159973,joint5:0.000000
time:29159.677332343;plan:joint0:333.540253,joint1:-54.395100,joint2:-179.999985,joint3:-180.000000,joint4:845.157166,joint5:0.000000
time:29159.681371961;plan:joint0:334.111908,joint1:-54.782215,joint2:-179.999985,joint3:-180.000000,joint4:847.154419,joint5:0.000000
time:29159.685336151;plan:joint0:334.683563,joint1:-55.169331,joint2:-179.999985,joint3:-180.000000,joint4:849.151611,joint5:0.000000
time:29159.689328837;plan:joint0:335.255188,joint1:-55.556454,joint2:-179.999985,joint3:-180.000000,joint4:851.148804,joint5:0.000000
time:29159.693329903;plan:joint0:335.826843,joint1:-55.943569,joint2:-179.999985,joint3:-180.000000,joint4:853.145996,joint5:0.000000
time:29159.697329293;plan:joint0:336.398499,joint1:-56.330685,joint2:-179.999985,joint3:-180.000000,joint4:855.143188,joint5:0.000000
time:29159.701336225;plan:joint0:336.970154,joint1:-56.717800,joint2:-179.999985,joint3:-180.000000,joint4:857.140442,joint5:0.000000
time:29159.705330587;plan:joint0:337.541809,joint1:-57.104923,joint2:-179.999985,joint3:-180.000000,joint4:859.137634,joint5:0.000000
time:29159.709328300;plan:joint0:338.113464,joint1:-57.492039,joint2:-179.999985,joint3:-180.000000,joint4:861.134827,joint5:0.000000
time:29159.713332719;plan:joint0:338.685120,joint1:-57.879154,joint2:-179.999985,joint3:-180.000000,joint4:863.132019,joint5:0.000000
time:29159.717331271;plan:joint0:339.256775,joint1:-58.266270,joint2:-179.999985,joint3:-180.000000,joint4:865.129211,joint5:0.000000
time:29159.721326470;plan:joint0:339.828430,joint1:-58.653393,joint2:-179.999985,joint3:-180.000000,joint4:867.126465,joint5:0.000000
time:29159.725328374;plan:joint0:340.400055,joint1:-59.040508,joint2:-179.999985,joint3:-180.000000,joint4:869.123657,joint5:0.000000
time:29159.729325250;plan:joint0:340.971710,joint1:-59.427624,joint2:-179.999985,joint3:-180.000000,joint4:871.120850,joint5:0.000000
time:29159.733329668;plan:joint0:341.543365,joint1:-59.814739,joint2:-179.999985,joint3:-180.000000,joint4:873.118042,joint5:0.000000
time:29159.737346658;plan:joint0:342.115021,joint1:-60.201862,joint2:-179.999985,joint3:-180.000000,joint4:875.115234,joint5:0.000000
time:29159.741332639;plan:joint0:342.686676,joint1:-60.588978,joint2:-179.999985,joint3:-180.000000,joint4:877.112488,joint5:0.000000
time:29159.745330352;plan:joint0:343.258331,joint1:-60.976093,joint2:-179.999985,joint3:-180.000000,joint4:879.109680,joint5:0.000000
time:29159.749326390;plan:joint0:343.829987,joint1:-61.363209,joint2:-179.999985,joint3:-180.000000,joint4:881.106873,joint5:0.000000
time:29159.753323265;plan:joint0:344.401642,joint1:-61.750324,joint2:-179.999985,joint3:-180.000000,joint4:883.104065,joint5:0.000000
time:29159.757330197;plan:joint0:344.973297,joint1:-62.137447,joint2:-179.999985,joint3:-180.000000,joint4:885.101257,joint5:0.000000
time:29159.761327911;plan:joint0:345.544952,joint1:-62.524563,joint2:-179.999985,joint3:-180.000000,joint4:887.098511,joint5:0.000000
time:29159.765373396;plan:joint0:346.116577,joint1:-62.911667,joint2:-179.999985,joint3:-180.000000,joint4:889.095642,joint5:0.000000
time:29159.769369434;plan:joint0:346.688080,joint1:-63.298695,joint2:-179.999985,joint3:-180.000000,joint4:891.092407,joint5:0.000000
time:29159.773372176;plan:joint0:347.259399,joint1:-63.685570,joint2:-179.999985,joint3:-180.000000,joint4:893.088318,joint5:0.000000
time:29159.777368213;plan:joint0:347.830353,joint1:-64.072212,joint2:-179.999985,joint3:-180.000000,joint4:895.083069,joint5:0.000000
time:29159.781388556;plan:joint0:348.400848,joint1:-64.458549,joint2:-179.999985,joint3:-180.000000,joint4:897.076294,joint5:0.000000
time:29159.785371184;plan:joint0:348.970764,joint1:-64.844505,joint2:-179.999985,joint3:-180.000000,joint4:899.067444,joint5:0.000000
time:29159.789388174;plan:joint0:349.540039,joint1:-65.229996,joint2:-179.999985,joint3:-180.000000,joint4:901.056274,joint5:0.000000
time:29159.793386725;plan:joint0:350.108490,joint1:-65.614952,joint2:-179.999985,joint3:-180.000000,joint4:903.042358,joint5:0.000000
time:29159.797408744;plan:joint0:350.676025,joint1:-65.999290,joint2:-179.999985,joint3:-180.000000,joint4:905.025208,joint5:0.000000
time:29159.801370420;plan:joint0:351.242554,joint1:-66.382935,joint2:-179.999985,joint3:-180.000000,joint4:907.004517,joint5:0.000000
time:29159.805368971;plan:joint0:351.807953,joint1:-66.765816,joint2:-179.999985,joint3:-180.000000,joint4:908.979858,joint5:0.000000
time:29159.809371714;plan:joint0:352.372101,joint1:-67.147858,joint2:-179.999985,joint3:-180.000000,joint4:910.950867,joint5:0.000000
time:29159.813366913;plan:joint0:352.934906,joint1:-67.528969,joint2:-179.999985,joint3:-180.000000,joint4:912.917114,joint5:0.000000
time:29159.817366303;plan:joint0:353.496216,joint1:-67.909088,joint2:-179.999985,joint3:-180.000000,joint4:914.878174,joint5:0.000000
time:29159.821369045;plan:joint0:354.055939,joint1:-68.288124,joint2:-179.999985,joint3:-180.000000,joint4:916.833740,joint5:0.000000
time:29159.825361730;plan:joint0:354.613953,joint1:-68.666016,joint2:-179.999985,joint3:-180.000000,joint4:918.783325,joint5:0.000000
time:29159.829373692;plan:joint0:355.170166,joint1:-69.042679,joint2:-179.999985,joint3:-180.000000,joint4:920.726563,joint5:0.000000
time:29159.833363863;plan:joint0:355.724457,joint1:-69.418030,joint2:-179.999985,joint3:-180.000000,joint4:922.663086,joint5:0.000000
time:29159.837374148;plan:joint0:356.276703,joint1:-69.792007,joint2:-179.999985,joint3:-180.000000,joint4:924.592468,joint5:0.000000
time:29159.841381919;plan:joint0:356.826782,joint1:-70.164520,joint2:-179.999985,joint3:-180.000000,joint4:926.514343,joint5:0.000000
time:29159.845372928;plan:joint0:357.374603,joint1:-70.535492,joint2:-179.999985,joint3:-180.000000,joint4:928.428284,joint5:0.000000
time:29159.849386565;plan:joint0:357.920044,joint1:-70.904861,joint2:-179.999985,joint3:-180.000000,joint4:930.333862,joint5:0.000000
time:29159.853366679;plan:joint0:358.462982,joint1:-71.272537,joint2:-179.999985,joint3:-180.000000,joint4:932.230774,joint5:0.000000
time:29159.857366907;plan:joint0:359.003326,joint1:-71.638443,joint2:-179.999985,joint3:-180.000000,joint4:934.118591,joint5:0.000000
time:29159.861364619;plan:joint0:359.540924,joint1:-72.002510,joint2:-179.999985,joint3:-180.000000,joint4:935.996887,joint5:0.000000
time:29159.865359819;plan:joint0:360.075714,joint1:-72.364662,joint2:-179.999985,joint3:-180.000000,joint4:937.865234,joint5:0.000000
time:29159.869366752;plan:joint0:360.607544,joint1:-72.724808,joint2:-179.999985,joint3:-180.000000,joint4:939.723328,joint5:0.000000
time:29159.873362789;plan:joint0:361.136292,joint1:-73.082886,joint2:-179.999985,joint3:-180.000000,joint4:941.570679,joint5:0.000000
time:29159.877366370;plan:joint0:361.661896,joint1:-73.438812,joint2:-179.999985,joint3:-180.000000,joint4:943.406982,joint5:0.000000
time:29159.881381683;plan:joint0:362.184204,joint1:-73.792511,joint2:-179.999985,joint3:-180.000000,joint4:945.231750,joint5:0.000000
time:29159.885370178;plan:joint0:362.703094,joint1:-74.143906,joint2:-179.999985,joint3:-180.000000,joint4:947.044678,joint5:0.000000
time:29159.889362863;plan:joint0:363.218506,joint1:-74.492920,joint2:-179.999985,joint3:-180.000000,joint4:948.845337,joint5:0.000000
time:29159.893364767;plan:joint0:363.730255,joint1:-74.839478,joint2:-179.999985,joint3:-180.000000,joint4:950.633240,joint5:0.000000
time:29159.897421986;plan:joint0:364.238251,joint1:-75.183502,joint2:-179.999985,joint3:-180.000000,joint4:952.408142,joint5:0.000000
time:29159.901376119;plan:joint0:364.742432,joint1:-75.524918,joint2:-179.999985,joint3:-180.000000,joint4:954.169556,joint5:0.000000
time:29159.905384727;plan:joint0:365.242615,joint1:-75.863640,joint2:-179.999985,joint3:-180.000000,joint4:955.917053,joint5:0.000000
time:29159.909365679;plan:joint0:365.738739,joint1:-76.199600,joint2:-179.999985,joint3:-180.000000,joint4:957.650330,joint5:0.000000
time:29159.913364231;plan:joint0:366.230652,joint1:-76.532715,joint2:-179.999985,joint3:-180.000000,joint4:959.368958,joint5:0.000000
time:29159.917358592;plan:joint0:366.718231,joint1:-76.862915,joint2:-179.999985,joint3:-180.000000,joint4:961.072510,joint5:0.000000
time:29159.921361335;plan:joint0:367.201416,joint1:-77.190125,joint2:-179.999985,joint3:-180.000000,joint4:962.760620,joint5:0.000000
time:29159.925363239;plan:joint0:367.680054,joint1:-77.514259,joint2:-179.999985,joint3:-180.000000,joint4:964.432922,joint5:0.000000
time:29159.929381067;plan:joint0:368.154053,joint1:-77.835243,joint2:-179.999985,joint3:-180.000000,joint4:966.088928,joint5:0.000000
time:29159.933364533;plan:joint0:368.623291,joint1:-78.153000,joint2:-179.999985,joint3:-180.000000,joint4:967.728271,joint5:0.000000
time:29159.937372304;plan:joint0:369.087646,joint1:-78.467461,joint2:-179.999985,joint3:-180.000000,joint4:969.350647,joint5:0.000000
time:29159.941362475;plan:joint0:369.547028,joint1:-78.778534,joint2:-179.999985,joint3:-180.000000,joint4:970.955566,joint5:0.000000
time:29159.945358512;plan:joint0:370.001282,joint1:-79.086159,joint2:-179.999985,joint3:-180.000000,joint4:972.542603,joint5:0.000000
time:29159.949360416;plan:joint0:370.450317,joint1:-79.390251,joint2:-179.999985,joint3:-180.000000,joint4:974.111450,joint5:0.000000
time:29159.953361483;plan:joint0:370.894043,joint1:-79.690735,joint2:-179.999985,joint3:-180.000000,joint4:975.661682,joint5:0.000000
time:29159.957361710;plan:joint0:371.332306,joint1:-79.987526,joint2:-179.999985,joint3:-180.000000,joint4:977.192932,joint5:0.000000
time:29159.961378699;plan:joint0:371.765045,joint1:-80.280563,joint2:-179.999985,joint3:-180.000000,joint4:978.704712,joint5:0.000000
time:29159.965358813;plan:joint0:372.192078,joint1:-80.569748,joint2:-179.999985,joint3:-180.000000,joint4:980.196716,joint5:0.000000
time:29159.969358203;plan:joint0:372.613342,joint1:-80.855026,joint2:-179.999985,joint3:-180.000000,joint4:981.668518,joint5:0.000000
time:29159.973360107;plan:joint0:373.028717,joint1:-81.136307,joint2:-179.999985,joint3:-180.000000,joint4:983.119690,joint5:0.000000
time:29159.977362011;plan:joint0:373.438080,joint1:-81.413528,joint2:-179.999985,joint3:-180.000000,joint4:984.549866,joint5:0.000000
time:29159.981390735;plan:joint0:373.841309,joint1:-81.686592,joint2:-179.999985,joint3:-180.000000,joint4:985.958679,joint5:0.000000
time:29159.985369172;plan:joint0:374.238312,joint1:-81.955429,joint2:-179.999985,joint3:-180.000000,joint4:987.345703,joint5:0.000000
time:29159.989356829;plan:joint0:374.628937,joint1:-82.219971,joint2:-179.999985,joint3:-180.000000,joint4:988.710510,joint5:0.000000
time:29159.993368790;plan:joint0:375.013123,joint1:-82.480141,joint2:-179.999985,joint3:-180.000000,joint4:990.052734,joint5:0.000000
time:29159.997383266;plan:joint0:375.390747,joint1:-82.735847,joint2:-179.999985,joint3:-180.000000,joint4:991.371948,joint5:0.000000
time:29160.001370922;plan:joint0:375.761658,joint1:-82.987030,joint2:-179.999985,joint3:-180.000000,joint4:992.667847,joint5:0.000000
time:29160.005376179;plan:joint0:376.125763,joint1:-83.233597,joint2:-179.999985,joint3:-180.000000,joint4:993.939941,joint5:0.000000
time:29160.009518883;plan:joint0:376.482941,joint1:-83.475487,joint2:-179.999985,joint3:-180.000000,joint4:995.187927,joint5:0.000000
time:29160.013500673;plan:joint0:376.833130,joint1:-83.712616,joint2:-179.999985,joint3:-180.000000,joint4:996.411255,joint5:0.000000
time:29160.017515149;plan:joint0:377.176147,joint1:-83.944901,joint2:-179.999985,joint3:-180.000000,joint4:997.609680,joint5:0.000000
time:29160.021506996;plan:joint0:377.511902,joint1:-84.172272,joint2:-179.999985,joint3:-180.000000,joint4:998.782776,joint5:0.000000
time:29160.025488785;plan:joint0:377.840271,joint1:-84.394653,joint2:-179.999985,joint3:-180.000000,joint4:999.930054,joint5:0.000000
time:29160.029478118;plan:joint0:378.161194,joint1:-84.611969,joint2:-179.999985,joint3:-180.000000,joint4:1001.051208,joint5:0.000000
time:29160.033416327;plan:joint0:378.474487,joint1:-84.824142,joint2:-179.999985,joint3:-180.000000,joint4:1002.145813,joint5:0.000000
time:29160.037428289;plan:joint0:378.780090,joint1:-85.031082,joint2:-179.999985,joint3:-180.000000,joint4:1003.213501,joint5:0.000000
time:29160.041443602;plan:joint0:379.077850,joint1:-85.232735,joint2:-179.999985,joint3:-180.000000,joint4:1004.253845,joint5:0.000000
time:29160.045386840;plan:joint0:379.367706,joint1:-85.429008,joint2:-179.999985,joint3:-180.000000,joint4:1005.266418,joint5:0.000000
time:29160.049315830;plan:joint0:379.649506,joint1:-85.619850,joint2:-179.999985,joint3:-180.000000,joint4:1006.251038,joint5:0.000000
time:29160.053317734;plan:joint0:379.923401,joint1:-85.805321,joint2:-179.999985,joint3:-180.000000,joint4:1007.207886,joint5:0.000000
time:29160.057309581;plan:joint0:380.189453,joint1:-85.985489,joint2:-179.999985,joint3:-180.000000,joint4:1008.137451,joint5:0.000000
time:29160.061313160;plan:joint0:380.447784,joint1:-86.160439,joint2:-179.999985,joint3:-180.000000,joint4:1009.040039,joint5:0.000000
time:29160.065305007;plan:joint0:380.698547,joint1:-86.330246,joint2:-179.999985,joint3:-180.000000,joint4:1009.916077,joint5:0.000000
time:29160.069306073;plan:joint0:380.941803,joint1:-86.494980,joint2:-179.999985,joint3:-180.000000,joint4:1010.765991,joint5:0.000000
time:29160.073318035;plan:joint0:381.177704,joint1:-86.654724,joint2:-179.999985,joint3:-180.000000,joint4:1011.590088,joint5:0.000000
time:29160.077304853;plan:joint0:381.406342,joint1:-86.809555,joint2:-179.999985,joint3:-180.000000,joint4:1012.388916,joint5:0.000000
time:29160.081330224;plan:joint0:381.627808,joint1:-86.959541,joint2:-179.999985,joint3:-180.000000,joint4:1013.162720,joint5:0.000000
time:29160.085303633;plan:joint0:381.842285,joint1:-87.104774,joint2:-179.999985,joint3:-180.000000,joint4:1013.911987,joint5:0.000000
time:29160.089295480;plan:joint0:382.049835,joint1:-87.245323,joint2:-179.999985,joint3:-180.000000,joint4:1014.637085,joint5:0.000000
time:29160.093298222;plan:joint0:382.250549,joint1:-87.381256,joint2:-179.999985,joint3:-180.000000,joint4:1015.338440,joint5:0.000000
time:29160.097290908;plan:joint0:382.444611,joint1:-87.512665,joint2:-179.999985,joint3:-180.000000,joint4:1016.016357,joint5:0.000000
time:29160.101291136;plan:joint0:382.632080,joint1:-87.639618,joint2:-179.999985,joint3:-180.000000,joint4:1016.671326,joint5:0.000000
time:29160.105285497;plan:joint0:382.813080,joint1:-87.762192,joint2:-179.999985,joint3:-180.000000,joint4:1017.303711,joint5:0.000000
time:29160.109291592;plan:joint0:382.987732,joint1:-87.880470,joint2:-179.999985,joint3:-180.000000,joint4:1017.913940,joint5:0.000000
time:29160.113285953;plan:joint0:383.156158,joint1:-87.994522,joint2:-179.999985,joint3:-180.000000,joint4:1018.502319,joint5:0.000000
time:29160.117288695;plan:joint0:383.318451,joint1:-88.104424,joint2:-179.999985,joint3:-180.000000,joint4:1019.069336,joint5:0.000000
time:29160.121288923;plan:joint0:383.474731,joint1:-88.210258,joint2:-179.999985,joint3:-180.000000,joint4:1019.615356,joint5:0.000000
time:29160.125289989;plan:joint0:383.625122,joint1:-88.312103,joint2:-179.999985,joint3:-180.000000,joint4:1020.140808,joint5:0.000000
time:29160.129305303;plan:joint0:383.769745,joint1:-88.410027,joint2:-179.999985,joint3:-180.000000,joint4:1020.645996,joint5:0.000000
time:29160.133292121;plan:joint0:383.908661,joint1:-88.504112,joint2:-179.999985,joint3:-180.000000,joint4:1021.131409,joint5:0.000000
time:29160.137292349;plan:joint0:384.042053,joint1:-88.594429,joint2:-179.999985,joint3:-180.000000,joint4:1021.597412,joint5:0.000000
time:29160.141290901;plan:joint0:384.169983,joint1:-88.681068,joint2:-179.999985,joint3:-180.000000,joint4:1022.044373,joint5:0.000000
time:29160.145289453;plan:joint0:384.292572,joint1:-88.764099,joint2:-179.999985,joint3:-180.000000,joint4:1022.472717,joint5:0.000000
time:29160.149293872;plan:joint0:384.409973,joint1:-88.843590,joint2:-179.999985,joint3:-180.000000,joint4:1022.882874,joint5:0.000000
time:29160.153288233;plan:joint0:384.522247,joint1:-88.919632,joint2:-179.999985,joint3:-180.000000,joint4:1023.275146,joint5:0.000000
time:29160.157289298;plan:joint0:384.629547,joint1:-88.992287,joint2:-179.999985,joint3:-180.000000,joint4:1023.650024,joint5:0.000000
time:29160.161284497;plan:joint0:384.731964,joint1:-89.061646,joint2:-179.999985,joint3:-180.000000,joint4:1024.007813,joint5:0.000000
time:29160.165291430;plan:joint0:384.829620,joint1:-89.127777,joint2:-179.999985,joint3:-180.000000,joint4:1024.348999,joint5:0.000000
time:29160.169284115;plan:joint0:384.922638,joint1:-89.190765,joint2:-179.999985,joint3:-180.000000,joint4:1024.673950,joint5:0.000000
time:29160.173286020;plan:joint0:385.011108,joint1:-89.250671,joint2:-179.999985,joint3:-180.000000,joint4:1024.983032,joint5:0.000000
time:29160.177287924;plan:joint0:385.095154,joint1:-89.307594,joint2:-179.999985,joint3:-180.000000,joint4:1025.276733,joint5:0.000000
time:29160.181333409;plan:joint0:385.174896,joint1:-89.361588,joint2:-179.999985,joint3:-180.000000,joint4:1025.555298,joint5:0.000000
time:29160.185305980;plan:joint0:385.250427,joint1:-89.412750,joint2:-179.999985,joint3:-180.000000,joint4:1025.819214,joint5:0.000000
time:29160.189303693;plan:joint0:385.321899,joint1:-89.461136,joint2:-179.999985,joint3:-180.000000,joint4:1026.068848,joint5:0.000000
time:29160.193293026;plan:joint0:385.389404,joint1:-89.506844,joint2:-179.999985,joint3:-180.000000,joint4:1026.304688,joint5:0.000000
time:29160.197289064;plan:joint0:385.453033,joint1:-89.549942,joint2:-179.999985,joint3:-180.000000,joint4:1026.526978,joint5:0.000000
time:29160.201285101;plan:joint0:385.512939,joint1:-89.590500,joint2:-179.999985,joint3:-180.000000,joint4:1026.736328,joint5:0.000000
time:29160.205287844;plan:joint0:385.569183,joint1:-89.628601,joint2:-179.999985,joint3:-180.000000,joint4:1026.932861,joint5:0.000000
time:29160.209281367;plan:joint0:385.621948,joint1:-89.664322,joint2:-179.999985,joint3:-180.000000,joint4:1027.117188,joint5:0.000000
time:29160.213286623;plan:joint0:385.671295,joint1:-89.697739,joint2:-179.999985,joint3:-180.000000,joint4:1027.289551,joint5:0.000000
time:29160.217282661;plan:joint0:385.717346,joint1:-89.728935,joint2:-179.999985,joint3:-180.000000,joint4:1027.450439,joint5:0.000000
time:29160.221288756;plan:joint0:385.760223,joint1:-89.757973,joint2:-179.999985,joint3:-180.000000,joint4:1027.600342,joint5:0.000000
time:29160.225282279;plan:joint0:385.800049,joint1:-89.784943,joint2:-179.999985,joint3:-180.000000,joint4:1027.739380,joint5:0.000000
time:29160.229287535;plan:joint0:385.836914,joint1:-89.809914,joint2:-179.999985,joint3:-180.000000,joint4:1027.868286,joint5:0.000000
time:29160.233286087;plan:joint0:385.870972,joint1:-89.832962,joint2:-179.999985,joint3:-180.000000,joint4:1027.987183,joint5:0.000000
time:29160.237291344;plan:joint0:385.902283,joint1:-89.854172,joint2:-179.999985,joint3:-180.000000,joint4:1028.096558,joint5:0.000000
time:29160.241313362;plan:joint0:385.931000,joint1:-89.873611,joint2:-179.999985,joint3:-180.000000,joint4:1028.196899,joint5:0.000000
time:29160.245289285;plan:joint0:385.957214,joint1:-89.891365,joint2:-179.999985,joint3:-180.000000,joint4:1028.288452,joint5:0.000000
time:29160.249279456;plan:joint0:385.981049,joint1:-89.907501,joint2:-179.999985,joint3:-180.000000,joint4:1028.371704,joint5:0.000000
time:29160.253286389;plan:joint0:386.002594,joint1:-89.922104,joint2:-179.999985,joint3:-180.000000,joint4:1028.447144,joint5:0.000000
time:29160.257280749;plan:joint0:386.022003,joint1:-89.935249,joint2:-179.999985,joint3:-180.000000,joint4:1028.514893,joint5:0.000000
time:29160.261285168;plan:joint0:386.039398,joint1:-89.947014,joint2:-179.999985,joint3:-180.000000,joint4:1028.575562,joint5:0.000000
time:29160.265281205;plan:joint0:386.054840,joint1:-89.957474,joint2:-179.999985,joint3:-180.000000,joint4:1028.629517,joint5:0.000000
time:29160.269283110;plan:joint0:386.068451,joint1:-89.966698,joint2:-179.999985,joint3:-180.000000,joint4:1028.677124,joint5:0.000000
time:29160.273282499;plan:joint0:386.080383,joint1:-89.974777,joint2:-179.999985,joint3:-180.000000,joint4:1028.718872,joint5:0.000000
time:29160.277286918;plan:joint0:386.090729,joint1:-89.981773,joint2:-179.999985,joint3:-180.000000,joint4:1028.754883,joint5:0.000000
time:29160.281303908;plan:joint0:386.099579,joint1:-89.987778,joint2:-179.999985,joint3:-180.000000,joint4:1028.785889,joint5:0.000000
time:29160.285281507;plan:joint0:386.107086,joint1:-89.992859,joint2:-179.999985,joint3:-180.000000,joint4:1028.812134,joint5:0.000000
time:29160.289283411;plan:joint0:386.113342,joint1:-89.997093,joint2:-179.999985,joint3:-180.000000,joint4:1028.833984,joint5:0.000000
time:29160.293281125;plan:joint0:386.118469,joint1:-90.000565,joint2:-179.999985,joint3:-180.000000,joint4:1028.851929,joint5:0.000000
time:29160.297324096;plan:joint0:386.122559,joint1:-90.003342,joint2:-179.999985,joint3:-180.000000,joint4:1028.866211,joint5:0.000000
time:29160.301285772;plan:joint0:386.125763,joint1:-90.005508,joint2:-179.999985,joint3:-180.000000,joint4:1028.877319,joint5:0.000000
time:29160.305277619;plan:joint0:386.128174,joint1:-90.007133,joint2:-179.999985,joint3:-180.000000,joint4:1028.885742,joint5:0.000000
time:29160.309280361;plan:joint0:386.129883,joint1:-90.008293,joint2:-179.999985,joint3:-180.000000,joint4:1028.891724,joint5:0.000000
time:29160.313277237;plan:joint0:386.131042,joint1:-90.009079,joint2:-179.999985,joint3:-180.000000,joint4:1028.895752,joint5:0.000000
time:29160.317284169;plan:joint0:386.131744,joint1:-90.009552,joint2:-179.999985,joint3:-180.000000,joint4:1028.898193,joint5:0.000000
time:29160.321288588;plan:joint0:386.132080,joint1:-90.009796,joint2:-179.999985,joint3:-180.000000,joint4:1028.899536,joint5:0.000000
time:29160.325286302;plan:joint0:386.132233,joint1:-90.009880,joint2:-179.999985,joint3:-180.000000,joint4:1028.899902,joint5:0.000000
time:29160.329275634;plan:joint0:386.132233,joint1:-90.009895,joint2:-179.999985,joint3:-180.000000,joint4:1028.900024,joint5:0.000000
time:29160.525338766;plan:joint0:386.131561,joint1:-90.009895,joint2:-180.000015,joint3:-180.000000,joint4:1028.900024,joint5:0.000000
time:29160.529264404;plan:joint0:386.126740,joint1:-90.009895,joint2:-180.000015,joint3:-180.000000,joint4:1028.900024,joint5:0.000000
time:29160.533262956;plan:joint0:386.113708,joint1:-90.009895,joint2:-180.000015,joint3:-180.000000,joint4:1028.900024,joint5:0.000000
time:29160.537260669;plan:joint0:386.088348,joint1:-90.009895,joint2:-180.000015,joint3:-180.000000,joint4:1028.900024,joint5:0.000000
time:29160.541262573;plan:joint0:386.046509,joint1:-90.009895,joint2:-180.000015,joint3:-180.000000,joint4:1028.900024,joint5:0.000000
time:29160.545257773;plan:joint0:385.984070,joint1:-90.009895,joint2:-180.000015,joint3:-180.000000,joint4:1028.900024,joint5:0.000000
time:29160.549262191;plan:joint0:385.896973,joint1:-90.009895,joint2:-180.000015,joint3:-180.000000,joint4:1028.900024,joint5:0.000000
time:29160.553262419;plan:joint0:385.781067,joint1:-90.009895,joint2:-180.000015,joint3:-180.000000,joint4:1028.900024,joint5:0.000000
time:29160.557260133;plan:joint0:385.632233,joint1:-90.009895,joint2:-180.000015,joint3:-180.000000,joint4:1028.900024,joint5:0.000000
time:29160.561264551;plan:joint0:385.447723,joint1:-90.009895,joint2:-180.000015,joint3:-180.000000,joint4:1028.900024,joint5:0.000000
time:29160.565264779;plan:joint0:385.230316,joint1:-90.009895,joint2:-180.000015,joint3:-180.000000,joint4:1028.900024,joint5:0.000000
time:29160.569259978;plan:joint0:384.984070,joint1:-90.009895,joint2:-180.000015,joint3:-180.000000,joint4:1028.900024,joint5:0.000000
time:29160.573349882;plan:joint0:384.713165,joint1:-90.009895,joint2:-180.000015,joint3:-180.000000,joint4:1028.900024,joint5:0.000000
time:29160.577303177;plan:joint0:384.421661,joint1:-90.009895,joint2:-180.000015,joint3:-180.000000,joint4:1028.900024,joint5:0.000000
time:29160.581292510;plan:joint0:384.113708,joint1:-90.009895,joint2:-180.000015,joint3:-180.000000,joint4:1028.900024,joint5:0.000000
time:29160.585270109;plan:joint0:383.793427,joint1:-90.009895,joint2:-180.000015,joint3:-180.000000,joint4:1028.900024,joint5:0.000000
time:29160.589261118;plan:joint0:383.464874,joint1:-90.009895,joint2:-180.000015,joint3:-180.000000,joint4:1028.900024,joint5:0.000000
time:29160.593265536;plan:joint0:383.132233,joint1:-90.009895,joint2:-180.000015,joint3:-180.000000,joint4:1028.900024,joint5:0.000000
time:29160.597323593;plan:joint0:382.799591,joint1:-90.009895,joint2:-180.000015,joint3:-180.000000,joint4:1028.900024,joint5:0.000000
time:29160.601295326;plan:joint0:382.471039,joint1:-90.009895,joint2:-180.000015,joint3:-180.000000,joint4:1028.900024,joint5:0.000000
time:29160.605308963;plan:joint0:382.150757,joint1:-90.009895,joint2:-180.000015,joint3:-180.000000,joint4:1028.900024,joint5:0.000000
time:29160.609301648;plan:joint0:381.842804,joint1:-90.009895,joint2:-180.000015,joint3:-180.000000,joint4:1028.900024,joint5:0.000000
time:29160.613293496;plan:joint0:381.551300,joint1:-90.009895,joint2:-180.000015,joint3:-180.000000,joint4:1028.900024,joint5:0.000000
time:29160.617300428;plan:joint0:381.280396,joint1:-90.009895,joint2:-180.000015,joint3:-180.000000,joint4:1028.900024,joint5:0.000000
time:29160.621293952;plan:joint0:381.034149,joint1:-90.009895,joint2:-180.000015,joint3:-180.000000,joint4:1028.900024,joint5:0.000000
time:29160.625304237;plan:joint0:380.816742,joint1:-90.009895,joint2:-180.000015,joint3:-180.000000,joint4:1028.900024,joint5:0.000000
time:29160.629301950;plan:joint0:380.632233,joint1:-90.009895,joint2:-180.000015,joint3:-180.000000,joint4:1028.900024,joint5:0.000000
time:29160.633294636;plan:joint0:380.483398,joint1:-90.009895,joint2:-180.000015,joint3:-180.000000,joint4:1028.900024,joint5:0.000000
time:29160.637284806;plan:joint0:380.367493,joint1:-90.009895,joint2:-180.000015,joint3:-180.000000,joint4:1028.900024,joint5:0.000000
time:29160.641278330;plan:joint0:380.280396,joint1:-90.009895,joint2:-180.000015,joint3:-180.000000,joint4:1028.900024,joint5:0.000000
time:29160.645281910;plan:joint0:380.217957,joint1:-90.009895,joint2:-180.000015,joint3:-180.000000,joint4:1028.900024,joint5:0.000000
time:29160.649274595;plan:joint0:380.176117,joint1:-90.009895,joint2:-180.000015,joint3:-180.000000,joint4:1028.900024,joint5:0.000000
time:29160.653283204;plan:joint0:380.150757,joint1:-90.009895,joint2:-180.000015,joint3:-180.000000,joint4:1028.900024,joint5:0.000000
time:29160.657271698;plan:joint0:380.137726,joint1:-90.009895,joint2:-180.000015,joint3:-180.000000,joint4:1028.900024,joint5:0.000000
time:29160.661274440;plan:joint0:380.132904,joint1:-90.009895,joint2:-180.000015,joint3:-180.000000,joint4:1028.900024,joint5:0.000000
time:29160.665270478;plan:joint0:380.132233,joint1:-90.009895,joint2:-180.000015,joint3:-180.000000,joint4:1028.900024,joint5:0.000000
time:29160.669269867;plan:joint0:380.132233,joint1:-90.009895,joint2:-179.998413,joint3:-180.000000,joint4:1028.900024,joint5:0.000000
time:29160.673266743;plan:joint0:380.132233,joint1:-90.009895,joint2:-179.987137,joint3:-180.000000,joint4:1028.900024,joint5:0.000000
time:29160.677264457;plan:joint0:380.132233,joint1:-90.009895,joint2:-179.956512,joint3:-180.000000,joint4:1028.900024,joint5:0.000000
time:29160.681284799;plan:joint0:380.132233,joint1:-90.009895,joint2:-179.896866,joint3:-180.000000,joint4:1028.900024,joint5:0.000000
time:29160.685272456;plan:joint0:380.132233,joint1:-90.009895,joint2:-179.798538,joint3:-180.000000,joint4:1028.900024,joint5:0.000000
time:29160.689281903;plan:joint0:380.132233,joint1:-90.009895,joint2:-179.651840,joint3:-180.000000,joint4:1028.900024,joint5:0.000000
time:29160.693264531;plan:joint0:380.132233,joint1:-90.009895,joint2:-179.447113,joint3:-180.000000,joint4:1028.900024,joint5:0.000000
time:29160.697245483;plan:joint0:380.132233,joint1:-90.009895,joint2:-179.174698,joint3:-180.000000,joint4:1028.900024,joint5:0.000000
time:29160.701262472;plan:joint0:380.132233,joint1:-90.009895,joint2:-178.824890,joint3:-180.000000,joint4:1028.900024,joint5:0.000000
time:29160.705246777;plan:joint0:380.132233,joint1:-90.009895,joint2:-178.388046,joint3:-180.000000,joint4:1028.900024,joint5:0.000000
time:29160.709248681;plan:joint0:380.132233,joint1:-90.009895,joint2:-177.854477,joint3:-180.000000,joint4:1028.900024,joint5:0.000000
time:29160.713247233;plan:joint0:380.132233,joint1:-90.009895,joint2:-177.214523,joint3:-180.000000,joint4:1028.900024,joint5:0.000000
time:29160.717248299;plan:joint0:380.132233,joint1:-90.009895,joint2:-176.458496,joint3:-180.000000,joint4:1028.900024,joint5:0.000000
time:29160.721251041;plan:joint0:380.132233,joint1:-90.009895,joint2:-175.576752,joint3:-180.000000,joint4:1028.900024,joint5:0.000000
time:29160.725254621;plan:joint0:380.132233,joint1:-90.009895,joint2:-174.559586,joint3:-180.000000,joint4:1028.900024,joint5:0.000000
time:29160.729253173;plan:joint0:380.132233,joint1:-90.009895,joint2:-173.397339,joint3:-180.000000,joint4:1028.900024,joint5:0.000000
time:29160.733250049;plan:joint0:380.132233,joint1:-90.009895,joint2:-172.080353,joint3:-180.000000,joint4:1028.900024,joint5:0.000000
time:29160.737247763;plan:joint0:380.132233,joint1:-90.009895,joint2:-170.598938,joint3:-180.000000,joint4:1028.900024,joint5:0.000000
time:29160.741248829;plan:joint0:380.132233,joint1:-90.009895,joint2:-168.943436,joint3:-180.000000,joint4:1028.900024,joint5:0.000000
time:29160.745264142;plan:joint0:380.132233,joint1:-90.009895,joint2:-167.104156,joint3:-180.000000,joint4:1028.900024,joint5:0.000000
time:29160.749246770;plan:joint0:380.132233,joint1:-90.009895,joint2:-165.071442,joint3:-180.000000,joint4:1028.900024,joint5:0.000000
time:29160.753243646;plan:joint0:380.132233,joint1:-90.009895,joint2:-162.835617,joint3:-180.000000,joint4:1028.900024,joint5:0.000000
time:29160.757246388;plan:joint0:380.132233,joint1:-90.009895,joint2:-160.387009,joint3:-180.000000,joint4:1028.900024,joint5:0.000000
time:29160.761243263;plan:joint0:380.132233,joint1:-90.009895,joint2:-157.715958,joint3:-180.000000,joint4:1028.900024,joint5:0.000000
time:29160.765245167;plan:joint0:380.132233,joint1:-90.009895,joint2:-154.812775,joint3:-180.000000,joint4:1028.900024,joint5:0.000000
time:29160.769252100;plan:joint0:380.132233,joint1:-90.009895,joint2:-151.667786,joint3:-180.000000,joint4:1028.900024,joint5:0.000000
time:29160.773284175;plan:joint0:380.132233,joint1:-90.009895,joint2:-148.271332,joint3:-180.000000,joint4:1028.900024,joint5:0.000000
time:29160.777257584;plan:joint0:380.132233,joint1:-90.009895,joint2:-144.616974,joint3:-180.000000,joint4:1028.900024,joint5:0.000000
time:29160.781300555;plan:joint0:380.132233,joint1:-90.009895,joint2:-140.711136,joint3:-180.000000,joint4:1028.900024,joint5:0.000000
time:29160.785250498;plan:joint0:380.132233,joint1:-90.009895,joint2:-136.563492,joint3:-180.000000,joint4:1028.900024,joint5:0.000000
time:29160.789249887;plan:joint0:380.132233,joint1:-90.009895,joint2:-132.183731,joint3:-180.000000,joint4:1028.900024,joint5:0.000000
time:29160.793247601;plan:joint0:380.132233,joint1:-90.009895,joint2:-127.581520,joint3:-180.000000,joint4:1028.900024,joint5:0.000000
time:29160.797276324;plan:joint0:380.132233,joint1:-90.009895,joint2:-122.766525,joint3:-180.000000,joint4:1028.900024,joint5:0.000000
time:29160.801272362;plan:joint0:380.132233,joint1:-90.009895,joint2:-117.748413,joint3:-180.000000,joint4:1028.900024,joint5:0.000000
time:29160.805258342;plan:joint0:380.132233,joint1:-90.009895,joint2:-112.536865,joint3:-180.000000,joint4:1028.900024,joint5:0.000000
time:29160.809246837;plan:joint0:380.132233,joint1:-90.009895,joint2:-107.141556,joint3:-180.000000,joint4:1028.900024,joint5:0.000000
time:29160.813251255;plan:joint0:380.132233,joint1:-90.009895,joint2:-101.572144,joint3:-180.000000,joint4:1028.900024,joint5:0.000000
time:29160.817248131;plan:joint0:380.132233,joint1:-90.009895,joint2:-95.838318,joint3:-180.000000,joint4:1028.900024,joint5:0.000000
time:29160.821412626;plan:joint0:380.132233,joint1:-90.009895,joint2:-89.949738,joint3:-180.000000,joint4:1028.900024,joint5:0.000000
time:29160.825384358;plan:joint0:380.132233,joint1:-90.009895,joint2:-83.916084,joint3:-180.000000,joint4:1028.900024,joint5:0.000000
time:29160.829386263;plan:joint0:380.132233,joint1:-90.009895,joint2:-77.747017,joint3:-180.000000,joint4:1028.900024,joint5:0.000000
time:29160.833378110;plan:joint0:380.132233,joint1:-90.009895,joint2:-71.452217,joint3:-180.000000,joint4:1028.900024,joint5:0.000000
time:29160.837397614;plan:joint0:380.132233,joint1:-90.009895,joint2:-65.041359,joint3:-180.000000,joint4:1028.900024,joint5:0.000000
time:29160.841362642;plan:joint0:380.132233,joint1:-90.009895,joint2:-58.524101,joint3:-180.000000,joint4:1028.900024,joint5:0.000000
time:29160.845318451;plan:joint0:380.132233,joint1:-90.009895,joint2:-51.910133,joint3:-180.000000,joint4:1028.900024,joint5:0.000000
time:29160.849319517;plan:joint0:380.132233,joint1:-90.009895,joint2:-45.209114,joint3:-180.000000,joint4:1028.900024,joint5:0.000000
time:29160.853328126;plan:joint0:380.132233,joint1:-90.009895,joint2:-38.430717,joint3:-180.000000,joint4:1028.900024,joint5:0.000000
time:29160.857253762;plan:joint0:380.132233,joint1:-90.009895,joint2:-31.584618,joint3:-180.000000,joint4:1028.900024,joint5:0.000000
time:29160.861238067;plan:joint0:380.132233,joint1:-90.009895,joint2:-24.680489,joint3:-180.000000,joint4:1028.900024,joint5:0.000000
time:29160.865233266;plan:joint0:380.132233,joint1:-90.009895,joint2:-17.728004,joint3:-180.000000,joint4:1028.900024,joint5:0.000000
time:29160.869228465;plan:joint0:380.132233,joint1:-90.009895,joint2:-10.736824,joint3:-180.000000,joint4:1028.900024,joint5:0.000000
time:29160.873222827;plan:joint0:380.132233,joint1:-90.009895,joint2:-3.716637,joint3:-180.000000,joint4:1028.900024,joint5:0.000000
time:29160.877226407;plan:joint0:380.132233,joint1:-90.009895,joint2:3.322899,joint3:-180.000000,joint4:1028.900024,joint5:0.000000
time:29160.881239207;plan:joint0:380.132233,joint1:-90.009895,joint2:10.372108,joint3:-180.000000,joint4:1028.900024,joint5:0.000000
time:29160.885215130;plan:joint0:380.132233,joint1:-90.009895,joint2:17.422928,joint3:-180.000000,joint4:1028.900024,joint5:0.000000
time:29160.889209491;plan:joint0:380.132233,joint1:-90.009895,joint2:24.473749,joint3:-180.000000,joint4:1028.900024,joint5:0.000000
time:29160.893210557;plan:joint0:380.132233,joint1:-90.009895,joint2:31.524569,joint3:-180.000000,joint4:1028.900024,joint5:0.000000
time:29160.897209109;plan:joint0:380.132233,joint1:-90.009895,joint2:38.575390,joint3:-180.000000,joint4:1028.900024,joint5:0.000000
time:29160.901213528;plan:joint0:380.132233,joint1:-90.009895,joint2:45.626209,joint3:-180.000000,joint4:1028.900024,joint5:0.000000
time:29160.905212917;plan:joint0:380.132233,joint1:-90.009895,joint2:52.677029,joint3:-180.000000,joint4:1028.900024,joint5:0.000000
time:29160.909209793;plan:joint0:380.132233,joint1:-90.009895,joint2:59.727848,joint3:-180.000000,joint4:1028.900024,joint5:0.000000
time:29160.913272040;plan:joint0:380.132233,joint1:-90.009895,joint2:66.777054,joint3:-180.000000,joint4:1028.900024,joint5:0.000000
time:29160.917249640;plan:joint0:380.132233,joint1:-90.009895,joint2:73.816589,joint3:-180.000000,joint4:1028.900024,joint5:0.000000
time:29160.921249029;plan:joint0:380.132233,joint1:-90.009895,joint2:80.836784,joint3:-180.000000,joint4:1028.900024,joint5:0.000000
time:29160.925248419;plan:joint0:380.132233,joint1:-90.009895,joint2:87.827957,joint3:-180.000000,joint4:1028.900024,joint5:0.000000
time:29160.929245295;plan:joint0:380.132233,joint1:-90.009895,joint2:94.780449,joint3:-180.000000,joint4:1028.900024,joint5:0.000000
time:29160.933247199;plan:joint0:380.132233,joint1:-90.009895,joint2:101.684586,joint3:-180.000000,joint4:1028.900024,joint5:0.000000
time:29160.937243237;plan:joint0:380.132233,joint1:-90.009895,joint2:108.530678,joint3:-180.000000,joint4:1028.900024,joint5:0.000000
time:29160.941252684;plan:joint0:380.132233,joint1:-90.009895,joint2:115.309074,joint3:-180.000000,joint4:1028.900024,joint5:0.000000
time:29160.945254588;plan:joint0:380.132233,joint1:-90.009895,joint2:122.010094,joint3:-180.000000,joint4:1028.900024,joint5:0.000000
time:29160.949249787;plan:joint0:380.132233,joint1:-90.009895,joint2:128.624069,joint3:-180.000000,joint4:1028.900024,joint5:0.000000
time:29160.953242473;plan:joint0:380.132233,joint1:-90.009895,joint2:135.141312,joint3:-180.000000,joint4:1028.900024,joint5:0.000000
time:29160.957248566;plan:joint0:380.132233,joint1:-90.009895,joint2:141.552185,joint3:-180.000000,joint4:1028.900024,joint5:0.000000
time:29160.961247956;plan:joint0:380.132233,joint1:-90.009895,joint2:147.846985,joint3:-180.000000,joint4:1028.900024,joint5:0.000000
time:29160.965247346;plan:joint0:380.132233,joint1:-90.009895,joint2:154.016052,joint3:-180.000000,joint4:1028.900024,joint5:0.000000
time:29160.969263498;plan:joint0:380.132233,joint1:-90.009895,joint2:160.049698,joint3:-180.000000,joint4:1028.900024,joint5:0.000000
time:29160.973247802;plan:joint0:380.132233,joint1:-90.009895,joint2:165.938278,joint3:-180.000000,joint4:1028.900024,joint5:0.000000
time:29160.977242163;plan:joint0:380.132233,joint1:-90.009895,joint2:171.672104,joint3:-180.000000,joint4:1028.900024,joint5:0.000000
time:29160.981269210;plan:joint0:380.132233,joint1:-90.009895,joint2:177.241516,joint3:-180.000000,joint4:1028.900024,joint5:0.000000
time:29160.985245134;plan:joint0:380.132233,joint1:-90.009895,joint2:182.636826,joint3:-180.000000,joint4:1028.900024,joint5:0.000000
time:29160.989251228;plan:joint0:380.132233,joint1:-90.009895,joint2:187.848373,joint3:-180.000000,joint4:1028.900024,joint5:0.000000
time:29160.993243075;plan:joint0:380.132233,joint1:-90.009895,joint2:192.866486,joint3:-180.000000,joint4:1028.900024,joint5:0.000000
time:29160.997269284;plan:joint0:380.132233,joint1:-90.009895,joint2:197.681473,joint3:-180.000000,joint4:1028.900024,joint5:0.000000
time:29161.001241855;plan:joint0:380.132233,joint1:-90.009895,joint2:202.283691,joint3:-180.000000,joint4:1028.900024,joint5:0.000000
time:29161.005244597;plan:joint0:380.132233,joint1:-90.009895,joint2:206.663452,joint3:-180.000000,joint4:1028.900024,joint5:0.000000
time:29161.009246502;plan:joint0:380.132233,joint1:-90.009895,joint2:210.811096,joint3:-180.000000,joint4:1028.900024,joint5:0.000000
time:29161.013240863;plan:joint0:380.132233,joint1:-90.009895,joint2:214.716934,joint3:-180.000000,joint4:1028.900024,joint5:0.000000
time:29161.017241091;plan:joint0:380.132233,joint1:-90.009895,joint2:218.371292,joint3:-180.000000,joint4:1028.900024,joint5:0.000000
time:29161.021222881;plan:joint0:380.132233,joint1:-90.009895,joint2:221.767746,joint3:-180.000000,joint4:1028.900024,joint5:0.000000
time:29161.025234004;plan:joint0:380.132233,joint1:-90.009895,joint2:224.912735,joint3:-180.000000,joint4:1028.900024,joint5:0.000000
time:29161.029220823;plan:joint0:380.132233,joint1:-90.009895,joint2:227.815918,joint3:-180.000000,joint4:1028.900024,joint5:0.000000
time:29161.033222727;plan:joint0:380.132233,joint1:-90.009895,joint2:230.486969,joint3:-180.000000,joint4:1028.900024,joint5:0.000000
time:29161.037225469;plan:joint0:380.132233,joint1:-90.009895,joint2:232.935577,joint3:-180.000000,joint4:1028.900024,joint5:0.000000
time:29161.041226535;plan:joint0:380.132233,joint1:-90.009895,joint2:235.171402,joint3:-180.000000,joint4:1028.900024,joint5:0.000000
time:29161.045225087;plan:joint0:380.132233,joint1:-90.009895,joint2:237.204117,joint3:-180.000000,joint4:1028.900024,joint5:0.000000
time:29161.049208553;plan:joint0:380.132233,joint1:-90.009895,joint2:239.043381,joint3:-180.000000,joint4:1028.900024,joint5:0.000000
time:29161.053217162;plan:joint0:380.132233,joint1:-90.009895,joint2:240.698898,joint3:-180.000000,joint4:1028.900024,joint5:0.000000
time:29161.057219904;plan:joint0:380.132233,joint1:-90.009895,joint2:242.180313,joint3:-180.000000,joint4:1028.900024,joint5:0.000000
time:29161.061216779;plan:joint0:380.132233,joint1:-90.009895,joint2:243.497299,joint3:-180.000000,joint4:1028.900024,joint5:0.000000
time:29161.065211978;plan:joint0:380.132233,joint1:-90.009895,joint2:244.659546,joint3:-180.000000,joint4:1028.900024,joint5:0.000000
time:29161.069219749;plan:joint0:380.132233,joint1:-90.009895,joint2:245.676697,joint3:-180.000000,joint4:1028.900024,joint5:0.000000
time:29161.073217463;plan:joint0:380.132233,joint1:-90.009895,joint2:246.558456,joint3:-180.000000,joint4:1028.900024,joint5:0.000000
time:29161.077222719;plan:joint0:380.132233,joint1:-90.009895,joint2:247.314484,joint3:-180.000000,joint4:1028.900024,joint5:0.000000
time:29161.081258986;plan:joint0:380.132233,joint1:-90.009895,joint2:247.954437,joint3:-180.000000,joint4:1028.900024,joint5:0.000000
time:29161.085217309;plan:joint0:380.132233,joint1:-90.009895,joint2:248.488007,joint3:-180.000000,joint4:1028.900024,joint5:0.000000
time:29161.089223403;plan:joint0:380.132233,joint1:-90.009895,joint2:248.924850,joint3:-180.000000,joint4:1028.900024,joint5:0.000000
time:29161.093215251;plan:joint0:380.132233,joint1:-90.009895,joint2:249.274658,joint3:-180.000000,joint4:1028.900024,joint5:0.000000
time:29161.097213802;plan:joint0:380.132233,joint1:-90.009895,joint2:249.547073,joint3:-180.000000,joint4:1028.900024,joint5:0.000000
time:29161.101215707;plan:joint0:380.132233,joint1:-90.009895,joint2:249.751801,joint3:-180.000000,joint4:1028.900024,joint5:0.000000
